; generated by PrusaSlicer 2.3.0+win64 on 2021-01-21 at 13:29:12 UTC

; 

; external perimeters extrusion width = 0.45mm
; perimeters extrusion width = 0.45mm
; infill extrusion width = 0.45mm
; solid infill extrusion width = 0.45mm
; top infill extrusion width = 0.40mm
; first layer extrusion width = 0.42mm

M201 X500 Y500 Z100 E5000 ; sets maximum accelerations, mm/sec^2
M203 X500 Y500 Z10 E60 ; sets maximum feedrates, mm/sec
M204 P500 R1000 T500 ; sets acceleration (P, T) and retract acceleration (R), mm/sec^2
M205 X8.00 Y8.00 Z0.40 E5.00 ; sets the jerk limits, mm/sec
M205 S0 T0 ; sets the minimum extruding and travel feed rate, mm/sec
M107
;TYPE:Custom
G90 ; use absolute coordinates
M83 ; extruder relative mode
M104 S208 ; set extruder temp
M140 S60 ; set bed temp
M190 S60 ; wait for bed temp
M109 S208 ; wait for extruder temp
G28 ; home all
G1 Z2 F240
G1 X2 Y10 F3000
G1 Z0.28 F240
G92 E0
G1 Y190 E15 F1500 ; intro line
G1 X2.3 F5000
G92 E0
G1 Y10 E15 F1200 ; intro line
G92 E0
G21 ; set units to millimeters
G90 ; use absolute coordinates
M83 ; use relative distances for extrusion
; Filament gcode
;LAYER_CHANGE
;Z:0.2
;HEIGHT:0.2
;BEFORE_LAYER_CHANGE
G92 E0
;0.2


G1 E-5.00000 F3600.000
G1 Z0.100 F9000.000
;AFTER_LAYER_CHANGE
;0.2
G1 X38.616 Y71.804
G1 E5.00000 F2400.000
;TYPE:Skirt
;WIDTH:0.42
G1 F1200.000
G1 X39.603 Y70.474 E0.05195
G1 X40.577 Y69.598 E0.04105
G1 X41.296 Y69.120 E0.02707
G1 X42.835 Y68.450 E0.05262
G1 X44.121 Y68.177 E0.04121
G1 X44.982 Y68.123 E0.02707
G1 X175.004 Y68.123 E4.07674
G1 X176.520 Y68.281 E0.04780
G1 X177.903 Y68.720 E0.04550
G1 X179.234 Y69.461 E0.04775
G1 X180.015 Y70.092 E0.03147
G1 X180.978 Y71.177 E0.04550
G1 X181.740 Y72.501 E0.04788
G1 X182.213 Y73.953 E0.04788
G1 X182.375 Y75.395 E0.04550
G1 X182.374 Y144.614 E2.17033
G1 X182.239 Y145.911 E0.04090
G1 X182.046 Y146.679 E0.02480
G1 X181.380 Y148.203 E0.05215
G1 X180.397 Y149.527 E0.05171
G1 X179.423 Y150.402 E0.04105
G1 X178.704 Y150.880 E0.02707
G1 X177.165 Y151.550 E0.05262
G1 X175.879 Y151.823 E0.04121
G1 X175.018 Y151.877 E0.02707
G1 X44.954 Y151.877 E4.07805
G1 X44.114 Y151.822 E0.02639
G1 X42.832 Y151.549 E0.04110
G1 X41.307 Y150.886 E0.05215
G1 X39.974 Y149.897 E0.05207
G1 X39.098 Y148.923 E0.04105
G1 X38.620 Y148.204 E0.02707
G1 X37.951 Y146.669 E0.05250
G1 X37.678 Y145.383 E0.04121
G1 X37.623 Y144.533 E0.02671
G1 X37.624 Y75.420 E2.16699
G1 X37.679 Y74.611 E0.02544
G1 X37.953 Y73.325 E0.04121
G1 X38.592 Y71.859 E0.05015
G1 E-3.50000 F3600.000
;WIPE_START
G1 F7200.000
G1 X39.603 Y70.474 E-0.81481
G1 X40.559 Y69.615 E-0.61019
;WIPE_END
G1 E-0.07500 F3600.000
G1 X58.293 Y76.533 F9000.000
G1 E5.00000 F2400.000
;TYPE:Perimeter
G1 F1200.000
G1 X58.393 Y76.160 E0.01211
G1 X58.531 Y75.800 E0.01209
G1 X58.706 Y75.456 E0.01211
G1 X58.916 Y75.132 E0.01211
G1 X59.159 Y74.832 E0.01210
G1 X59.432 Y74.559 E0.01209
G1 X59.732 Y74.316 E0.01211
G1 X60.056 Y74.106 E0.01210
G1 X60.400 Y73.931 E0.01210
G1 X60.760 Y73.792 E0.01210
G1 X61.133 Y73.693 E0.01210
G1 X61.514 Y73.632 E0.01210
G1 X61.882 Y73.613 E0.01154
G1 X158.118 Y73.613 E3.01741
G1 X158.486 Y73.632 E0.01154
G1 X158.867 Y73.693 E0.01210
G1 X159.240 Y73.793 E0.01211
G1 X159.600 Y73.931 E0.01209
G1 X159.944 Y74.106 E0.01211
G1 X160.268 Y74.316 E0.01210
G1 X160.568 Y74.559 E0.01210
G1 X160.841 Y74.832 E0.01209
G1 X161.084 Y75.132 E0.01211
G1 X161.294 Y75.456 E0.01210
G1 X161.469 Y75.800 E0.01210
G1 X161.608 Y76.160 E0.01210
G1 X161.707 Y76.533 E0.01210
G1 X161.768 Y76.914 E0.01210
G1 X161.787 Y77.282 E0.01154
G1 X161.787 Y142.518 E2.04543
G1 X161.768 Y142.886 E0.01154
G1 X161.707 Y143.267 E0.01210
G1 X161.607 Y143.640 E0.01211
G1 X161.469 Y144.000 E0.01209
G1 X161.294 Y144.344 E0.01211
G1 X161.084 Y144.668 E0.01211
G1 X160.841 Y144.968 E0.01210
G1 X160.568 Y145.241 E0.01209
G1 X160.268 Y145.484 E0.01211
G1 X159.944 Y145.694 E0.01210
G1 X159.600 Y145.869 E0.01210
G1 X159.240 Y146.008 E0.01210
G1 X158.867 Y146.107 E0.01210
G1 X158.485 Y146.168 E0.01210
G1 X158.118 Y146.187 E0.01154
G1 X61.882 Y146.187 E3.01741
G1 X61.515 Y146.168 E0.01154
G1 X61.133 Y146.107 E0.01210
G1 X60.760 Y146.007 E0.01211
G1 X60.400 Y145.869 E0.01209
G1 X60.056 Y145.694 E0.01211
G1 X59.732 Y145.484 E0.01211
G1 X59.432 Y145.241 E0.01210
G1 X59.159 Y144.968 E0.01209
G1 X58.916 Y144.668 E0.01211
G1 X58.706 Y144.344 E0.01210
G1 X58.531 Y144.000 E0.01210
G1 X58.392 Y143.640 E0.01210
G1 X58.293 Y143.267 E0.01210
G1 X58.232 Y142.886 E0.01210
G1 X58.213 Y142.518 E0.01154
G1 X58.213 Y77.282 E2.04543
G1 X58.232 Y76.914 E0.01154
G1 X58.283 Y76.592 E0.01022
G1 X58.656 Y76.651 F9000.000
;TYPE:External perimeter
G1 F1200.000
G1 X58.752 Y76.277 E0.01213
G1 X58.876 Y75.954 E0.01085
G1 X59.033 Y75.645 E0.01087
G1 X59.222 Y75.354 E0.01087
G1 X59.440 Y75.085 E0.01086
G1 X59.685 Y74.840 E0.01085
G1 X59.954 Y74.622 E0.01087
G1 X60.245 Y74.433 E0.01086
G1 X60.554 Y74.276 E0.01086
G1 X60.877 Y74.152 E0.01086
G1 X61.212 Y74.062 E0.01086
G1 X61.554 Y74.008 E0.01086
G1 X61.892 Y73.990 E0.01061
G1 X158.108 Y73.990 E3.01679
G1 X158.446 Y74.008 E0.01061
G1 X158.788 Y74.062 E0.01086
G1 X159.123 Y74.152 E0.01087
G1 X159.446 Y74.276 E0.01085
G1 X159.755 Y74.433 E0.01087
G1 X160.046 Y74.622 E0.01087
G1 X160.315 Y74.840 E0.01086
G1 X160.560 Y75.085 E0.01085
G1 X160.778 Y75.354 E0.01087
G1 X160.967 Y75.645 E0.01087
G1 X161.124 Y75.954 E0.01086
G1 X161.248 Y76.277 E0.01086
G1 X161.338 Y76.612 E0.01087
G1 X161.392 Y76.954 E0.01086
G1 X161.410 Y77.292 E0.01061
G1 X161.410 Y142.508 E2.04481
G1 X161.392 Y142.846 E0.01061
G1 X161.338 Y143.188 E0.01086
G1 X161.248 Y143.523 E0.01087
G1 X161.124 Y143.846 E0.01085
G1 X160.967 Y144.155 E0.01087
G1 X160.778 Y144.446 E0.01087
G1 X160.560 Y144.715 E0.01086
G1 X160.315 Y144.960 E0.01085
G1 X160.046 Y145.178 E0.01087
G1 X159.755 Y145.367 E0.01087
G1 X159.446 Y145.524 E0.01086
G1 X159.123 Y145.648 E0.01086
G1 X158.788 Y145.738 E0.01086
G1 X158.446 Y145.792 E0.01086
G1 X158.108 Y145.810 E0.01061
G1 X61.892 Y145.810 E3.01679
G1 X61.554 Y145.792 E0.01061
G1 X61.212 Y145.738 E0.01086
G1 X60.877 Y145.648 E0.01087
G1 X60.554 Y145.524 E0.01085
G1 X60.245 Y145.367 E0.01087
G1 X59.954 Y145.178 E0.01087
G1 X59.685 Y144.960 E0.01086
G1 X59.440 Y144.715 E0.01085
G1 X59.222 Y144.446 E0.01087
G1 X59.033 Y144.155 E0.01087
G1 X58.876 Y143.846 E0.01086
G1 X58.752 Y143.523 E0.01086
G1 X58.662 Y143.188 E0.01086
G1 X58.608 Y142.846 E0.01086
G1 X58.590 Y142.508 E0.01061
G1 X58.590 Y77.292 E2.04481
G1 X58.608 Y76.954 E0.01061
G1 X58.646 Y76.711 E0.00772
G1 X58.366 Y76.395 F9000.000
G1 E-3.50000 F3600.000
;WIPE_START
G1 F7200.000
G1 X58.752 Y76.277 E-0.21215
G1 X58.876 Y75.954 E-0.16442
G1 X59.033 Y75.645 E-0.16466
G1 X59.222 Y75.354 E-0.16461
G1 X59.440 Y75.085 E-0.16459
G1 X59.685 Y74.840 E-0.16441
G1 X59.954 Y74.622 E-0.16472
G1 X60.245 Y74.433 E-0.16460
G1 X60.359 Y74.375 E-0.06085
;WIPE_END
G1 E-0.07500 F3600.000
G1 X49.284 Y75.325 F9000.000
G1 E5.00000 F2400.000
;TYPE:Perimeter
G1 F1200.000
G1 X49.115 Y75.825 E0.01655
G1 X48.851 Y76.263 E0.01605
G1 X48.660 Y76.489 E0.00928
G1 X48.270 Y76.820 E0.01603
G1 X47.834 Y77.052 E0.01551
G1 X47.539 Y77.154 E0.00976
G1 X47.032 Y77.237 E0.01611
G1 X46.505 Y77.209 E0.01655
G1 X45.997 Y77.067 E0.01655
G1 X45.530 Y76.820 E0.01655
G1 X45.140 Y76.489 E0.01604
G1 X44.949 Y76.263 E0.00928
G1 X44.685 Y75.825 E0.01604
G1 X44.516 Y75.325 E0.01655
G1 X44.459 Y74.800 E0.01655
G1 X44.516 Y74.275 E0.01655
G1 X44.680 Y73.790 E0.01604
G1 X44.818 Y73.529 E0.00928
G1 X45.118 Y73.134 E0.01554
G1 X45.333 Y72.931 E0.00928
G1 X45.757 Y72.644 E0.01604
G1 X46.247 Y72.448 E0.01655
G1 X46.752 Y72.365 E0.01604
G1 X47.048 Y72.365 E0.00928
G1 X47.553 Y72.448 E0.01604
G1 X48.043 Y72.644 E0.01655
G1 X48.480 Y72.940 E0.01655
G1 X48.843 Y73.323 E0.01655
G1 X49.115 Y73.775 E0.01655
G1 X49.284 Y74.275 E0.01655
G1 X49.341 Y74.800 E0.01655
G1 X49.290 Y75.265 E0.01467
G1 X48.915 Y75.224 F9000.000
;TYPE:External perimeter
G1 F1200.000
G1 X48.771 Y75.666 E0.01456
G1 X48.544 Y76.043 E0.01380
G1 X48.392 Y76.221 E0.00735
G1 X48.057 Y76.506 E0.01379
G1 X47.682 Y76.706 E0.01330
G1 X47.447 Y76.787 E0.00782
G1 X47.012 Y76.858 E0.01382
G1 X46.567 Y76.834 E0.01398
G1 X46.137 Y76.715 E0.01398
G1 X45.743 Y76.506 E0.01398
G1 X45.408 Y76.221 E0.01380
G1 X45.256 Y76.043 E0.00735
G1 X45.029 Y75.666 E0.01380
G1 X44.887 Y75.243 E0.01398
G1 X44.839 Y74.800 E0.01398
G1 X44.887 Y74.357 E0.01398
G1 X45.027 Y73.940 E0.01380
G1 X45.137 Y73.733 E0.00735
G1 X45.400 Y73.387 E0.01362
G1 X45.570 Y73.226 E0.00735
G1 X45.934 Y72.979 E0.01380
G1 X46.349 Y72.814 E0.01398
G1 X46.783 Y72.743 E0.01380
G1 X47.017 Y72.743 E0.00735
G1 X47.451 Y72.814 E0.01380
G1 X47.866 Y72.979 E0.01398
G1 X48.235 Y73.229 E0.01398
G1 X48.541 Y73.553 E0.01398
G1 X48.771 Y73.934 E0.01398
G1 X48.913 Y74.357 E0.01398
G1 X48.961 Y74.800 E0.01398
G1 X48.922 Y75.165 E0.01150
G1 X49.212 Y75.492 F9000.000
G1 E-3.50000 F3600.000
;WIPE_START
G1 F7200.000
G1 X48.771 Y75.666 E-0.24851
G1 X48.544 Y76.043 E-0.20901
G1 X48.392 Y76.221 E-0.11140
G1 X48.057 Y76.506 E-0.20890
G1 X47.682 Y76.706 E-0.20156
G1 X47.447 Y76.787 E-0.11854
G1 X47.012 Y76.858 E-0.20938
G1 X46.764 Y76.845 E-0.11770
;WIPE_END
G1 E-0.07500 F3600.000
G1 X46.768 Y138.063 F9000.000
G1 E5.00000 F2400.000
;TYPE:Perimeter
G1 F1200.000
G1 X47.295 Y138.091 E0.01655
G1 X47.803 Y138.233 E0.01655
G1 X48.270 Y138.480 E0.01655
G1 X48.672 Y138.822 E0.01655
G1 X48.982 Y139.229 E0.01604
G1 X49.120 Y139.490 E0.00928
G1 X49.284 Y139.975 E0.01604
G1 X49.339 Y140.484 E0.01604
G1 X49.323 Y140.780 E0.00928
G1 X49.213 Y141.279 E0.01604
G1 X48.991 Y141.758 E0.01655
G1 X48.672 Y142.178 E0.01655
G1 X48.270 Y142.520 E0.01653
G1 X47.834 Y142.752 E0.01551
G1 X47.539 Y142.854 E0.00976
G1 X47.032 Y142.937 E0.01611
G1 X46.505 Y142.909 E0.01655
G1 X45.997 Y142.767 E0.01655
G1 X45.531 Y142.520 E0.01653
G1 X45.153 Y142.201 E0.01551
G1 X44.950 Y141.965 E0.00976
G1 X44.685 Y141.525 E0.01611
G1 X44.516 Y141.025 E0.01655
G1 X44.459 Y140.500 E0.01655
G1 X44.516 Y139.975 E0.01655
G1 X44.680 Y139.490 E0.01604
G1 X44.818 Y139.229 E0.00928
G1 X45.128 Y138.822 E0.01605
G1 X45.518 Y138.490 E0.01604
G1 X45.772 Y138.338 E0.00928
G1 X46.247 Y138.148 E0.01604
G1 X46.709 Y138.073 E0.01467
G1 X46.770 Y138.445 F9000.000
;TYPE:External perimeter
G1 F1200.000
G1 X47.233 Y138.466 E0.01456
G1 X47.663 Y138.585 E0.01398
G1 X48.057 Y138.794 E0.01398
G1 X48.397 Y139.082 E0.01398
G1 X48.663 Y139.433 E0.01380
G1 X48.773 Y139.640 E0.00735
G1 X48.913 Y140.057 E0.01380
G1 X48.961 Y140.494 E0.01380
G1 X48.948 Y140.728 E0.00735
G1 X48.853 Y141.158 E0.01380
G1 X48.666 Y141.563 E0.01398
G1 X48.397 Y141.918 E0.01398
G1 X48.057 Y142.206 E0.01397
G1 X47.682 Y142.406 E0.01331
G1 X47.447 Y142.487 E0.00782
G1 X47.012 Y142.558 E0.01382
G1 X46.567 Y142.534 E0.01398
G1 X46.137 Y142.415 E0.01398
G1 X45.743 Y142.206 E0.01397
G1 X45.419 Y141.932 E0.01331
G1 X45.256 Y141.743 E0.00782
G1 X45.029 Y141.366 E0.01382
G1 X44.887 Y140.943 E0.01398
G1 X44.839 Y140.500 E0.01398
G1 X44.887 Y140.057 E0.01398
G1 X45.027 Y139.640 E0.01380
G1 X45.137 Y139.433 E0.00735
G1 X45.403 Y139.082 E0.01380
G1 X45.739 Y138.798 E0.01380
G1 X45.940 Y138.677 E0.00735
G1 X46.349 Y138.514 E0.01380
G1 X46.710 Y138.454 E0.01150
G1 X46.948 Y138.087 F9000.000
G1 E-3.50000 F3600.000
;WIPE_START
G1 F7200.000
G1 X47.233 Y138.466 E-0.24851
G1 X47.663 Y138.585 E-0.21173
G1 X48.057 Y138.794 E-0.21173
G1 X48.397 Y139.082 E-0.21173
G1 X48.663 Y139.433 E-0.20901
G1 X48.773 Y139.640 E-0.11140
G1 X48.913 Y140.057 E-0.20900
G1 X48.916 Y140.082 E-0.01189
;WIPE_END
G1 E-0.07500 F3600.000
G1 X170.659 Y140.500 F9000.000
G1 E5.00000 F2400.000
;TYPE:Perimeter
G1 F1200.000
G1 X170.716 Y139.975 E0.01655
G1 X170.880 Y139.490 E0.01604
G1 X171.018 Y139.229 E0.00928
G1 X171.328 Y138.822 E0.01604
G1 X171.730 Y138.480 E0.01653
G1 X172.166 Y138.248 E0.01551
G1 X172.461 Y138.146 E0.00976
G1 X172.968 Y138.063 E0.01611
G1 X173.495 Y138.091 E0.01655
G1 X174.003 Y138.233 E0.01655
G1 X174.470 Y138.480 E0.01655
G1 X174.872 Y138.822 E0.01655
G1 X175.182 Y139.229 E0.01605
G1 X175.320 Y139.490 E0.00928
G1 X175.484 Y139.975 E0.01604
G1 X175.541 Y140.500 E0.01655
G1 X175.484 Y141.024 E0.01653
G1 X175.327 Y141.493 E0.01551
G1 X175.183 Y141.769 E0.00976
G1 X174.872 Y142.178 E0.01611
G1 X174.482 Y142.510 E0.01604
G1 X174.228 Y142.662 E0.00928
G1 X173.753 Y142.852 E0.01604
G1 X173.232 Y142.937 E0.01655
G1 X172.705 Y142.909 E0.01655
G1 X172.197 Y142.767 E0.01655
G1 X171.731 Y142.520 E0.01653
G1 X171.353 Y142.201 E0.01551
G1 X171.150 Y141.965 E0.00976
G1 X170.885 Y141.525 E0.01611
G1 X170.716 Y141.025 E0.01655
G1 X170.666 Y140.560 E0.01467
G1 X171.041 Y140.519 F9000.000
;TYPE:External perimeter
G1 F1200.000
G1 X171.087 Y140.057 E0.01456
G1 X171.227 Y139.640 E0.01380
G1 X171.337 Y139.433 E0.00735
G1 X171.603 Y139.082 E0.01380
G1 X171.943 Y138.794 E0.01397
G1 X172.318 Y138.594 E0.01331
G1 X172.553 Y138.513 E0.00782
G1 X172.988 Y138.442 E0.01382
G1 X173.433 Y138.466 E0.01398
G1 X173.863 Y138.585 E0.01398
G1 X174.257 Y138.794 E0.01398
G1 X174.597 Y139.082 E0.01398
G1 X174.863 Y139.433 E0.01380
G1 X174.973 Y139.640 E0.00735
G1 X175.113 Y140.057 E0.01380
G1 X175.161 Y140.500 E0.01398
G1 X175.113 Y140.943 E0.01397
G1 X174.979 Y141.345 E0.01330
G1 X174.863 Y141.567 E0.00782
G1 X174.597 Y141.918 E0.01382
G1 X174.261 Y142.202 E0.01380
G1 X174.060 Y142.323 E0.00735
G1 X173.651 Y142.486 E0.01380
G1 X173.212 Y142.558 E0.01398
G1 X172.767 Y142.534 E0.01398
G1 X172.337 Y142.415 E0.01398
G1 X171.943 Y142.206 E0.01397
G1 X171.619 Y141.932 E0.01331
G1 X171.456 Y141.743 E0.00782
G1 X171.229 Y141.366 E0.01382
G1 X171.087 Y140.943 E0.01398
G1 X171.047 Y140.579 E0.01150
G1 X170.693 Y140.321 F9000.000
G1 E-3.50000 F3600.000
;WIPE_START
G1 F7200.000
G1 X171.087 Y140.057 E-0.24850
G1 X171.227 Y139.640 E-0.20900
G1 X171.337 Y139.433 E-0.11140
G1 X171.603 Y139.082 E-0.20901
G1 X171.943 Y138.794 E-0.21162
G1 X172.318 Y138.594 E-0.20156
G1 X172.553 Y138.513 E-0.11854
G1 X172.793 Y138.474 E-0.11535
;WIPE_END
G1 E-0.07500 F3600.000
G1 X173.232 Y77.237 F9000.000
G1 E5.00000 F2400.000
;TYPE:Perimeter
G1 F1200.000
G1 X172.705 Y77.209 E0.01655
G1 X172.197 Y77.067 E0.01655
G1 X171.730 Y76.820 E0.01655
G1 X171.340 Y76.489 E0.01604
G1 X171.149 Y76.263 E0.00928
G1 X170.885 Y75.825 E0.01605
G1 X170.716 Y75.325 E0.01655
G1 X170.661 Y74.816 E0.01604
G1 X170.677 Y74.520 E0.00928
G1 X170.787 Y74.021 E0.01604
G1 X171.009 Y73.542 E0.01655
G1 X171.318 Y73.134 E0.01604
G1 X171.533 Y72.931 E0.00928
G1 X171.957 Y72.644 E0.01604
G1 X172.447 Y72.448 E0.01655
G1 X172.952 Y72.365 E0.01604
G1 X173.248 Y72.365 E0.00928
G1 X173.753 Y72.448 E0.01604
G1 X174.243 Y72.644 E0.01655
G1 X174.680 Y72.940 E0.01655
G1 X175.043 Y73.323 E0.01655
G1 X175.315 Y73.775 E0.01655
G1 X175.484 Y74.275 E0.01655
G1 X175.541 Y74.800 E0.01655
G1 X175.484 Y75.325 E0.01655
G1 X175.315 Y75.825 E0.01655
G1 X175.051 Y76.263 E0.01605
G1 X174.860 Y76.489 E0.00928
G1 X174.482 Y76.810 E0.01554
G1 X174.228 Y76.962 E0.00928
G1 X173.753 Y77.152 E0.01604
G1 X173.291 Y77.227 E0.01467
G1 X173.230 Y76.855 F9000.000
;TYPE:External perimeter
G1 F1200.000
G1 X172.767 Y76.834 E0.01456
G1 X172.337 Y76.715 E0.01398
G1 X171.943 Y76.506 E0.01398
G1 X171.608 Y76.221 E0.01380
G1 X171.456 Y76.043 E0.00735
G1 X171.229 Y75.666 E0.01380
G1 X171.087 Y75.243 E0.01398
G1 X171.039 Y74.806 E0.01380
G1 X171.052 Y74.572 E0.00735
G1 X171.147 Y74.142 E0.01380
G1 X171.334 Y73.737 E0.01398
G1 X171.600 Y73.387 E0.01380
G1 X171.770 Y73.226 E0.00735
G1 X172.134 Y72.979 E0.01380
G1 X172.549 Y72.814 E0.01398
G1 X172.983 Y72.743 E0.01380
G1 X173.217 Y72.743 E0.00735
G1 X173.651 Y72.814 E0.01380
G1 X174.066 Y72.979 E0.01398
G1 X174.435 Y73.229 E0.01398
G1 X174.741 Y73.553 E0.01398
G1 X174.971 Y73.934 E0.01398
G1 X175.113 Y74.357 E0.01398
G1 X175.161 Y74.800 E0.01398
G1 X175.113 Y75.243 E0.01398
G1 X174.971 Y75.666 E0.01398
G1 X174.744 Y76.043 E0.01380
G1 X174.592 Y76.221 E0.00735
G1 X174.261 Y76.502 E0.01362
G1 X174.060 Y76.623 E0.00735
G1 X173.651 Y76.786 E0.01380
G1 X173.290 Y76.846 E0.01150
G1 X173.052 Y77.213 F9000.000
G1 E-3.50000 F3600.000
;WIPE_START
G1 F7200.000
