; generated by PrusaSlicer 2.3.0+win64 on 2021-02-01 at 10:12:16 UTC

; 

; external perimeters extrusion width = 0.45mm
; perimeters extrusion width = 0.45mm
; infill extrusion width = 0.45mm
; solid infill extrusion width = 0.45mm
; top infill extrusion width = 0.40mm
; first layer extrusion width = 0.42mm

M201 X500 Y500 Z100 E5000 ; sets maximum accelerations, mm/sec^2
M203 X500 Y500 Z10 E60 ; sets maximum feedrates, mm/sec
M204 P500 R1000 T500 ; sets acceleration (P, T) and retract acceleration (R), mm/sec^2
M205 X8.00 Y8.00 Z0.40 E5.00 ; sets the jerk limits, mm/sec
M205 S0 T0 ; sets the minimum extruding and travel feed rate, mm/sec
M107
;TYPE:Custom
G90 ; use absolute coordinates
M83 ; extruder relative mode
M104 S208 ; set extruder temp
M140 S60 ; set bed temp
M190 S60 ; wait for bed temp
M109 S208 ; wait for extruder temp
G28 ; home all
G1 Z2 F240
G1 X2 Y10 F3000
G1 Z0.28 F240
G92 E0
G1 Y190 E15 F1500 ; intro line
G1 X2.3 F5000
G92 E0
G1 Y10 E15 F1200 ; intro line
G92 E0
G21 ; set units to millimeters
G90 ; use absolute coordinates
M83 ; use relative distances for extrusion
; Filament gcode
;LAYER_CHANGE
;Z:0.2
;HEIGHT:0.2
;BEFORE_LAYER_CHANGE
G92 E0
;0.2


G1 E-5.00000 F3600.000
G1 Z0.200 F9000.000
;AFTER_LAYER_CHANGE
;0.2
G1 X60.699 Y96.330
G1 E5.00000 F2400.000
;TYPE:Skirt
;WIDTH:0.42
G1 F1200.000
G1 X61.503 Y95.311 E0.04069
G1 X61.978 Y94.923 E0.01924
G1 X62.607 Y94.555 E0.02287
G1 X63.687 Y94.200 E0.03564
G1 X64.497 Y94.123 E0.02551
G1 X155.504 Y94.123 E2.85344
G1 X156.295 Y94.197 E0.02491
G1 X156.881 Y94.347 E0.01897
G1 X157.616 Y94.669 E0.02517
G1 X158.172 Y95.035 E0.02084
G1 X158.756 Y95.575 E0.02496
G1 X159.239 Y96.227 E0.02543
G1 X159.535 Y96.805 E0.02037
G1 X159.780 Y97.583 E0.02557
G1 X159.877 Y98.482 E0.02837
G1 X159.876 Y109.580 E0.34796
G1 X159.694 Y110.748 E0.03705
G1 X159.296 Y111.680 E0.03179
G1 X158.747 Y112.435 E0.02928
G1 X158.038 Y113.066 E0.02976
G1 X141.869 Y123.851 E0.60937
G1 X140.503 Y124.582 E0.04858
G1 X139.205 Y125.105 E0.04388
G1 X137.528 Y125.573 E0.05461
G1 X136.146 Y125.796 E0.04388
G1 X134.665 Y125.877 E0.04651
G1 X85.350 Y125.877 E1.54623
G1 X83.849 Y125.796 E0.04712
G1 X82.411 Y125.562 E0.04568
G1 X80.790 Y125.104 E0.05282
G1 X79.503 Y124.585 E0.04352
G1 X78.170 Y123.875 E0.04734
G1 X61.980 Y113.078 E0.61014
G1 X61.280 Y112.464 E0.02920
G1 X60.770 Y111.789 E0.02654
G1 X60.456 Y111.170 E0.02176
G1 X60.200 Y110.312 E0.02809
G1 X60.123 Y109.514 E0.02512
G1 X60.123 Y98.496 E0.34545
G1 X60.220 Y97.581 E0.02885
G1 X60.677 Y96.386 E0.04011
G1 E-3.50000 F3600.000
;WIPE_START
G1 F7200.000
G1 X61.503 Y95.311 E-0.64372
G1 X61.978 Y94.923 E-0.29142
G1 X62.607 Y94.555 E-0.34654
G1 X62.894 Y94.461 E-0.14333
;WIPE_END
G1 E-0.07500 F3600.000
G1 X106.016 Y111.763 F9000.000
G1 E5.00000 F2400.000
;TYPE:Perimeter
G1 F1200.000
G1 X106.211 Y111.341 E0.01456
G1 X106.451 Y110.944 E0.01456
G1 X106.732 Y110.574 E0.01456
G1 X107.051 Y110.237 E0.01456
G1 X107.405 Y109.936 E0.01456
G1 X107.789 Y109.676 E0.01456
G1 X108.199 Y109.458 E0.01456
G1 X108.631 Y109.286 E0.01456
G1 X109.078 Y109.162 E0.01456
G1 X109.536 Y109.087 E0.01456
G1 X109.973 Y109.063 E0.01372
G1 X110.462 Y109.087 E0.01533
G1 X110.922 Y109.162 E0.01462
G1 X111.369 Y109.286 E0.01456
G1 X111.801 Y109.458 E0.01456
G1 X112.211 Y109.676 E0.01456
G1 X112.595 Y109.936 E0.01456
G1 X112.949 Y110.237 E0.01456
G1 X113.268 Y110.574 E0.01456
G1 X113.549 Y110.944 E0.01456
G1 X113.789 Y111.341 E0.01456
G1 X113.972 Y111.739 E0.01372
G1 X114.131 Y112.201 E0.01533
G1 X114.232 Y112.656 E0.01462
G1 X114.282 Y113.118 E0.01456
G1 X114.282 Y113.582 E0.01456
G1 X114.232 Y114.044 E0.01456
G1 X114.132 Y114.497 E0.01456
G1 X113.984 Y114.937 E0.01456
G1 X113.789 Y115.359 E0.01456
G1 X113.549 Y115.756 E0.01456
G1 X113.268 Y116.126 E0.01456
G1 X112.949 Y116.463 E0.01456
G1 X112.595 Y116.764 E0.01456
G1 X112.211 Y117.024 E0.01456
G1 X111.801 Y117.242 E0.01456
G1 X111.369 Y117.414 E0.01456
G1 X110.922 Y117.538 E0.01456
G1 X110.464 Y117.613 E0.01456
G1 X110.000 Y117.638 E0.01456
G1 X109.536 Y117.613 E0.01456
G1 X109.078 Y117.538 E0.01456
G1 X108.631 Y117.414 E0.01456
G1 X108.199 Y117.242 E0.01456
G1 X107.789 Y117.024 E0.01456
G1 X107.405 Y116.764 E0.01456
G1 X107.051 Y116.463 E0.01456
G1 X106.732 Y116.126 E0.01456
G1 X106.451 Y115.756 E0.01456
G1 X106.211 Y115.359 E0.01456
G1 X106.028 Y114.961 E0.01372
G1 X105.869 Y114.499 E0.01533
G1 X105.768 Y114.044 E0.01462
G1 X105.718 Y113.582 E0.01456
G1 X105.718 Y113.118 E0.01456
G1 X105.766 Y112.683 E0.01372
G1 X105.868 Y112.205 E0.01533
G1 X105.997 Y111.820 E0.01274
G1 X106.355 Y111.940 F9000.000
;TYPE:External perimeter
G1 F1200.000
G1 X106.545 Y111.518 E0.01451
G1 X106.763 Y111.156 E0.01328
G1 X107.020 Y110.818 E0.01328
G1 X107.311 Y110.511 E0.01328
G1 X107.633 Y110.237 E0.01328
G1 X107.984 Y109.999 E0.01328
G1 X108.358 Y109.801 E0.01328
G1 X108.751 Y109.644 E0.01328
G1 X109.159 Y109.531 E0.01328
G1 X109.577 Y109.462 E0.01328
G1 X109.974 Y109.441 E0.01247
G1 X110.422 Y109.462 E0.01405
G1 X110.841 Y109.531 E0.01330
G1 X111.249 Y109.644 E0.01328
G1 X111.642 Y109.801 E0.01328
G1 X112.016 Y109.999 E0.01328
G1 X112.367 Y110.237 E0.01328
G1 X112.689 Y110.511 E0.01328
G1 X112.980 Y110.818 E0.01328
G1 X113.237 Y111.156 E0.01328
G1 X113.455 Y111.518 E0.01328
G1 X113.622 Y111.879 E0.01247
G1 X113.768 Y112.303 E0.01405
G1 X113.859 Y112.717 E0.01330
G1 X113.905 Y113.138 E0.01328
G1 X113.905 Y113.562 E0.01328
G1 X113.859 Y113.983 E0.01328
G1 X113.768 Y114.396 E0.01328
G1 X113.633 Y114.797 E0.01328
G1 X113.455 Y115.182 E0.01328
G1 X113.237 Y115.544 E0.01328
G1 X112.980 Y115.882 E0.01328
G1 X112.689 Y116.189 E0.01328
G1 X112.367 Y116.463 E0.01328
G1 X112.016 Y116.701 E0.01328
G1 X111.642 Y116.899 E0.01328
G1 X111.249 Y117.056 E0.01328
G1 X110.841 Y117.169 E0.01328
G1 X110.423 Y117.238 E0.01328
G1 X110.000 Y117.260 E0.01328
G1 X109.577 Y117.238 E0.01328
G1 X109.159 Y117.169 E0.01328
G1 X108.751 Y117.056 E0.01328
G1 X108.358 Y116.899 E0.01328
G1 X107.984 Y116.701 E0.01328
G1 X107.633 Y116.463 E0.01328
G1 X107.311 Y116.189 E0.01328
G1 X107.020 Y115.882 E0.01328
G1 X106.763 Y115.544 E0.01328
G1 X106.545 Y115.182 E0.01328
G1 X106.378 Y114.821 E0.01247
G1 X106.232 Y114.397 E0.01405
G1 X106.141 Y113.983 E0.01330
G1 X106.095 Y113.562 E0.01328
G1 X106.095 Y113.138 E0.01328
G1 X106.138 Y112.743 E0.01247
G1 X106.232 Y112.304 E0.01405
G1 X106.335 Y111.997 E0.01018
G1 X106.104 Y111.628 F9000.000
G1 E-3.50000 F3600.000
;WIPE_START
G1 F7200.000
G1 X106.545 Y111.518 E-0.24819
G1 X106.763 Y111.156 E-0.20112
G1 X107.020 Y110.818 E-0.20112
G1 X107.311 Y110.511 E-0.20112
G1 X107.633 Y110.237 E-0.20112
G1 X107.984 Y109.999 E-0.20112
G1 X108.302 Y109.830 E-0.17120
;WIPE_END
G1 E-0.07500 F3600.000
G1 X88.182 Y112.632 F9000.000
G1 E5.00000 F2400.000
;TYPE:Perimeter
G1 F1200.000
G1 X88.182 Y113.086 E0.01422
G1 X88.133 Y113.536 E0.01422
G1 X88.035 Y113.979 E0.01422
G1 X87.891 Y114.409 E0.01422
G1 X87.700 Y114.821 E0.01422
G1 X87.466 Y115.209 E0.01422
G1 X87.192 Y115.570 E0.01422
G1 X86.880 Y115.899 E0.01422
G1 X86.535 Y116.193 E0.01422
G1 X86.159 Y116.447 E0.01422
G1 X85.759 Y116.660 E0.01422
G1 X85.337 Y116.828 E0.01422
G1 X84.900 Y116.949 E0.01422
G1 X84.453 Y117.022 E0.01422
G1 X84.000 Y117.047 E0.01422
G1 X83.547 Y117.022 E0.01422
G1 X83.100 Y116.949 E0.01422
G1 X82.663 Y116.828 E0.01422
G1 X82.241 Y116.660 E0.01422
G1 X81.841 Y116.447 E0.01422
G1 X81.465 Y116.193 E0.01422
G1 X81.120 Y115.899 E0.01422
G1 X80.808 Y115.570 E0.01422
G1 X80.534 Y115.209 E0.01422
G1 X80.300 Y114.821 E0.01422
G1 X80.109 Y114.409 E0.01422
G1 X79.965 Y113.979 E0.01422
G1 X79.867 Y113.536 E0.01422
G1 X79.818 Y113.086 E0.01422
G1 X79.818 Y112.632 E0.01422
G1 X79.867 Y112.181 E0.01422
G1 X79.965 Y111.738 E0.01422
G1 X80.109 Y111.309 E0.01422
G1 X80.300 Y110.897 E0.01422
G1 X80.526 Y110.520 E0.01378
G1 X80.807 Y110.148 E0.01462
G1 X81.120 Y109.818 E0.01425
G1 X81.465 Y109.525 E0.01422
G1 X81.841 Y109.270 E0.01422
G1 X82.241 Y109.058 E0.01422
G1 X82.663 Y108.890 E0.01422
G1 X83.100 Y108.769 E0.01422
G1 X83.547 Y108.695 E0.01422
G1 X83.986 Y108.671 E0.01378
G1 X84.452 Y108.695 E0.01462
G1 X84.900 Y108.769 E0.01425
G1 X85.337 Y108.890 E0.01422
G1 X85.759 Y109.058 E0.01422
G1 X86.159 Y109.270 E0.01422
G1 X86.535 Y109.525 E0.01422
G1 X86.880 Y109.818 E0.01422
G1 X87.192 Y110.147 E0.01422
G1 X87.466 Y110.508 E0.01422
G1 X87.700 Y110.897 E0.01422
G1 X87.891 Y111.309 E0.01422
G1 X88.035 Y111.738 E0.01422
G1 X88.133 Y112.181 E0.01422
G1 X88.175 Y112.572 E0.01234
G1 X87.801 Y112.613 F9000.000
;TYPE:External perimeter
G1 F1200.000
G1 X87.805 Y113.065 E0.01417
G1 X87.760 Y113.475 E0.01294
G1 X87.672 Y113.878 E0.01294
G1 X87.540 Y114.269 E0.01294
G1 X87.367 Y114.644 E0.01294
G1 X87.154 Y114.997 E0.01294
G1 X86.904 Y115.326 E0.01294
G1 X86.620 Y115.625 E0.01294
G1 X86.306 Y115.892 E0.01294
G1 X85.964 Y116.124 E0.01294
G1 X85.600 Y116.317 E0.01294
G1 X85.217 Y116.470 E0.01294
G1 X84.819 Y116.580 E0.01294
G1 X84.412 Y116.647 E0.01294
G1 X84.000 Y116.669 E0.01294
G1 X83.588 Y116.647 E0.01294
G1 X83.181 Y116.580 E0.01294
G1 X82.783 Y116.470 E0.01294
G1 X82.400 Y116.317 E0.01294
G1 X82.036 Y116.124 E0.01294
G1 X81.694 Y115.892 E0.01294
G1 X81.380 Y115.625 E0.01294
G1 X81.096 Y115.326 E0.01294
G1 X80.846 Y114.997 E0.01294
G1 X80.633 Y114.644 E0.01294
G1 X80.460 Y114.269 E0.01294
G1 X80.328 Y113.878 E0.01294
G1 X80.240 Y113.475 E0.01294
G1 X80.195 Y113.065 E0.01294
G1 X80.195 Y112.652 E0.01294
G1 X80.240 Y112.242 E0.01294
G1 X80.328 Y111.839 E0.01294
G1 X80.460 Y111.448 E0.01294
G1 X80.633 Y111.074 E0.01294
G1 X80.839 Y110.732 E0.01252
G1 X81.096 Y110.392 E0.01334
G1 X81.380 Y110.092 E0.01295
G1 X81.694 Y109.825 E0.01294
G1 X82.036 Y109.594 E0.01294
G1 X82.400 Y109.401 E0.01294
G1 X82.783 Y109.248 E0.01294
G1 X83.181 Y109.137 E0.01294
G1 X83.588 Y109.071 E0.01294
G1 X83.987 Y109.049 E0.01252
G1 X84.412 Y109.071 E0.01334
G1 X84.819 Y109.137 E0.01295
G1 X85.217 Y109.248 E0.01294
G1 X85.600 Y109.401 E0.01294
G1 X85.964 Y109.594 E0.01294
G1 X86.306 Y109.825 E0.01294
G1 X86.620 Y110.092 E0.01294
G1 X86.904 Y110.392 E0.01294
G1 X87.154 Y110.720 E0.01294
G1 X87.367 Y111.074 E0.01294
G1 X87.540 Y111.448 E0.01294
G1 X87.672 Y111.839 E0.01294
G1 X87.760 Y112.242 E0.01294
G1 X87.794 Y112.554 E0.00981
G1 X88.159 Y112.792 F9000.000
G1 E-3.50000 F3600.000
;WIPE_START
G1 F7200.000
G1 X87.805 Y113.065 E-0.24305
G1 X87.760 Y113.475 E-0.19598
G1 X87.672 Y113.878 E-0.19598
G1 X87.540 Y114.269 E-0.19598
G1 X87.367 Y114.644 E-0.19598
G1 X87.154 Y114.997 E-0.19598
G1 X86.904 Y115.326 E-0.19598
G1 X86.895 Y115.335 E-0.00608
;WIPE_END
G1 E-0.07500 F3600.000
G1 X131.818 Y112.632 F9000.000
G1 E5.00000 F2400.000
;TYPE:Perimeter
G1 F1200.000
G1 X131.867 Y112.181 E0.01422
G1 X131.965 Y111.738 E0.01422
G1 X132.109 Y111.309 E0.01422
G1 X132.300 Y110.897 E0.01422
G1 X132.534 Y110.508 E0.01422
G1 X132.808 Y110.147 E0.01422
G1 X133.120 Y109.818 E0.01422
G1 X133.465 Y109.525 E0.01422
G1 X133.841 Y109.270 E0.01422
G1 X134.241 Y109.058 E0.01422
G1 X134.663 Y108.890 E0.01422
G1 X135.100 Y108.769 E0.01422
G1 X135.547 Y108.695 E0.01422
G1 X135.986 Y108.671 E0.01378
G1 X136.452 Y108.695 E0.01462
G1 X136.900 Y108.769 E0.01425
G1 X137.337 Y108.890 E0.01422
G1 X137.759 Y109.058 E0.01422
G1 X138.159 Y109.270 E0.01422
G1 X138.535 Y109.525 E0.01422
G1 X138.880 Y109.818 E0.01422
G1 X139.192 Y110.147 E0.01422
G1 X139.466 Y110.508 E0.01422
G1 X139.700 Y110.897 E0.01422
G1 X139.891 Y111.309 E0.01422
G1 X140.035 Y111.738 E0.01422
G1 X140.133 Y112.181 E0.01422
G1 X140.182 Y112.632 E0.01422
G1 X140.182 Y113.086 E0.01422
G1 X140.133 Y113.536 E0.01422
G1 X140.035 Y113.979 E0.01422
G1 X139.891 Y114.409 E0.01422
G1 X139.700 Y114.821 E0.01422
G1 X139.474 Y115.197 E0.01378
G1 X139.193 Y115.569 E0.01462
G1 X138.880 Y115.899 E0.01425
G1 X138.535 Y116.193 E0.01422
G1 X138.159 Y116.447 E0.01422
G1 X137.759 Y116.660 E0.01422
G1 X137.337 Y116.828 E0.01422
G1 X136.900 Y116.949 E0.01422
G1 X136.453 Y117.022 E0.01422
G1 X136.000 Y117.047 E0.01422
G1 X135.547 Y117.022 E0.01422
G1 X135.100 Y116.949 E0.01422
G1 X134.663 Y116.828 E0.01422
G1 X134.241 Y116.660 E0.01422
G1 X133.841 Y116.447 E0.01422
G1 X133.465 Y116.193 E0.01422
G1 X133.120 Y115.899 E0.01422
G1 X132.808 Y115.570 E0.01422
G1 X132.534 Y115.209 E0.01422
G1 X132.300 Y114.821 E0.01422
G1 X132.109 Y114.409 E0.01422
G1 X131.965 Y113.979 E0.01422
G1 X131.867 Y113.536 E0.01422
G1 X131.818 Y113.086 E0.01422
G1 X131.818 Y112.692 E0.01234
G1 X132.195 Y112.692 F9000.000
;TYPE:External perimeter
G1 F1200.000
G1 X132.240 Y112.242 E0.01417
G1 X132.328 Y111.839 E0.01294
G1 X132.460 Y111.448 E0.01294
G1 X132.633 Y111.074 E0.01294
G1 X132.846 Y110.720 E0.01294
G1 X133.096 Y110.392 E0.01294
G1 X133.380 Y110.092 E0.01294
G1 X133.694 Y109.825 E0.01294
G1 X134.036 Y109.594 E0.01294
G1 X134.400 Y109.401 E0.01294
G1 X134.783 Y109.248 E0.01294
G1 X135.181 Y109.137 E0.01294
G1 X135.588 Y109.071 E0.01294
G1 X135.987 Y109.049 E0.01252
G1 X136.412 Y109.071 E0.01334
G1 X136.819 Y109.137 E0.01295
G1 X137.217 Y109.248 E0.01294
G1 X137.600 Y109.401 E0.01294
G1 X137.964 Y109.594 E0.01294
G1 X138.306 Y109.825 E0.01294
G1 X138.620 Y110.092 E0.01294
G1 X138.904 Y110.392 E0.01294
G1 X139.154 Y110.720 E0.01294
G1 X139.367 Y111.074 E0.01294
G1 X139.540 Y111.448 E0.01294
G1 X139.672 Y111.839 E0.01294
G1 X139.760 Y112.242 E0.01294
G1 X139.805 Y112.652 E0.01294
G1 X139.805 Y113.065 E0.01294
G1 X139.760 Y113.475 E0.01294
G1 X139.672 Y113.878 E0.01294
G1 X139.540 Y114.269 E0.01294
G1 X139.367 Y114.644 E0.01294
G1 X139.161 Y114.986 E0.01252
G1 X138.904 Y115.325 E0.01334
G1 X138.620 Y115.625 E0.01295
G1 X138.306 Y115.892 E0.01294
G1 X137.964 Y116.124 E0.01294
G1 X137.600 Y116.317 E0.01294
G1 X137.217 Y116.470 E0.01294
G1 X136.819 Y116.580 E0.01294
G1 X136.412 Y116.647 E0.01294
G1 X136.000 Y116.669 E0.01294
G1 X135.588 Y116.647 E0.01294
G1 X135.181 Y116.580 E0.01294
G1 X134.783 Y116.470 E0.01294
G1 X134.400 Y116.317 E0.01294
G1 X134.036 Y116.124 E0.01294
G1 X133.694 Y115.892 E0.01294
G1 X133.380 Y115.625 E0.01294
G1 X133.096 Y115.326 E0.01294
G1 X132.846 Y114.997 E0.01294
G1 X132.633 Y114.644 E0.01294
G1 X132.460 Y114.269 E0.01294
G1 X132.328 Y113.878 E0.01294
G1 X132.240 Y113.475 E0.01294
G1 X132.195 Y113.065 E0.01294
G1 X132.195 Y112.752 E0.00981
G1 X131.858 Y112.476 F9000.000
G1 E-3.50000 F3600.000
;WIPE_START
G1 F7200.000
G1 X132.240 Y112.242 E-0.24304
G1 X132.328 Y111.839 E-0.19598
G1 X132.460 Y111.448 E-0.19598
G1 X132.633 Y111.074 E-0.19598
G1 X132.846 Y110.720 E-0.19598
G1 X133.096 Y110.392 E-0.19598
G1 X133.380 Y110.092 E-0.19598
G1 X133.389 Y110.084 E-0.00608
;WIPE_END
G1 E-0.07500 F3600.000
G1 X148.494 Y110.813 F9000.000
G1 E5.00000 F2400.000
;TYPE:Perimeter
G1 F1200.000
G1 X143.624 Y118.032 E0.27301
G1 X142.905 Y118.982 E0.03738
G1 X142.100 Y119.836 E0.03679
G1 X141.207 Y120.597 E0.03679
G1 X140.236 Y121.257 E0.03679
G1 X139.200 Y121.808 E0.03679
G1 X138.110 Y122.243 E0.03679
G1 X136.980 Y122.558 E0.03679
G1 X135.822 Y122.748 E0.03679
G1 X134.631 Y122.813 E0.03738
G1 X85.369 Y122.813 E1.54460
G1 X84.178 Y122.748 E0.03738
G1 X83.020 Y122.558 E0.03679
G1 X81.890 Y122.243 E0.03679
G1 X80.800 Y121.808 E0.03679
G1 X79.764 Y121.257 E0.03679
G1 X78.793 Y120.597 E0.03679
G1 X77.900 Y119.836 E0.03679
G1 X77.095 Y118.982 E0.03679
G1 X76.376 Y118.032 E0.03738
G1 X71.506 Y110.813 E0.27302
G1 X64.533 Y110.813 E0.21862
G1 X64.212 Y110.779 E0.01012
G1 X64.109 Y110.752 E0.00333
G1 X63.742 Y110.570 E0.01286
G1 X63.515 Y110.366 E0.00956
G1 X63.296 Y110.019 E0.01286
G1 X63.198 Y109.637 E0.01238
G1 X63.198 Y98.363 E0.35348
G1 X63.258 Y98.080 E0.00907
G1 X63.301 Y97.966 E0.00382
G1 X63.357 Y97.858 E0.00382
G1 X63.527 Y97.624 E0.00907
G1 X63.831 Y97.372 E0.01238
G1 X64.095 Y97.255 E0.00907
G1 X64.363 Y97.198 E0.00858
G1 X155.637 Y97.198 E2.86182
G1 X155.905 Y97.255 E0.00858
G1 X156.169 Y97.372 E0.00907
G1 X156.473 Y97.624 E0.01238
G1 X156.643 Y97.858 E0.00907
G1 X156.742 Y98.080 E0.00763
G1 X156.802 Y98.363 E0.00908
G1 X156.813 Y109.482 E0.34863
G1 X156.806 Y109.622 E0.00438
G1 X156.745 Y109.905 E0.00907
G1 X156.628 Y110.169 E0.00907
