; generated by PrusaSlicer 2.3.0+win64 on 2021-01-28 at 16:03:43 UTC

; 

; external perimeters extrusion width = 0.45mm
; perimeters extrusion width = 0.45mm
; infill extrusion width = 0.45mm
; solid infill extrusion width = 0.45mm
; top infill extrusion width = 0.40mm
; first layer extrusion width = 0.42mm

M201 X500 Y500 Z100 E5000 ; sets maximum accelerations, mm/sec^2
M203 X500 Y500 Z10 E60 ; sets maximum feedrates, mm/sec
M204 P500 R1000 T500 ; sets acceleration (P, T) and retract acceleration (R), mm/sec^2
M205 X8.00 Y8.00 Z0.40 E5.00 ; sets the jerk limits, mm/sec
M205 S0 T0 ; sets the minimum extruding and travel feed rate, mm/sec
M107
;TYPE:Custom
G90 ; use absolute coordinates
M83 ; extruder relative mode
M104 S208 ; set extruder temp
M140 S60 ; set bed temp
M190 S60 ; wait for bed temp
M109 S208 ; wait for extruder temp
G28 ; home all
G1 Z2 F240
G1 X2 Y10 F3000
G1 Z0.28 F240
G92 E0
G1 Y190 E15 F1500 ; intro line
G1 X2.3 F5000
G92 E0
G1 Y10 E15 F1200 ; intro line
G92 E0
G21 ; set units to millimeters
G90 ; use absolute coordinates
M83 ; use relative distances for extrusion
; Filament gcode
;LAYER_CHANGE
;Z:0.2
;HEIGHT:0.2
;BEFORE_LAYER_CHANGE
G92 E0
;0.2


G1 E-5.00000 F3600.000
G1 Z0.200 F9000.000
;AFTER_LAYER_CHANGE
;0.2
G1 X56.012 Y73.717
G1 E5.00000 F2400.000
;TYPE:Skirt
;WIDTH:0.42
G1 F1200.000
G1 X56.733 Y72.693 E0.03928
G1 X57.604 Y71.901 E0.03691
G1 X58.216 Y71.513 E0.02271
G1 X59.167 Y71.099 E0.03251
G1 X59.854 Y70.924 E0.02224
G1 X60.875 Y70.823 E0.03215
G1 X159.104 Y70.823 E3.07991
G1 X160.242 Y70.941 E0.03588
G1 X161.275 Y71.266 E0.03394
G1 X162.276 Y71.818 E0.03583
G1 X162.908 Y72.327 E0.02545
G1 X163.624 Y73.138 E0.03394
G1 X164.195 Y74.133 E0.03596
G1 X164.551 Y75.219 E0.03584
G1 X164.675 Y76.298 E0.03406
G1 X164.676 Y143.676 E2.11258
G1 X164.528 Y144.872 E0.03777
G1 X163.984 Y146.289 E0.04761
G1 X163.264 Y147.310 E0.03916
G1 X162.396 Y148.099 E0.03679
G1 X161.784 Y148.487 E0.02271
G1 X160.833 Y148.901 E0.03251
G1 X160.146 Y149.076 E0.02224
G1 X159.125 Y149.177 E0.03215
G1 X60.873 Y149.177 E3.08062
G1 X59.639 Y149.031 E0.03897
G1 X58.221 Y148.489 E0.04761
G1 X57.193 Y147.767 E0.03940
G1 X56.401 Y146.896 E0.03691
G1 X56.015 Y146.287 E0.02259
G1 X55.600 Y145.337 E0.03251
G1 X55.424 Y144.646 E0.02235
G1 X55.323 Y143.637 E0.03180
G1 X55.323 Y76.362 E2.10936
G1 X55.470 Y75.135 E0.03873
G1 X55.991 Y73.773 E0.04573
G1 E-3.50000 F3600.000
;WIPE_START
G1 F7200.000
G1 X56.733 Y72.693 E-0.62277
G1 X57.604 Y71.901 E-0.55921
G1 X58.037 Y71.627 E-0.24302
;WIPE_END
G1 E-0.07500 F3600.000
G1 X129.582 Y102.031 F9000.000
G1 E5.00000 F2400.000
;TYPE:Perimeter
G1 F1200.000
G1 X142.425 Y102.031 E0.40268
G1 X142.425 Y104.630 E0.08146
G1 X129.582 Y104.630 E0.40268
G1 X129.582 Y102.091 E0.07958
G1 X129.959 Y102.408 F9000.000
;TYPE:External perimeter
G1 F1200.000
G1 X142.048 Y102.408 E0.37904
G1 X142.048 Y104.252 E0.05782
G1 X129.959 Y104.252 E0.37904
G1 X129.959 Y102.468 E0.05594
G1 X129.777 Y102.052 F9000.000
G1 E-3.50000 F3600.000
;WIPE_START
G1 F7200.000
G1 X132.959 Y102.454 E-1.42500
;WIPE_END
G1 E-0.07500 F3600.000
G1 X132.973 Y105.850 F9000.000
G1 E5.00000 F2400.000
;TYPE:Perimeter
G1 F1200.000
G1 X142.425 Y105.850 E0.29635
G1 X142.425 Y108.448 E0.08146
G1 X133.989 Y108.448 E0.26449
G1 X142.425 Y111.650 E0.28290
G1 X142.425 Y114.027 E0.07454
G1 X132.973 Y117.614 E0.31698
G1 X132.973 Y114.826 E0.08744
G1 X138.241 Y112.918 E0.17566
G1 X138.517 Y112.842 E0.00898
G1 X132.973 Y110.852 E0.18468
G1 X132.973 Y107.216 E0.11398
G1 X132.923 Y107.575 E0.01136
G1 X132.746 Y107.940 E0.01272
G1 X132.550 Y108.176 E0.00962
G1 X132.158 Y108.434 E0.01472
G1 X131.719 Y108.540 E0.01415
G1 X131.459 Y108.553 E0.00816
G1 X131.079 Y108.520 E0.01195
G1 X130.680 Y108.385 E0.01321
G1 X130.355 Y108.141 E0.01273
G1 X130.107 Y107.783 E0.01367
G1 X129.990 Y107.397 E0.01266
G1 X129.970 Y107.115 E0.00887
G1 X130.030 Y106.705 E0.01299
G1 X130.209 Y106.343 E0.01265
G1 X130.388 Y106.123 E0.00887
G1 X130.774 Y105.855 E0.01475
G1 X131.235 Y105.745 E0.01487
G1 X131.481 Y105.730 E0.00773
G1 X131.855 Y105.763 E0.01177
G1 X132.256 Y105.900 E0.01328
G1 X132.586 Y106.148 E0.01295
G1 X132.842 Y106.511 E0.01391
G1 X132.961 Y106.896 E0.01263
G1 X132.973 Y107.061 E0.00521
G1 X132.973 Y105.910 E0.03611
G1 X132.312 Y106.414 F9000.000
;TYPE:External perimeter
G1 F1200.000
G1 X132.499 Y106.679 E0.01018
G1 X132.588 Y106.966 E0.00941
G1 X132.602 Y107.151 E0.00582
G1 X132.558 Y107.464 E0.00992
G1 X132.427 Y107.734 E0.00941
G1 X132.296 Y107.892 E0.00642
G1 X132.005 Y108.083 E0.01090
G1 X131.665 Y108.165 E0.01099
G1 X131.466 Y108.175 E0.00624
G1 X131.157 Y108.148 E0.00972
G1 X130.858 Y108.047 E0.00991
G1 X130.630 Y107.876 E0.00893
G1 X130.450 Y107.617 E0.00989
G1 X130.363 Y107.328 E0.00947
G1 X130.349 Y107.129 E0.00626
G1 X130.394 Y106.818 E0.00983
G1 X130.528 Y106.548 E0.00946
G1 X130.647 Y106.403 E0.00589
G1 X130.931 Y106.205 E0.01085
G1 X131.291 Y106.119 E0.01160
G1 X131.476 Y106.108 E0.00582
G1 X131.777 Y106.135 E0.00946
G1 X132.078 Y106.237 E0.00998
G1 X132.264 Y106.378 E0.00732
G1 X132.627 Y106.334 F9000.000
G1 X133.350 Y106.378
G1 F1200.000
G1 X133.350 Y106.227 E0.00473
G1 X142.048 Y106.227 E0.27270
G1 X142.048 Y108.071 E0.05782
G1 X133.350 Y108.071 E0.27270
G1 X133.350 Y106.438 E0.05120
G1 X133.200 Y106.368 F9000.000
G1 E-3.50000 F3600.000
;WIPE_START
G1 F7200.000
G1 X133.350 Y106.227 E-0.10022
G1 X136.139 Y106.227 E-1.32478
;WIPE_END
G1 E-0.07500 F3600.000
G1 X133.350 Y108.609 F9000.000
G1 E5.00000 F2400.000
G1 F1200.000
G1 X142.048 Y111.910 E0.29169
G1 X142.048 Y113.767 E0.05823
G1 X133.350 Y117.068 E0.29169
G1 X133.350 Y115.090 E0.06201
G1 X138.355 Y113.278 E0.16690
G1 X138.843 Y113.143 E0.01587
G1 X139.323 Y113.051 E0.01532
G1 X139.976 Y112.847 E0.02144
G1 X139.278 Y112.625 E0.02296
G1 X138.947 Y112.574 E0.01051
G1 X138.528 Y112.452 E0.01367
G1 X133.350 Y110.587 E0.17255
G1 X133.350 Y108.669 E0.06014
G1 X133.323 Y108.210 F9000.000
G1 E-3.50000 F3600.000
;WIPE_START
G1 F7200.000
G1 X136.161 Y109.716 E-1.42500
;WIPE_END
G1 E-0.07500 F3600.000
G1 X142.443 Y117.154 F9000.000
G1 E5.00000 F2400.000
;TYPE:Perimeter
G1 F1200.000
G1 X142.375 Y119.357 E0.06911
G1 X141.886 Y119.386 E0.01534
G1 X142.137 Y119.759 E0.01409
G1 X142.360 Y120.269 E0.01747
G1 X142.455 Y120.610 E0.01109
G1 X142.526 Y120.999 E0.01240
G1 X142.568 Y121.468 E0.01478
G1 X142.553 Y122.215 E0.02342
G1 X142.486 Y122.662 E0.01417
G1 X142.308 Y123.254 E0.01939
G1 X142.032 Y123.773 E0.01842
G1 X141.843 Y124.023 E0.00984
G1 X141.594 Y124.281 E0.01124
G1 X141.366 Y124.467 E0.00923
G1 X140.909 Y124.732 E0.01655
G1 X140.374 Y124.911 E0.01771
G1 X140.042 Y124.972 E0.01057
G1 X139.679 Y125.003 E0.01143
G1 X139.171 Y124.992 E0.01593
G1 X138.845 Y124.944 E0.01034
G1 X138.302 Y124.779 E0.01777
G1 X137.816 Y124.509 E0.01744
G1 X137.410 Y124.156 E0.01687
G1 X137.211 Y123.922 E0.00964
G1 X137.021 Y123.649 E0.01042
G1 X136.853 Y123.346 E0.01087
G1 X136.694 Y122.986 E0.01234
G1 X136.547 Y122.548 E0.01447
G1 X136.416 Y121.999 E0.01770
G1 X136.296 Y121.141 E0.02718
G1 X136.237 Y119.735 E0.04412
G1 X136.104 Y119.738 E0.00417
G1 X135.738 Y119.806 E0.01165
G1 X135.459 Y119.950 E0.00985
G1 X135.401 Y120.015 E0.00274
G1 X135.301 Y120.211 E0.00689
G1 X135.249 Y120.426 E0.00693
G1 X135.226 Y120.757 E0.01040
G1 X135.241 Y121.050 E0.00921
G1 X135.290 Y121.369 E0.01012
G1 X135.386 Y121.756 E0.01249
G1 X135.552 Y122.233 E0.01584
G1 X136.071 Y123.408 E0.04027
G1 X133.876 Y124.292 E0.07419
G1 X133.342 Y123.169 E0.03900
G1 X133.129 Y122.571 E0.01991
G1 X133.044 Y122.268 E0.00986
G1 X132.913 Y121.630 E0.02043
G1 X132.848 Y120.974 E0.02066
G1 X132.841 Y120.668 E0.00959
G1 X132.873 Y120.020 E0.02033
G1 X132.944 Y119.565 E0.01445
G1 X133.042 Y119.181 E0.01243
G1 X133.276 Y118.614 E0.01922
G1 X133.567 Y118.179 E0.01642
G1 X133.852 Y117.884 E0.01288
G1 X134.264 Y117.592 E0.01582
G1 X134.769 Y117.367 E0.01733
G1 X135.096 Y117.273 E0.01068
G1 X135.473 Y117.202 E0.01201
G1 X136.203 Y117.153 E0.02295
G1 X142.383 Y117.154 E0.19377
G1 X142.054 Y117.531 F9000.000
;TYPE:External perimeter
G1 F1200.000
G1 X142.008 Y119.001 E0.04611
G1 X141.382 Y119.038 E0.01967
G1 X141.101 Y119.098 E0.00902
G1 X141.459 Y119.451 E0.01579
G1 X141.657 Y119.705 E0.01008
G1 X141.803 Y119.936 E0.00858
G1 X142.004 Y120.396 E0.01574
G1 X142.087 Y120.695 E0.00971
G1 X142.152 Y121.050 E0.01132
G1 X142.190 Y121.482 E0.01360
G1 X142.177 Y122.184 E0.02201
G1 X142.118 Y122.579 E0.01255
G1 X141.958 Y123.110 E0.01737
G1 X141.713 Y123.569 E0.01632
G1 X141.556 Y123.778 E0.00819
G1 X141.339 Y124.003 E0.00981
G1 X141.151 Y124.155 E0.00758
G1 X140.753 Y124.386 E0.01443
G1 X140.279 Y124.545 E0.01567
G1 X139.992 Y124.598 E0.00916
G1 X139.667 Y124.626 E0.01023
G1 X139.203 Y124.615 E0.01456
G1 X138.927 Y124.575 E0.00873
G1 X138.451 Y124.430 E0.01562
G1 X138.034 Y124.198 E0.01495
G1 X137.679 Y123.890 E0.01475
G1 X137.510 Y123.692 E0.00816
G1 X137.342 Y123.450 E0.00924
G1 X137.191 Y123.178 E0.00974
G1 X137.046 Y122.850 E0.01125
G1 X136.910 Y122.444 E0.01341
G1 X136.787 Y121.929 E0.01661
G1 X136.672 Y121.107 E0.02604
G1 X136.598 Y119.350 E0.05512
G1 X136.065 Y119.362 E0.01671
G1 X135.642 Y119.440 E0.01350
G1 X135.309 Y119.590 E0.01144
G1 X135.202 Y119.673 E0.00423
G1 X135.088 Y119.800 E0.00537
G1 X134.945 Y120.079 E0.00983
G1 X134.875 Y120.368 E0.00933
G1 X134.848 Y120.754 E0.01211
G1 X134.866 Y121.089 E0.01052
G1 X134.920 Y121.443 E0.01125
G1 X135.024 Y121.863 E0.01357
G1 X135.201 Y122.371 E0.01685
G1 X135.568 Y123.204 E0.02853
G1 X134.064 Y123.810 E0.05084
G1 X133.691 Y123.024 E0.02727
G1 X133.489 Y122.456 E0.01891
G1 X133.411 Y122.179 E0.00904
G1 X133.286 Y121.573 E0.01940
G1 X133.224 Y120.951 E0.01960
G1 X133.218 Y120.673 E0.00871
G1 X133.249 Y120.059 E0.01929
G1 X133.314 Y119.640 E0.01327
G1 X133.400 Y119.300 E0.01101
G1 X133.610 Y118.793 E0.01720
G1 X133.862 Y118.417 E0.01419
G1 X134.099 Y118.171 E0.01072
G1 X134.451 Y117.921 E0.01355
G1 X134.898 Y117.722 E0.01533
G1 X135.183 Y117.640 E0.00930
G1 X135.520 Y117.577 E0.01076
G1 X136.215 Y117.530 E0.02184
G1 X141.994 Y117.531 E0.18118
G1 X142.454 Y117.538 F9000.000
G1 E-3.50000 F3600.000
;WIPE_START
G1 F7200.000
G1 X142.008 Y119.001 E-0.69831
G1 X141.382 Y119.038 E-0.29804
G1 X141.101 Y119.098 E-0.13669
G1 X141.459 Y119.451 E-0.23926
G1 X141.527 Y119.539 E-0.05270
;WIPE_END
G1 E-0.07500 F3600.000
G1 X141.854 Y125.429 F9000.000
G1 E5.00000 F2400.000
;TYPE:Perimeter
G1 F1200.000
G1 X142.241 Y126.820 E0.04528
G1 X142.426 Y127.752 E0.02978
G1 X142.537 Y128.762 E0.03187
G1 X142.574 Y129.910 E0.03600
G1 X142.541 Y130.646 E0.02309
G1 X142.448 Y131.317 E0.02126
G1 X142.308 Y131.901 E0.01881
G1 X142.129 Y132.417 E0.01713
G1 X141.915 Y132.883 E0.01609
G1 X141.643 Y133.343 E0.01674
G1 X141.331 Y133.760 E0.01634
G1 X140.900 Y134.217 E0.01969
G1 X140.474 Y134.575 E0.01746
G1 X140.031 Y134.873 E0.01673
G1 X139.549 Y135.130 E0.01710
G1 X139.019 Y135.349 E0.01800
G1 X138.424 Y135.528 E0.01948
G1 X137.746 Y135.665 E0.02169
G1 X136.962 Y135.747 E0.02472
G1 X136.346 Y135.765 E0.01930
G1 X135.601 Y135.733 E0.02339
G1 X134.884 Y135.635 E0.02271
G1 X134.245 Y135.482 E0.02059
G1 X133.665 Y135.282 E0.01924
G1 X133.084 Y135.011 E0.02011
G1 X132.611 Y134.729 E0.01726
G1 X132.155 Y134.388 E0.01786
G1 X131.755 Y134.017 E0.01710
G1 X131.404 Y133.614 E0.01677
G1 X131.094 Y133.176 E0.01682
G1 X130.864 Y132.777 E0.01443
G1 X130.603 Y132.209 E0.01961
G1 X130.401 Y131.614 E0.01971
G1 X130.249 Y130.964 E0.02093
G1 X130.153 Y130.242 E0.02284
G1 X130.121 Y129.490 E0.02359
G1 X130.172 Y128.492 E0.03134
G1 X130.306 Y127.623 E0.02755
G1 X130.536 Y126.742 E0.02856
G1 X131.050 Y125.357 E0.04633
G1 X133.413 Y126.395 E0.08092
G1 X132.892 Y127.824 E0.04770
G1 X132.731 Y128.460 E0.02057
G1 X132.645 Y129.032 E0.01816
G1 X132.617 Y129.574 E0.01700
G1 X132.643 Y130.110 E0.01684
G1 X132.705 Y130.523 E0.01309
G1 X132.793 Y130.870 E0.01122
G1 X132.899 Y131.166 E0.00988
G1 X133.040 Y131.458 E0.01016
G1 X133.197 Y131.712 E0.00937
G1 X133.375 Y131.940 E0.00907
G1 X133.573 Y132.146 E0.00895
G1 X133.790 Y132.332 E0.00897
G1 X134.041 Y132.507 E0.00958
G1 X134.315 Y132.658 E0.00983
G1 X134.623 Y132.790 E0.01049
G1 X134.976 Y132.902 E0.01161
G1 X135.389 Y132.990 E0.01326
G1 X135.888 Y133.049 E0.01576
G1 X136.348 Y133.065 E0.01443
G1 X136.991 Y133.038 E0.02015
G1 X137.527 Y132.965 E0.01697
G1 X137.949 Y132.865 E0.01359
G1 X138.291 Y132.748 E0.01133
G1 X138.575 Y132.619 E0.00979
G1 X138.815 Y132.479 E0.00870
G1 X139.040 Y132.316 E0.00872
G1 X139.363 Y132.003 E0.01410
G1 X139.516 Y131.807 E0.00780
G1 X139.657 Y131.584 E0.00829
G1 X139.782 Y131.332 E0.00882
G1 X139.892 Y131.042 E0.00972
G1 X139.985 Y130.701 E0.01108
G1 X140.055 Y130.297 E0.01286
G1 X140.099 Y129.558 E0.02320
G1 X140.053 Y128.656 E0.02834
G1 X139.952 Y128.058 E0.01902
G1 X137.899 Y128.058 E0.06436
G1 X137.899 Y130.466 E0.07550
G1 X135.405 Y130.466 E0.07821
G1 X135.405 Y125.429 E0.15792
G1 X141.794 Y125.429 E0.20033
G1 X141.568 Y125.806 F9000.000
;TYPE:External perimeter
G1 F1200.000
G1 X141.874 Y126.907 E0.03585
G1 X142.053 Y127.809 E0.02883
G1 X142.161 Y128.789 E0.03091
G1 X142.196 Y129.908 E0.03509
G1 X142.166 Y130.611 E0.02208
G1 X142.077 Y131.247 E0.02012
G1 X141.946 Y131.795 E0.01765
G1 X141.779 Y132.276 E0.01597
G1 X141.580 Y132.708 E0.01491
G1 X141.328 Y133.133 E0.01551
G1 X141.042 Y133.518 E0.01502
G1 X140.641 Y133.942 E0.01831
G1 X140.247 Y134.273 E0.01615
G1 X139.836 Y134.549 E0.01551
G1 X139.388 Y134.788 E0.01592
G1 X138.892 Y134.993 E0.01684
G1 X138.332 Y135.162 E0.01834
G1 X137.689 Y135.292 E0.02057
G1 X136.936 Y135.371 E0.02372
G1 X136.349 Y135.388 E0.01843
G1 X135.635 Y135.357 E0.02241
G1 X134.953 Y135.264 E0.02158
G1 X134.350 Y135.120 E0.01943
G1 X133.806 Y134.932 E0.01804
G1 X133.260 Y134.678 E0.01889
G1 X132.821 Y134.415 E0.01604
G1 X132.397 Y134.098 E0.01661
G1 X132.026 Y133.754 E0.01584
G1 X131.701 Y133.381 E0.01554
G1 X131.412 Y132.972 E0.01568
G1 X131.200 Y132.604 E0.01334
G1 X130.954 Y132.069 E0.01845
G1 X130.764 Y131.510 E0.01852
G1 X130.620 Y130.896 E0.01978
G1 X130.529 Y130.209 E0.02173
G1 X130.499 Y129.492 E0.02250
G1 X130.548 Y128.530 E0.03018
G1 X130.676 Y127.700 E0.02634
G1 X130.896 Y126.856 E0.02736
G1 X131.265 Y125.863 E0.03321
G1 X132.938 Y126.598 E0.05730
G1 X132.531 Y127.713 E0.03721
G1 X132.361 Y128.385 E0.02175
G1 X132.269 Y128.995 E0.01933
G1 X132.240 Y129.574 E0.01818
G1 X132.268 Y130.148 E0.01802
G1 X132.335 Y130.597 E0.01426
G1 X132.432 Y130.980 E0.01237
G1 X132.551 Y131.312 E0.01107
G1 X132.709 Y131.640 E0.01141
G1 X132.888 Y131.928 E0.01063
G1 X133.089 Y132.187 E0.01030
G1 X133.313 Y132.421 E0.01014
G1 X133.559 Y132.631 E0.01015
G1 X133.842 Y132.827 E0.01078
G1 X134.149 Y132.997 E0.01102
G1 X134.491 Y133.144 E0.01167
G1 X134.879 Y133.267 E0.01275
G1 X135.328 Y133.363 E0.01439
G1 X135.860 Y133.425 E0.01680
G1 X136.350 Y133.442 E0.01537
G1 X137.024 Y133.414 E0.02115
G1 X137.596 Y133.336 E0.01809
G1 X138.053 Y133.228 E0.01474
G1 X138.430 Y133.099 E0.01249
G1 X138.748 Y132.954 E0.01094
G1 X139.021 Y132.796 E0.00989
G1 X139.283 Y132.605 E0.01016
G1 X139.644 Y132.256 E0.01575
G1 X139.825 Y132.025 E0.00922
G1 X139.986 Y131.768 E0.00949
G1 X140.128 Y131.483 E0.00999
G1 X140.251 Y131.159 E0.01087
G1 X140.353 Y130.783 E0.01221
G1 X140.430 Y130.341 E0.01408
G1 X140.477 Y129.560 E0.02452
G1 X140.428 Y128.615 E0.02968
G1 X140.271 Y127.681 E0.02970
G1 X137.522 Y127.681 E0.08618
G1 X137.522 Y130.089 E0.07550
G1 X135.782 Y130.089 E0.05456
G1 X135.782 Y125.806 E0.13428
G1 X141.508 Y125.806 E0.17953
G1 X141.937 Y125.653 F9000.000
G1 E-3.50000 F3600.000
;WIPE_START
G1 F7200.000
G1 X141.874 Y126.907 E-0.55138
G1 X142.053 Y127.809 E-0.43672
G1 X142.153 Y128.724 E-0.43690
;WIPE_END
G1 E-0.07500 F3600.000
G1 X157.682 Y141.930 F9000.000
G1 E5.00000 F2400.000
;TYPE:Perimeter
G1 F1200.000
G1 X158.074 Y141.664 E0.01485
G1 X158.514 Y141.489 E0.01485
G1 X158.981 Y141.413 E0.01485
G1 X159.438 Y141.437 E0.01435
G1 X159.701 Y141.495 E0.00843
G1 X160.126 Y141.665 E0.01435
G1 X160.518 Y141.930 E0.01485
G1 X160.833 Y142.263 E0.01435
G1 X160.984 Y142.485 E0.00843
G1 X161.176 Y142.901 E0.01435
