; generated by PrusaSlicer 2.3.0+linux-x64 on 2021-01-22 at 21:14:55 UTC

; 

; external perimeters extrusion width = 0.45mm
; perimeters extrusion width = 0.45mm
; infill extrusion width = 0.45mm
; solid infill extrusion width = 0.45mm
; top infill extrusion width = 0.40mm
; first layer extrusion width = 0.42mm

M201 X500 Y500 Z100 E5000 ; sets maximum accelerations, mm/sec^2
M203 X500 Y500 Z10 E60 ; sets maximum feedrates, mm/sec
M204 P500 R1000 T500 ; sets acceleration (P, T) and retract acceleration (R), mm/sec^2
M205 X8.00 Y8.00 Z0.40 E5.00 ; sets the jerk limits, mm/sec
M205 S0 T0 ; sets the minimum extruding and travel feed rate, mm/sec
M107
;TYPE:Custom
G90 ; use absolute coordinates
M83 ; extruder relative mode
M104 S208 ; set extruder temp
M140 S60 ; set bed temp
M190 S60 ; wait for bed temp
M109 S208 ; wait for extruder temp
G28 ; home all
G1 Z2 F240
G1 X2 Y10 F3000
G1 Z0.28 F240
G92 E0
G1 Y190 E15 F1500 ; intro line
G1 X2.3 F5000
G92 E0
G1 Y10 E15 F1200 ; intro line
G92 E0
G21 ; set units to millimeters
G90 ; use absolute coordinates
M83 ; use relative distances for extrusion
; Filament gcode
;LAYER_CHANGE
;Z:0.2
;HEIGHT:0.2
;BEFORE_LAYER_CHANGE
G92 E0
;0.2


G1 E-5.00000 F3600.000
G1 Z0.200 F9000.000
;AFTER_LAYER_CHANGE
;0.2
G1 X79.650 Y95.929
G1 E5.00000 F2400.000
;TYPE:Skirt
;WIDTH:0.42
G1 F1200.000
G1 X80.676 Y95.271 E0.03821
G1 X81.573 Y94.972 E0.02964
G1 X82.482 Y94.873 E0.02869
G1 X137.504 Y94.873 E1.72516
G1 X138.381 Y94.963 E0.02766
G1 X139.172 Y95.206 E0.02595
G1 X139.771 Y95.509 E0.02103
G1 X140.449 Y96.016 E0.02655
G1 X141.033 Y96.666 E0.02738
G1 X141.462 Y97.391 E0.02643
G1 X141.753 Y98.223 E0.02762
G1 X141.862 Y98.896 E0.02139
G1 X141.855 Y121.190 E0.69900
G1 X141.624 Y122.212 E0.03284
G1 X141.052 Y123.308 E0.03880
G1 X140.347 Y124.073 E0.03260
G1 X139.324 Y124.729 E0.03809
G1 X138.427 Y125.028 E0.02964
G1 X137.518 Y125.127 E0.02869
G1 X82.416 Y125.126 E1.72767
G1 X81.153 Y124.915 E0.04014
G1 X80.023 Y124.357 E0.03951
G1 X79.196 Y123.620 E0.03473
G1 X78.521 Y122.574 E0.03904
G1 X78.223 Y121.681 E0.02952
G1 X78.123 Y120.787 E0.02821
G1 X78.141 Y98.856 E0.68764
G1 X78.370 Y97.803 E0.03379
G1 X78.942 Y96.701 E0.03892
G1 X79.609 Y95.973 E0.03096
G1 E-3.50000 F3600.000
;WIPE_START
G1 F7200.000
G1 X80.676 Y95.271 E-0.60644
G1 X81.573 Y94.972 E-0.44903
G1 X82.346 Y94.888 E-0.36953
;WIPE_END
G1 E-0.07500 F3600.000
G1 X119.513 Y104.263 F9000.000
G1 E5.00000 F2400.000
;TYPE:Perimeter
G1 F1200.000
G1 X136.787 Y104.263 E0.54162
G1 X136.787 Y119.137 E0.46637
G1 X119.513 Y119.137 E0.54162
G1 X119.513 Y104.323 E0.46449
G1 X119.890 Y104.640 F9000.000
;TYPE:External perimeter
G1 F1200.000
G1 X136.410 Y104.640 E0.51797
G1 X136.410 Y118.760 E0.44272
G1 X119.890 Y118.760 E0.51797
G1 X119.890 Y104.700 E0.44084
G1 X119.776 Y104.256 F9000.000
G1 E-3.50000 F3600.000
;WIPE_START
G1 F7200.000
G1 X122.890 Y104.689 E-1.42500
;WIPE_END
G1 E-0.07500 F3600.000
G1 X101.913 Y102.263 F9000.000
G1 E5.00000 F2400.000
;TYPE:Perimeter
G1 F1200.000
G1 X116.587 Y102.263 E0.46010
G1 X116.587 Y117.937 E0.49145
G1 X101.913 Y117.937 E0.46010
G1 X101.913 Y102.323 E0.48957
G1 X102.290 Y102.640 F9000.000
;TYPE:External perimeter
G1 F1200.000
G1 X116.210 Y102.640 E0.43645
G1 X116.210 Y117.560 E0.46781
G1 X102.290 Y117.560 E0.43645
G1 X102.290 Y102.700 E0.46592
G1 X102.191 Y102.252 F9000.000
G1 E-3.50000 F3600.000
;WIPE_START
G1 F7200.000
G1 X105.290 Y102.687 E-1.42500
;WIPE_END
G1 E-0.07500 F3600.000
G1 X83.813 Y102.263 F9000.000
G1 E5.00000 F2400.000
;TYPE:Perimeter
G1 F1200.000
G1 X98.487 Y102.263 E0.46010
G1 X98.487 Y117.937 E0.49145
G1 X83.813 Y117.937 E0.46010
G1 X83.813 Y102.323 E0.48957
G1 X84.190 Y102.640 F9000.000
;TYPE:External perimeter
G1 F1200.000
G1 X98.110 Y102.640 E0.43645
G1 X98.110 Y117.560 E0.46781
G1 X84.190 Y117.560 E0.43645
G1 X84.190 Y102.700 E0.46592
G1 X84.091 Y102.252 F9000.000
G1 E-3.50000 F3600.000
;WIPE_START
G1 F7200.000
G1 X87.190 Y102.687 E-1.42500
;WIPE_END
G1 E-0.07500 F3600.000
G1 X81.308 Y98.703 F9000.000
G1 E5.00000 F2400.000
;TYPE:Perimeter
G1 F1200.000
G1 X81.536 Y98.361 E0.01286
G1 X81.858 Y98.107 E0.01286
G1 X82.228 Y97.969 E0.01237
G1 X82.533 Y97.937 E0.00963
G1 X137.639 Y97.947 E1.72780
G1 X137.760 Y97.965 E0.00383
G1 X138.033 Y98.054 E0.00900
G1 X138.270 Y98.191 E0.00858
G1 X138.473 Y98.374 E0.00858
G1 X138.634 Y98.595 E0.00858
G1 X138.745 Y98.845 E0.00858
G1 X138.806 Y99.128 E0.00907
G1 X138.813 Y99.268 E0.00439
G1 X138.813 Y120.717 E0.67251
G1 X138.781 Y121.022 E0.00964
G1 X138.692 Y121.297 E0.00907
G1 X138.464 Y121.639 E0.01286
G1 X138.142 Y121.893 E0.01286
G1 X137.772 Y122.031 E0.01237
G1 X137.467 Y122.063 E0.00964
G1 X82.533 Y122.063 E1.72240
G1 X82.212 Y122.029 E0.01012
G1 X82.109 Y122.002 E0.00333
G1 X81.845 Y121.884 E0.00907
G1 X81.611 Y121.714 E0.00907
G1 X81.357 Y121.392 E0.01286
G1 X81.219 Y121.022 E0.01237
G1 X81.187 Y120.717 E0.00964
G1 X81.187 Y99.283 E0.67203
G1 X81.219 Y98.978 E0.00964
G1 X81.290 Y98.760 E0.00719
G1 X80.959 Y98.558 F9000.000
;TYPE:External perimeter
G1 F1200.000
G1 X81.034 Y98.410 E0.00520
G1 X81.248 Y98.116 E0.01142
G1 X81.366 Y97.998 E0.00520
G1 X81.660 Y97.784 E0.01142
G1 X81.808 Y97.709 E0.00520
G1 X82.149 Y97.598 E0.01124
G1 X82.514 Y97.560 E0.01150
G1 X137.667 Y97.570 E1.72930
G1 X137.847 Y97.597 E0.00569
G1 X138.187 Y97.707 E0.01122
G1 X138.493 Y97.884 E0.01107
G1 X138.755 Y98.120 E0.01107
G1 X138.962 Y98.406 E0.01107
G1 X139.106 Y98.728 E0.01107
G1 X139.181 Y99.079 E0.01124
G1 X139.190 Y99.258 E0.00563
G1 X139.190 Y120.736 E0.67344
G1 X139.152 Y121.101 E0.01150
G1 X139.041 Y121.442 E0.01124
G1 X138.966 Y121.590 E0.00520
G1 X138.752 Y121.884 E0.01142
G1 X138.634 Y122.002 E0.00520
G1 X138.340 Y122.216 E0.01142
G1 X138.192 Y122.291 E0.00520
G1 X137.851 Y122.402 E0.01124
G1 X137.486 Y122.440 E0.01150
G1 X82.514 Y122.440 E1.72363
G1 X82.143 Y122.401 E0.01167
G1 X81.983 Y122.358 E0.00520
G1 X81.656 Y122.212 E0.01124
G1 X81.366 Y122.002 E0.01124
G1 X81.248 Y121.884 E0.00520
G1 X81.034 Y121.590 E0.01142
G1 X80.959 Y121.442 E0.00520
G1 X80.848 Y121.101 E0.01124
G1 X80.810 Y120.736 E0.01150
G1 X80.810 Y99.264 E0.67327
G1 X80.848 Y98.899 E0.01150
G1 X80.940 Y98.615 E0.00936
G1 X81.123 Y98.535 F9000.000
G1 E-3.50000 F3600.000
;WIPE_START
G1 F7200.000
G1 X81.034 Y98.410 E-0.10700
G1 X81.248 Y98.116 E-0.17296
G1 X81.366 Y97.998 E-0.07876
G1 X81.660 Y97.784 E-0.17296
G1 X81.808 Y97.709 E-0.07876
G1 X82.149 Y97.598 E-0.17031
G1 X82.514 Y97.560 E-0.17418
G1 X83.503 Y97.560 E-0.47007
;WIPE_END
G1 E-0.07500 F3600.000
G1 X137.792 Y98.094 F9000.000
G1 E5.00000 F2400.000
;TYPE:Solid infill
;WIDTH:0.422259
G1 F1200.000
G1 X138.263 Y98.566 E0.02105
G1 X138.388 Y98.737 E0.00668
G1 X138.475 Y98.933 E0.00676
G1 X138.524 Y99.165 E0.00748
G1 X138.530 Y99.369 E0.00644
G1 X137.390 Y98.230 E0.05084
G1 X136.854 Y98.229 E0.01692
G1 X138.530 Y99.906 E0.07478
G1 X138.530 Y100.442 E0.01692
G1 X136.317 Y98.229 E0.09871
G1 X135.781 Y98.229 E0.01692
G1 X138.530 Y100.979 E0.12264
G1 X138.530 Y101.515 E0.01692
G1 X135.244 Y98.229 E0.14658
G1 X134.708 Y98.229 E0.01692
G1 X138.530 Y102.052 E0.17051
G1 X138.530 Y102.588 E0.01692
G1 X134.171 Y98.229 E0.19445
G1 X133.634 Y98.229 E0.01692
G1 X138.530 Y103.125 E0.21838
G1 X138.530 Y103.661 E0.01692
G1 X133.098 Y98.229 E0.24232
G1 X132.561 Y98.229 E0.01692
G1 X138.530 Y104.197 E0.26625
G1 X138.530 Y104.734 E0.01692
G1 X132.025 Y98.229 E0.29019
G1 X131.488 Y98.229 E0.01692
G1 X138.530 Y105.270 E0.31412
G1 X138.530 Y105.807 E0.01692
G1 X137.070 Y104.347 E0.06514
G1 X137.070 Y103.980 E0.01156
G1 X136.703 Y103.980 E0.01156
G1 X130.952 Y98.228 E0.25657
G1 X130.415 Y98.228 E0.01692
G1 X136.167 Y103.980 E0.25657
G1 X135.630 Y103.980 E0.01692
G1 X129.879 Y98.228 E0.25658
G1 X129.342 Y98.228 E0.01692
G1 X135.094 Y103.980 E0.25658
G1 X134.557 Y103.980 E0.01692
G1 X128.805 Y98.228 E0.25659
G1 X128.269 Y98.228 E0.01692
G1 X134.021 Y103.980 E0.25659
G1 X133.485 Y103.980 E0.01692
G1 X127.732 Y98.228 E0.25659
G1 X127.196 Y98.228 E0.01692
G1 X132.948 Y103.980 E0.25660
G1 X132.412 Y103.980 E0.01692
G1 X126.659 Y98.228 E0.25660
G1 X126.123 Y98.228 E0.01692
G1 X131.875 Y103.980 E0.25661
G1 X131.339 Y103.980 E0.01692
G1 X125.586 Y98.227 E0.25661
G1 X125.049 Y98.227 E0.01692
G1 X130.802 Y103.980 E0.25661
G1 X130.266 Y103.980 E0.01692
G1 X124.513 Y98.227 E0.25662
G1 X123.976 Y98.227 E0.01692
G1 X129.729 Y103.980 E0.25662
G1 X129.193 Y103.980 E0.01692
G1 X123.440 Y98.227 E0.25663
G1 X122.903 Y98.227 E0.01692
G1 X128.656 Y103.980 E0.25663
G1 X128.120 Y103.980 E0.01692
G1 X122.367 Y98.227 E0.25664
G1 X121.830 Y98.227 E0.01692
G1 X127.583 Y103.980 E0.25664
G1 X127.047 Y103.980 E0.01692
G1 X121.294 Y98.227 E0.25664
G1 X120.757 Y98.227 E0.01692
G1 X126.510 Y103.980 E0.25665
G1 X125.974 Y103.980 E0.01692
G1 X120.220 Y98.227 E0.25665
G1 X119.684 Y98.226 E0.01692
G1 X125.438 Y103.980 E0.25666
G1 X124.901 Y103.980 E0.01692
G1 X119.147 Y98.226 E0.25666
G1 X118.611 Y98.226 E0.01692
G1 X124.365 Y103.980 E0.25667
G1 X123.828 Y103.980 E0.01692
G1 X118.074 Y98.226 E0.25667
G1 X117.538 Y98.226 E0.01692
G1 X123.292 Y103.980 E0.25667
G1 X122.755 Y103.980 E0.01692
G1 X117.001 Y98.226 E0.25668
G1 X116.464 Y98.226 E0.01692
G1 X122.219 Y103.980 E0.25668
G1 X121.682 Y103.980 E0.01692
G1 X115.928 Y98.226 E0.25669
G1 X115.391 Y98.226 E0.01692
G1 X121.146 Y103.980 E0.25669
G1 X120.609 Y103.980 E0.01692
G1 X114.855 Y98.226 E0.25670
G1 X114.318 Y98.225 E0.01692
G1 X120.073 Y103.980 E0.25670
G1 X119.536 Y103.980 E0.01692
G1 X113.782 Y98.225 E0.25670
G1 X113.245 Y98.225 E0.01692
G1 X119.230 Y104.210 E0.26697
G1 X119.230 Y104.747 E0.01692
G1 X116.870 Y102.387 E0.10528
G1 X116.870 Y101.980 E0.01282
G1 X116.463 Y101.980 E0.01282
G1 X112.709 Y98.225 E0.16750
G1 X112.172 Y98.225 E0.01692
G1 X115.927 Y101.980 E0.16750
G1 X115.391 Y101.980 E0.01692
G1 X111.635 Y98.225 E0.16751
G1 X111.099 Y98.225 E0.01692
G1 X114.854 Y101.980 E0.16751
G1 X114.318 Y101.980 E0.01692
G1 X110.562 Y98.225 E0.16751
G1 X110.026 Y98.225 E0.01692
G1 X113.781 Y101.980 E0.16752
G1 X113.245 Y101.980 E0.01692
G1 X109.489 Y98.225 E0.16752
G1 X108.953 Y98.225 E0.01692
G1 X112.708 Y101.980 E0.16753
G1 X112.172 Y101.980 E0.01692
G1 X108.416 Y98.224 E0.16753
G1 X107.880 Y98.224 E0.01692
G1 X111.635 Y101.980 E0.16754
G1 X111.099 Y101.980 E0.01692
G1 X107.343 Y98.224 E0.16754
G1 X106.806 Y98.224 E0.01692
G1 X110.562 Y101.980 E0.16754
G1 X110.026 Y101.980 E0.01692
G1 X106.270 Y98.224 E0.16755
G1 X105.733 Y98.224 E0.01692
G1 X109.489 Y101.980 E0.16755
G1 X108.953 Y101.980 E0.01692
G1 X105.197 Y98.224 E0.16756
G1 X104.660 Y98.224 E0.01692
G1 X108.416 Y101.980 E0.16756
G1 X107.880 Y101.980 E0.01692
G1 X104.124 Y98.224 E0.16756
G1 X103.587 Y98.224 E0.01692
G1 X107.344 Y101.980 E0.16757
G1 X106.807 Y101.980 E0.01692
G1 X103.050 Y98.223 E0.16757
G1 X102.514 Y98.223 E0.01692
G1 X106.271 Y101.980 E0.16758
G1 X105.734 Y101.980 E0.01692
G1 X101.977 Y98.223 E0.16758
G1 X101.441 Y98.223 E0.01692
G1 X105.198 Y101.980 E0.16759
G1 X104.661 Y101.980 E0.01692
G1 X100.904 Y98.223 E0.16759
G1 X100.368 Y98.223 E0.01692
G1 X104.125 Y101.980 E0.16759
G1 X103.588 Y101.980 E0.01692
G1 X99.831 Y98.223 E0.16760
G1 X99.295 Y98.223 E0.01692
G1 X103.052 Y101.980 E0.16760
G1 X102.515 Y101.980 E0.01692
G1 X98.758 Y98.223 E0.16761
G1 X98.221 Y98.223 E0.01692
G1 X101.979 Y101.980 E0.16761
G1 X101.630 Y101.980 E0.01100
G1 X101.630 Y102.168 E0.00592
G1 X97.685 Y98.223 E0.17599
G1 X97.148 Y98.222 E0.01692
G1 X101.630 Y102.704 E0.19992
G1 X101.630 Y103.241 E0.01692
G1 X96.612 Y98.222 E0.22386
G1 X96.075 Y98.222 E0.01692
G1 X101.630 Y103.777 E0.24779
G1 X101.630 Y104.314 E0.01692
G1 X95.539 Y98.222 E0.27173
G1 X95.002 Y98.222 E0.01692
G1 X101.630 Y104.850 E0.29566
G1 X101.630 Y105.387 E0.01692
G1 X98.770 Y102.526 E0.12759
G1 X98.770 Y103.063 E0.01692
G1 X101.630 Y105.923 E0.12759
G1 X101.630 Y106.460 E0.01692
G1 X98.770 Y103.599 E0.12759
G1 X98.770 Y104.136 E0.01692
G1 X101.630 Y106.996 E0.12759
G1 X101.630 Y107.532 E0.01692
G1 X98.770 Y104.672 E0.12759
G1 X98.770 Y105.209 E0.01692
G1 X101.630 Y108.069 E0.12759
G1 X101.630 Y108.605 E0.01692
G1 X98.770 Y105.745 E0.12759
G1 X98.770 Y106.282 E0.01692
G1 X101.630 Y109.142 E0.12759
G1 X101.630 Y109.678 E0.01692
G1 X98.770 Y106.818 E0.12759
G1 X98.770 Y107.355 E0.01692
G1 X101.630 Y110.215 E0.12759
G1 X101.630 Y110.751 E0.01692
G1 X98.770 Y107.891 E0.12759
G1 X98.770 Y108.427 E0.01692
G1 X101.630 Y111.288 E0.12759
G1 X101.630 Y111.824 E0.01692
G1 X98.770 Y108.964 E0.12759
G1 X98.770 Y109.500 E0.01692
G1 X101.630 Y112.361 E0.12759
G1 X101.630 Y112.897 E0.01692
G1 X98.770 Y110.037 E0.12759
G1 X98.770 Y110.573 E0.01692
G1 X101.630 Y113.434 E0.12759
G1 X101.630 Y113.970 E0.01692
G1 X98.770 Y111.110 E0.12759
G1 X98.770 Y111.646 E0.01692
G1 X101.630 Y114.507 E0.12759
G1 X101.630 Y115.043 E0.01692
G1 X98.770 Y112.183 E0.12759
G1 X98.770 Y112.719 E0.01692
G1 X101.630 Y115.579 E0.12759
G1 X101.630 Y116.116 E0.01692
G1 X98.770 Y113.256 E0.12759
G1 X98.770 Y113.792 E0.01692
G1 X101.630 Y116.652 E0.12759
G1 X101.630 Y117.189 E0.01692
G1 X98.600 Y114.159 E0.13516
G1 E-3.50000 F3600.000
;WIPE_START
G1 F7200.000
G1 X100.722 Y116.280 E-1.42500
;WIPE_END
G1 E-0.07500 F3600.000
G1 X116.700 Y102.753 F9000.000
G1 E5.00000 F2400.000
G1 F1200.000
G1 X119.230 Y105.283 E0.11285
G1 X119.230 Y105.820 E0.01692
G1 X116.870 Y103.459 E0.10528
G1 X116.870 Y103.996 E0.01692
G1 X119.230 Y106.356 E0.10528
G1 X119.230 Y106.893 E0.01692
G1 X116.870 Y104.532 E0.10528
G1 X116.870 Y105.069 E0.01692
G1 X119.230 Y107.429 E0.10528
G1 X119.230 Y107.966 E0.01692
G1 X116.870 Y105.605 E0.10528
G1 X116.870 Y106.142 E0.01692
G1 X119.230 Y108.502 E0.10528
G1 X119.230 Y109.038 E0.01692
G1 X116.870 Y106.678 E0.10528
G1 X116.870 Y107.215 E0.01692
G1 X119.230 Y109.575 E0.10528
G1 X119.230 Y110.111 E0.01692
G1 X116.870 Y107.751 E0.10528
G1 X116.870 Y108.288 E0.01692
G1 X119.230 Y110.648 E0.10528
G1 X119.230 Y111.184 E0.01692
G1 X116.870 Y108.824 E0.10528
G1 X116.870 Y109.361 E0.01692
G1 X119.230 Y111.721 E0.10528
G1 X119.230 Y112.257 E0.01692
G1 X116.870 Y109.897 E0.10528
G1 X116.870 Y110.434 E0.01692
G1 X119.230 Y112.794 E0.10528
G1 X119.230 Y113.330 E0.01692
G1 X116.870 Y110.970 E0.10528
G1 X116.870 Y111.506 E0.01692
G1 X119.230 Y113.867 E0.10528
G1 X119.230 Y114.403 E0.01692
G1 X116.870 Y112.043 E0.10528
G1 X116.870 Y112.579 E0.01692
G1 X119.230 Y114.940 E0.10528
G1 X119.230 Y115.476 E0.01692
G1 X116.870 Y113.116 E0.10528
G1 X116.870 Y113.652 E0.01692
G1 X119.230 Y116.013 E0.10528
G1 X119.230 Y116.549 E0.01692
G1 X116.870 Y114.189 E0.10528
G1 X116.870 Y114.725 E0.01692
G1 X119.230 Y117.085 E0.10528
G1 X119.230 Y117.622 E0.01692
G1 X116.870 Y115.262 E0.10528
G1 X116.870 Y115.798 E0.01692
G1 X119.230 Y118.158 E0.10528
G1 X119.230 Y118.695 E0.01692
G1 X116.700 Y116.165 E0.11285
G1 E-3.50000 F3600.000
;WIPE_START
G1 F7200.000
G1 X118.822 Y118.286 E-1.42500
;WIPE_END
G1 E-0.07500 F3600.000
G1 X138.700 Y106.513 F9000.000
G1 E5.00000 F2400.000
G1 F1200.000
G1 X137.070 Y104.883 E0.07271
G1 X137.070 Y105.420 E0.01692
G1 X138.530 Y106.880 E0.06514
G1 X138.530 Y107.416 E0.01692
G1 X137.070 Y105.956 E0.06514
G1 X137.070 Y106.493 E0.01692
G1 X138.530 Y107.953 E0.06514
G1 X138.530 Y108.489 E0.01692
G1 X137.070 Y107.029 E0.06514
G1 X137.070 Y107.565 E0.01692
G1 X138.530 Y109.026 E0.06514
G1 X138.530 Y109.562 E0.01692
G1 X137.070 Y108.102 E0.06514
G1 X137.070 Y108.638 E0.01692
G1 X138.530 Y110.099 E0.06514
G1 X138.530 Y110.635 E0.01692
G1 X137.070 Y109.175 E0.06514
G1 X137.070 Y109.711 E0.01692
G1 X138.530 Y111.172 E0.06514
G1 X138.530 Y111.708 E0.01692
G1 X137.070 Y110.248 E0.06514
G1 X137.070 Y110.784 E0.01692
G1 X138.530 Y112.244 E0.06514
G1 X138.530 Y112.781 E0.01692
G1 X137.070 Y111.321 E0.06514
G1 X137.070 Y111.857 E0.01692
G1 X138.530 Y113.317 E0.06514
G1 X138.530 Y113.854 E0.01692
G1 X137.070 Y112.394 E0.06514
G1 X137.070 Y112.930 E0.01692
G1 X138.530 Y114.390 E0.06514
G1 X138.530 Y114.927 E0.01692
G1 X137.070 Y113.467 E0.06514
G1 X137.070 Y114.003 E0.01692
G1 X138.530 Y115.463 E0.06514
G1 X138.530 Y116.000 E0.01692
G1 X137.070 Y114.540 E0.06514
G1 X137.070 Y115.076 E0.01692
