; generated by PrusaSlicer 2.3.0+win64 on 2021-01-28 at 16:04:39 UTC

; 

; external perimeters extrusion width = 0.45mm
; perimeters extrusion width = 0.45mm
; infill extrusion width = 0.45mm
; solid infill extrusion width = 0.45mm
; top infill extrusion width = 0.40mm
; first layer extrusion width = 0.42mm

M201 X500 Y500 Z100 E5000 ; sets maximum accelerations, mm/sec^2
M203 X500 Y500 Z10 E60 ; sets maximum feedrates, mm/sec
M204 P500 R1000 T500 ; sets acceleration (P, T) and retract acceleration (R), mm/sec^2
M205 X8.00 Y8.00 Z0.40 E5.00 ; sets the jerk limits, mm/sec
M205 S0 T0 ; sets the minimum extruding and travel feed rate, mm/sec
M107
;TYPE:Custom
G90 ; use absolute coordinates
M83 ; extruder relative mode
M104 S208 ; set extruder temp
M140 S60 ; set bed temp
M190 S60 ; wait for bed temp
M109 S208 ; wait for extruder temp
G28 ; home all
G1 Z2 F240
G1 X2 Y10 F3000
G1 Z0.28 F240
G92 E0
G1 Y190 E15 F1500 ; intro line
G1 X2.3 F5000
G92 E0
G1 Y10 E15 F1200 ; intro line
G92 E0
G21 ; set units to millimeters
G90 ; use absolute coordinates
M83 ; use relative distances for extrusion
; Filament gcode
;LAYER_CHANGE
;Z:0.2
;HEIGHT:0.2
;BEFORE_LAYER_CHANGE
G92 E0
;0.2


G1 E-5.00000 F3600.000
G1 Z0.200 F9000.000
;AFTER_LAYER_CHANGE
;0.2
G1 X96.236 Y102.134
G1 E5.00000 F2400.000
;TYPE:Skirt
;WIDTH:0.42
G1 F1200.000
G1 X96.879 Y101.233 E0.03470
G1 X97.719 Y100.495 E0.03505
G1 X98.897 Y99.895 E0.04145
G1 X99.984 Y99.650 E0.03493
G1 X119.504 Y99.623 E0.61203
G1 X120.489 Y99.724 E0.03106
G1 X121.369 Y99.997 E0.02887
G1 X122.018 Y100.324 E0.02279
G1 X122.761 Y100.874 E0.02899
G1 X123.389 Y101.558 E0.02911
G1 X123.781 Y102.166 E0.02268
G1 X124.146 Y103.016 E0.02899
G1 X124.349 Y103.976 E0.03078
G1 X124.377 Y135.542 E0.98972
G1 X124.244 Y136.626 E0.03426
G1 X123.764 Y137.866 E0.04169
G1 X123.116 Y138.773 E0.03493
G1 X122.264 Y139.516 E0.03545
G1 X121.078 Y140.114 E0.04165
G1 X119.936 Y140.357 E0.03659
G1 X100.435 Y140.376 E0.61145
G1 X99.370 Y140.243 E0.03366
G1 X98.134 Y139.764 E0.04157
G1 X97.169 Y139.061 E0.03742
G1 X96.301 Y137.980 E0.04347
G1 X95.837 Y136.926 E0.03612
G1 X95.626 Y135.621 E0.04145
G1 X95.623 Y104.458 E0.97708
G1 X95.756 Y103.374 E0.03426
G1 X96.215 Y102.190 E0.03981
G1 E-3.50000 F3600.000
;WIPE_START
G1 F7200.000
G1 X96.879 Y101.233 E-0.55329
G1 X97.719 Y100.495 E-0.53105
G1 X98.358 Y100.170 E-0.34066
;WIPE_END
G1 E-0.07500 F3600.000
G1 X118.474 Y133.391 F9000.000
G1 E5.00000 F2400.000
;TYPE:Perimeter
G1 F1200.000
G1 X118.968 Y133.309 E0.01569
G1 X119.361 Y133.347 E0.01239
G1 X119.710 Y133.465 E0.01156
G1 X120.023 Y133.654 E0.01147
G1 X120.289 Y133.905 E0.01147
G1 X120.494 Y134.208 E0.01147
G1 X120.629 Y134.548 E0.01147
G1 X120.689 Y134.908 E0.01147
G1 X120.669 Y135.274 E0.01147
G1 X120.571 Y135.626 E0.01147
G1 X120.409 Y135.932 E0.01088
G1 X120.275 Y136.108 E0.00690
G1 X120.023 Y136.346 E0.01088
G1 X119.710 Y136.535 E0.01147
G1 X119.364 Y136.652 E0.01147
G1 X119.000 Y136.691 E0.01147
G1 X118.636 Y136.652 E0.01147
G1 X118.290 Y136.535 E0.01147
G1 X117.977 Y136.346 E0.01147
G1 X117.713 Y136.097 E0.01138
G1 X117.505 Y135.790 E0.01163
G1 X117.371 Y135.452 E0.01138
G1 X117.311 Y135.092 E0.01147
G1 X117.331 Y134.726 E0.01147
G1 X117.429 Y134.374 E0.01147
G1 X117.600 Y134.051 E0.01147
G1 X117.837 Y133.772 E0.01147
G1 X118.128 Y133.551 E0.01147
G1 X118.419 Y133.416 E0.01007
G1 X118.578 Y133.758 F9000.000
;TYPE:External perimeter
G1 F1200.000
G1 X118.980 Y133.689 E0.01281
G1 X119.281 Y133.719 E0.00947
G1 X119.551 Y133.809 E0.00893
G1 X119.794 Y133.956 E0.00889
G1 X120.000 Y134.151 E0.00889
G1 X120.159 Y134.386 E0.00889
G1 X120.264 Y134.649 E0.00889
G1 X120.310 Y134.929 E0.00889
G1 X120.295 Y135.212 E0.00889
G1 X120.219 Y135.486 E0.00889
G1 X120.090 Y135.729 E0.00863
G1 X119.994 Y135.855 E0.00498
G1 X119.794 Y136.044 E0.00863
G1 X119.551 Y136.191 E0.00889
G1 X119.282 Y136.281 E0.00889
G1 X119.000 Y136.312 E0.00889
G1 X118.718 Y136.281 E0.00889
G1 X118.449 Y136.191 E0.00889
G1 X118.206 Y136.044 E0.00889
G1 X118.002 Y135.851 E0.00881
G1 X117.840 Y135.612 E0.00906
G1 X117.736 Y135.351 E0.00881
G1 X117.690 Y135.071 E0.00889
G1 X117.705 Y134.788 E0.00889
G1 X117.781 Y134.514 E0.00889
G1 X117.914 Y134.264 E0.00889
G1 X118.098 Y134.048 E0.00889
G1 X118.324 Y133.876 E0.00889
G1 X118.523 Y133.784 E0.00690
G1 X118.669 Y133.369 F9000.000
G1 E-3.50000 F3600.000
;WIPE_START
G1 F7200.000
G1 X118.980 Y133.689 E-0.22167
G1 X119.281 Y133.719 E-0.14353
G1 X119.551 Y133.809 E-0.13524
G1 X119.794 Y133.956 E-0.13474
G1 X120.000 Y134.151 E-0.13474
G1 X120.159 Y134.386 E-0.13474
G1 X120.264 Y134.649 E-0.13474
G1 X120.310 Y134.929 E-0.13474
G1 X120.295 Y135.212 E-0.13474
G1 X120.229 Y135.448 E-0.11611
;WIPE_END
G1 E-0.07500 F3600.000
G1 X120.900 Y135.811 F9000.000
G1 E5.00000 F2400.000
;TYPE:Perimeter
G1 F1200.000
G1 X120.810 Y136.083 E0.00898
G1 X120.742 Y136.217 E0.00471
G1 X120.566 Y136.460 E0.00940
G1 X120.460 Y136.566 E0.00471
G1 X120.217 Y136.742 E0.00940
G1 X120.083 Y136.810 E0.00471
G1 X119.798 Y136.903 E0.00940
G1 X119.869 Y136.879 E0.00235
G1 X120.253 Y136.648 E0.01404
G1 X120.557 Y136.360 E0.01313
G1 X120.727 Y136.136 E0.00883
G1 X120.871 Y135.864 E0.00965
G1 E-3.50000 F3600.000
;WIPE_START
G1 F7200.000
G1 X120.810 Y136.083 E-0.10801
G1 X120.742 Y136.217 E-0.07132
G1 X120.566 Y136.460 E-0.14244
G1 X120.460 Y136.566 E-0.07132
G1 X120.217 Y136.742 E-0.14244
G1 X120.083 Y136.810 E-0.07131
G1 X119.798 Y136.903 E-0.14242
G1 X119.869 Y136.879 E-0.03563
G1 X120.253 Y136.648 E-0.21266
G1 X120.557 Y136.360 E-0.19885
G1 X120.727 Y136.136 E-0.13375
G1 X120.821 Y135.960 E-0.09486
;WIPE_END
G1 E-0.07500 F3600.000
G1 X120.907 Y124.224 F9000.000
G1 E5.00000 F2400.000
G1 F1200.000
G1 X120.829 Y124.030 E0.00655
G1 X120.578 Y123.660 E0.01404
G1 X120.253 Y123.352 E0.01404
G1 X119.869 Y123.121 E0.01404
G1 X119.800 Y123.097 E0.00231
G1 X120.083 Y123.190 E0.00936
G1 X120.217 Y123.258 E0.00471
G1 X120.460 Y123.434 E0.00940
G1 X120.566 Y123.540 E0.00471
G1 X120.742 Y123.783 E0.00940
G1 X120.810 Y123.917 E0.00471
G1 X120.893 Y124.166 E0.00824
G1 X120.494 Y124.208 F9000.000
G1 F1200.000
G1 X120.629 Y124.548 E0.01147
G1 X120.689 Y124.908 E0.01147
G1 X120.669 Y125.274 E0.01147
G1 X120.571 Y125.626 E0.01147
G1 X120.409 Y125.932 E0.01088
G1 X120.275 Y126.108 E0.00690
G1 X120.023 Y126.346 E0.01088
G1 X119.710 Y126.535 E0.01147
G1 X119.364 Y126.652 E0.01147
G1 X119.000 Y126.691 E0.01147
G1 X118.636 Y126.652 E0.01147
G1 X118.290 Y126.535 E0.01147
G1 X117.977 Y126.346 E0.01147
G1 X117.713 Y126.097 E0.01138
G1 X117.505 Y125.790 E0.01163
G1 X117.371 Y125.452 E0.01138
G1 X117.311 Y125.092 E0.01147
G1 X117.331 Y124.726 E0.01147
G1 X117.429 Y124.374 E0.01147
G1 X117.600 Y124.051 E0.01147
G1 X117.837 Y123.772 E0.01147
G1 X118.128 Y123.551 E0.01147
G1 X118.474 Y123.391 E0.01195
G1 X118.968 Y123.309 E0.01569
G1 X119.361 Y123.347 E0.01239
G1 X119.710 Y123.465 E0.01156
G1 X120.023 Y123.654 E0.01147
G1 X120.289 Y123.905 E0.01147
G1 X120.460 Y124.158 E0.00958
G1 X120.148 Y124.370 F9000.000
;TYPE:External perimeter
G1 F1200.000
G1 X120.264 Y124.649 E0.00948
G1 X120.310 Y124.929 E0.00889
G1 X120.295 Y125.212 E0.00889
G1 X120.219 Y125.486 E0.00889
G1 X120.090 Y125.729 E0.00863
G1 X119.994 Y125.855 E0.00498
G1 X119.794 Y126.044 E0.00863
G1 X119.551 Y126.191 E0.00889
G1 X119.282 Y126.281 E0.00889
G1 X119.000 Y126.312 E0.00889
G1 X118.718 Y126.281 E0.00889
G1 X118.449 Y126.191 E0.00889
G1 X118.206 Y126.044 E0.00889
G1 X118.002 Y125.851 E0.00881
G1 X117.840 Y125.612 E0.00906
G1 X117.736 Y125.351 E0.00881
G1 X117.690 Y125.071 E0.00889
G1 X117.705 Y124.788 E0.00889
G1 X117.781 Y124.514 E0.00889
G1 X117.914 Y124.264 E0.00889
G1 X118.098 Y124.048 E0.00889
G1 X118.324 Y123.876 E0.00889
G1 X118.586 Y123.755 E0.00907
G1 X118.980 Y123.689 E0.01253
G1 X119.281 Y123.719 E0.00947
G1 X119.551 Y123.809 E0.00893
G1 X119.794 Y123.956 E0.00889
G1 X120.000 Y124.151 E0.00889
G1 X120.115 Y124.320 E0.00642
G1 X120.450 Y124.378 F9000.000
G1 E-3.50000 F3600.000
;WIPE_START
G1 F7200.000
G1 X120.264 Y124.649 E-0.17157
G1 X120.310 Y124.929 E-0.13474
G1 X120.295 Y125.212 E-0.13474
G1 X120.219 Y125.486 E-0.13474
G1 X120.090 Y125.729 E-0.13072
G1 X119.994 Y125.855 E-0.07541
G1 X119.794 Y126.044 E-0.13072
G1 X119.551 Y126.191 E-0.13474
G1 X119.282 Y126.281 E-0.13474
G1 X119.000 Y126.312 E-0.13474
G1 X118.774 Y126.287 E-0.10813
;WIPE_END
G1 E-0.07500 F3600.000
G1 X116.293 Y127.225 F9000.000
G1 E5.00000 F2400.000
;TYPE:Perimeter
G1 F1200.000
G1 X116.412 Y127.382 E0.00616
G1 X116.672 Y127.815 E0.01584
G1 X116.884 Y128.273 E0.01584
G1 X117.046 Y128.752 E0.01584
G1 X117.154 Y129.245 E0.01584
G1 X117.209 Y129.747 E0.01584
G1 X117.209 Y130.253 E0.01584
G1 X117.154 Y130.755 E0.01584
G1 X117.046 Y131.248 E0.01584
G1 X116.884 Y131.727 E0.01584
G1 X116.672 Y132.185 E0.01584
G1 X116.412 Y132.618 E0.01584
G1 X116.106 Y133.021 E0.01584
G1 X115.759 Y133.387 E0.01584
G1 X115.374 Y133.714 E0.01584
G1 X114.955 Y133.998 E0.01584
G1 X114.509 Y134.234 E0.01584
G1 X114.040 Y134.421 E0.01584
G1 X113.553 Y134.557 E0.01584
G1 X113.054 Y134.638 E0.01584
G1 X112.579 Y134.664 E0.01493
G1 X107.421 Y134.664 E0.16171
G1 X106.946 Y134.638 E0.01493
G1 X106.447 Y134.557 E0.01584
G1 X105.960 Y134.421 E0.01584
G1 X105.491 Y134.234 E0.01584
G1 X105.045 Y133.998 E0.01584
G1 X104.626 Y133.714 E0.01584
G1 X104.241 Y133.387 E0.01584
G1 X103.894 Y133.021 E0.01584
G1 X103.588 Y132.618 E0.01584
G1 X103.328 Y132.185 E0.01584
G1 X103.116 Y131.727 E0.01584
G1 X102.954 Y131.248 E0.01584
G1 X102.846 Y130.755 E0.01584
G1 X102.791 Y130.253 E0.01584
G1 X102.791 Y129.747 E0.01584
G1 X102.846 Y129.245 E0.01584
G1 X102.954 Y128.752 E0.01584
G1 X103.116 Y128.273 E0.01584
G1 X103.328 Y127.815 E0.01584
G1 X103.588 Y127.382 E0.01584
G1 X103.894 Y126.979 E0.01584
G1 X104.241 Y126.613 E0.01584
G1 X104.626 Y126.286 E0.01584
G1 X105.045 Y126.002 E0.01584
G1 X105.491 Y125.766 E0.01584
G1 X105.960 Y125.579 E0.01584
G1 X106.447 Y125.443 E0.01584
G1 X106.946 Y125.362 E0.01584
G1 X107.421 Y125.336 E0.01493
G1 X112.579 Y125.336 E0.16171
G1 X113.054 Y125.362 E0.01493
G1 X113.553 Y125.443 E0.01584
G1 X114.040 Y125.579 E0.01584
G1 X114.494 Y125.760 E0.01534
G1 X114.954 Y126.001 E0.01628
G1 X115.374 Y126.286 E0.01590
G1 X115.759 Y126.613 E0.01584
G1 X116.106 Y126.979 E0.01584
G1 X116.257 Y127.178 E0.00780
G1 X115.818 Y127.224 F9000.000
G1 F1200.000
G1 X116.099 Y127.594 E0.01456
G1 X116.339 Y127.991 E0.01456
G1 X116.534 Y128.413 E0.01456
G1 X116.682 Y128.853 E0.01456
G1 X116.782 Y129.306 E0.01456
G1 X116.832 Y129.768 E0.01456
G1 X116.832 Y130.232 E0.01456
G1 X116.782 Y130.694 E0.01456
G1 X116.682 Y131.147 E0.01456
G1 X116.534 Y131.587 E0.01456
G1 X116.339 Y132.009 E0.01456
G1 X116.099 Y132.406 E0.01456
G1 X115.818 Y132.776 E0.01456
G1 X115.499 Y133.113 E0.01456
G1 X115.145 Y133.414 E0.01456
G1 X114.761 Y133.674 E0.01456
G1 X114.351 Y133.892 E0.01456
G1 X113.919 Y134.064 E0.01456
G1 X113.472 Y134.188 E0.01456
G1 X113.014 Y134.263 E0.01456
G1 X112.569 Y134.287 E0.01397
G1 X107.431 Y134.287 E0.16107
G1 X106.986 Y134.263 E0.01397
G1 X106.528 Y134.188 E0.01456
G1 X106.081 Y134.064 E0.01456
G1 X105.649 Y133.892 E0.01456
G1 X105.239 Y133.674 E0.01456
G1 X104.855 Y133.414 E0.01456
G1 X104.501 Y133.113 E0.01456
G1 X104.182 Y132.776 E0.01456
G1 X103.901 Y132.406 E0.01456
G1 X103.661 Y132.009 E0.01456
G1 X103.466 Y131.587 E0.01456
G1 X103.318 Y131.147 E0.01456
G1 X103.218 Y130.694 E0.01456
G1 X103.168 Y130.232 E0.01456
G1 X103.168 Y129.768 E0.01456
G1 X103.218 Y129.306 E0.01456
G1 X103.318 Y128.853 E0.01456
G1 X103.466 Y128.413 E0.01456
G1 X103.661 Y127.991 E0.01456
G1 X103.901 Y127.594 E0.01456
G1 X104.182 Y127.224 E0.01456
G1 X104.501 Y126.887 E0.01456
G1 X104.855 Y126.586 E0.01456
G1 X105.239 Y126.326 E0.01456
G1 X105.649 Y126.108 E0.01456
G1 X106.081 Y125.936 E0.01456
G1 X106.528 Y125.812 E0.01456
G1 X106.986 Y125.737 E0.01456
G1 X107.431 Y125.713 E0.01397
G1 X112.569 Y125.713 E0.16107
G1 X113.014 Y125.737 E0.01397
G1 X113.472 Y125.812 E0.01456
G1 X113.919 Y125.936 E0.01456
G1 X114.336 Y126.103 E0.01408
G1 X114.760 Y126.325 E0.01500
G1 X115.145 Y126.586 E0.01459
G1 X115.499 Y126.887 E0.01456
G1 X115.777 Y127.180 E0.01268
G1 X115.503 Y127.440 F9000.000
;TYPE:External perimeter
G1 F1200.000
G1 X115.787 Y127.806 E0.01451
G1 X116.005 Y128.168 E0.01328
G1 X116.183 Y128.553 E0.01328
G1 X116.318 Y128.954 E0.01328
G1 X116.409 Y129.367 E0.01328
G1 X116.455 Y129.788 E0.01328
G1 X116.455 Y130.212 E0.01328
G1 X116.409 Y130.633 E0.01328
G1 X116.318 Y131.046 E0.01328
G1 X116.183 Y131.447 E0.01328
G1 X116.005 Y131.832 E0.01328
G1 X115.787 Y132.194 E0.01328
G1 X115.530 Y132.532 E0.01328
G1 X115.239 Y132.839 E0.01328
G1 X114.917 Y133.113 E0.01328
G1 X114.566 Y133.351 E0.01328
G1 X114.192 Y133.549 E0.01328
G1 X113.799 Y133.706 E0.01328
G1 X113.391 Y133.819 E0.01328
G1 X112.973 Y133.888 E0.01328
G1 X112.558 Y133.910 E0.01301
G1 X107.442 Y133.910 E0.16043
G1 X107.027 Y133.888 E0.01301
G1 X106.609 Y133.819 E0.01328
G1 X106.201 Y133.706 E0.01328
G1 X105.808 Y133.549 E0.01328
G1 X105.434 Y133.351 E0.01328
G1 X105.083 Y133.113 E0.01328
G1 X104.761 Y132.839 E0.01328
G1 X104.470 Y132.532 E0.01328
G1 X104.213 Y132.194 E0.01328
G1 X103.995 Y131.832 E0.01328
G1 X103.817 Y131.447 E0.01328
G1 X103.682 Y131.046 E0.01328
G1 X103.591 Y130.633 E0.01328
G1 X103.545 Y130.212 E0.01328
G1 X103.545 Y129.788 E0.01328
G1 X103.591 Y129.367 E0.01328
G1 X103.682 Y128.954 E0.01328
G1 X103.817 Y128.553 E0.01328
G1 X103.995 Y128.168 E0.01328
G1 X104.213 Y127.806 E0.01328
G1 X104.470 Y127.468 E0.01328
G1 X104.761 Y127.161 E0.01328
G1 X105.083 Y126.887 E0.01328
G1 X105.434 Y126.649 E0.01328
G1 X105.808 Y126.451 E0.01328
G1 X106.201 Y126.294 E0.01328
G1 X106.609 Y126.181 E0.01328
G1 X107.027 Y126.112 E0.01328
G1 X107.442 Y126.090 E0.01301
G1 X112.558 Y126.090 E0.16043
G1 X112.973 Y126.112 E0.01301
G1 X113.391 Y126.181 E0.01328
G1 X113.799 Y126.294 E0.01328
G1 X114.179 Y126.446 E0.01282
G1 X114.566 Y126.649 E0.01371
G1 X114.917 Y126.887 E0.01329
G1 X115.239 Y127.161 E0.01328
G1 X115.462 Y127.396 E0.01015
G1 X115.896 Y127.365 F9000.000
G1 E-3.50000 F3600.000
;WIPE_START
G1 F7200.000
G1 X115.787 Y127.806 E-0.24819
G1 X116.005 Y128.168 E-0.20112
G1 X116.183 Y128.553 E-0.20112
G1 X116.318 Y128.954 E-0.20112
G1 X116.409 Y129.367 E-0.20112
G1 X116.455 Y129.788 E-0.20112
G1 X116.455 Y130.149 E-0.17120
;WIPE_END
G1 E-0.07500 F3600.000
G1 X118.257 Y123.076 F9000.000
G1 E5.00000 F2400.000
;TYPE:Perimeter
G1 F1200.000
G1 X117.933 Y123.226 E0.01121
G1 X117.576 Y123.497 E0.01404
G1 X117.286 Y123.838 E0.01404
G1 X117.077 Y124.234 E0.01404
G1 X116.957 Y124.665 E0.01404
G1 X116.933 Y125.112 E0.01404
G1 X117.005 Y125.554 E0.01404
G1 X117.170 Y125.967 E0.01395
G1 X117.424 Y126.342 E0.01420
G1 X117.747 Y126.648 E0.01395
G1 X118.131 Y126.879 E0.01404
G1 X118.555 Y127.022 E0.01404
G1 X119.000 Y127.070 E0.01404
G1 X119.445 Y127.022 E0.01404
G1 X119.869 Y126.879 E0.01404
G1 X120.253 Y126.648 E0.01404
G1 X120.557 Y126.360 E0.01313
G1 X120.727 Y126.136 E0.00883
G1 X120.936 Y125.721 E0.01456
G1 X120.936 Y134.298 E0.26890
G1 X120.829 Y134.030 E0.00903
G1 X120.578 Y133.660 E0.01404
G1 X120.253 Y133.352 E0.01404
G1 X119.869 Y133.121 E0.01404
G1 X119.440 Y132.976 E0.01419
G1 X118.955 Y132.928 E0.01530
G1 X118.362 Y133.027 E0.01885
G1 X117.933 Y133.226 E0.01483
G1 X117.576 Y133.497 E0.01404
G1 X117.286 Y133.838 E0.01404
G1 X117.077 Y134.234 E0.01404
G1 X116.957 Y134.665 E0.01404
G1 X116.933 Y135.112 E0.01404
G1 X117.005 Y135.554 E0.01404
G1 X117.170 Y135.967 E0.01395
G1 X117.424 Y136.342 E0.01420
G1 X117.747 Y136.648 E0.01395
G1 X118.131 Y136.879 E0.01404
G1 X118.299 Y136.936 E0.00557
G1 X101.701 Y136.936 E0.52043
G1 X101.869 Y136.879 E0.00557
G1 X102.253 Y136.648 E0.01404
G1 X102.557 Y136.360 E0.01313
G1 X102.727 Y136.136 E0.00883
G1 X102.923 Y135.766 E0.01313
G1 X103.043 Y135.335 E0.01404
G1 X103.067 Y134.888 E0.01404
G1 X102.995 Y134.446 E0.01404
G1 X102.829 Y134.030 E0.01404
G1 X102.578 Y133.660 E0.01404
G1 X102.253 Y133.352 E0.01404
G1 X101.869 Y133.121 E0.01404
G1 X101.440 Y132.976 E0.01419
G1 X100.955 Y132.928 E0.01530
