; generated by PrusaSlicer 2.3.0+win64 on 2021-01-21 at 21:22:28 UTC

; 

; external perimeters extrusion width = 0.45mm
; perimeters extrusion width = 0.45mm
; infill extrusion width = 0.45mm
; solid infill extrusion width = 0.45mm
; top infill extrusion width = 0.40mm
; first layer extrusion width = 0.42mm

M201 X500 Y500 Z100 E5000 ; sets maximum accelerations, mm/sec^2
M203 X500 Y500 Z10 E60 ; sets maximum feedrates, mm/sec
M204 P500 R1000 T500 ; sets acceleration (P, T) and retract acceleration (R), mm/sec^2
M205 X8.00 Y8.00 Z0.40 E5.00 ; sets the jerk limits, mm/sec
M205 S0 T0 ; sets the minimum extruding and travel feed rate, mm/sec
M107
;TYPE:Custom
G90 ; use absolute coordinates
M83 ; extruder relative mode
M104 S208 ; set extruder temp
M140 S60 ; set bed temp
M190 S60 ; wait for bed temp
M109 S208 ; wait for extruder temp
G28 ; home all
G1 Z2 F240
G1 X2 Y10 F3000
G1 Z0.28 F240
G92 E0
G1 Y190 E15 F1500 ; intro line
G1 X2.3 F5000
G92 E0
G1 Y10 E15 F1200 ; intro line
G92 E0
G21 ; set units to millimeters
G90 ; use absolute coordinates
M83 ; use relative distances for extrusion
; Filament gcode
;LAYER_CHANGE
;Z:0.2
;HEIGHT:0.2
;BEFORE_LAYER_CHANGE
G92 E0
;0.2


G1 E-5.00000 F3600.000
G1 Z0.100 F9000.000
;AFTER_LAYER_CHANGE
;0.2
G1 X45.727 Y17.238
G1 E5.00000 F2400.000
;TYPE:Skirt
;WIDTH:0.42
G1 F1200.000
G1 X46.703 Y15.544 E0.06130
G1 X47.393 Y14.672 E0.03485
G1 X48.232 Y13.821 E0.03748
G1 X49.111 Y13.110 E0.03546
G1 X50.113 Y12.471 E0.03724
G1 X51.909 Y11.672 E0.06165
G1 X53.073 Y11.352 E0.03784
G1 X54.262 Y11.171 E0.03772
G1 X149.754 Y11.123 E2.99407
G1 X150.835 Y11.179 E0.03395
G1 X151.806 Y11.329 E0.03080
G1 X152.989 Y11.636 E0.03831
G1 X154.124 Y12.082 E0.03824
G1 X154.996 Y12.531 E0.03076
G1 X155.906 Y13.122 E0.03403
G1 X156.851 Y13.900 E0.03836
G1 X157.544 Y14.599 E0.03088
G1 X158.225 Y15.440 E0.03391
G1 X158.880 Y16.466 E0.03819
G1 X159.325 Y17.347 E0.03092
G1 X159.704 Y18.331 E0.03307
G1 X174.975 Y84.368 E2.12520
G1 X175.176 Y85.754 E0.04389
G1 X175.227 Y86.849 E0.03438
G1 X175.227 Y136.148 E1.54573
G1 X175.157 Y137.451 E0.04091
G1 X174.969 Y138.656 E0.03824
G1 X159.983 Y200.646 E1.99966
G1 X159.707 Y201.660 E0.03295
G1 X159.273 Y202.762 E0.03712
G1 X158.297 Y204.456 E0.06129
G1 X157.600 Y205.337 E0.03521
G1 X156.757 Y206.189 E0.03760
G1 X155.806 Y206.947 E0.03812
G1 X154.114 Y207.923 E0.06125
G1 X152.986 Y208.365 E0.03796
G1 X151.819 Y208.669 E0.03784
G1 X149.863 Y208.874 E0.06165
G1 X55.227 Y208.877 E2.96724
G1 X54.150 Y208.819 E0.03383
G1 X53.056 Y208.645 E0.03474
G1 X51.997 Y208.359 E0.03439
G1 X50.888 Y207.923 E0.03736
G1 X49.185 Y206.940 E0.06165
G1 X48.241 Y206.188 E0.03784
G1 X47.391 Y205.326 E0.03796
G1 X46.240 Y203.741 E0.06141
G1 X45.680 Y202.664 E0.03808
G1 X45.256 Y201.538 E0.03772
G1 X44.846 Y199.615 E0.06165
G1 X44.774 Y198.464 E0.03617
G1 X44.773 Y21.589 E5.54579
G1 X44.831 Y20.500 E0.03418
G1 X45.005 Y19.406 E0.03474
G1 X45.291 Y18.347 E0.03438
G1 X45.705 Y17.293 E0.03548
G1 E-3.50000 F3600.000
;WIPE_START
G1 F7200.000
G1 X46.703 Y15.544 E-0.95679
G1 X47.315 Y14.771 E-0.46821
;WIPE_END
G1 E-0.07500 F3600.000
G1 X133.325 Y172.385 F9000.000
G1 E5.00000 F2400.000
;TYPE:Perimeter
G1 F1200.000
G1 X133.825 Y172.216 E0.01654
G1 X134.324 Y172.162 E0.01574
G1 X134.628 Y172.177 E0.00955
G1 X135.129 Y172.287 E0.01609
G1 X135.608 Y172.509 E0.01655
G1 X136.028 Y172.828 E0.01655
G1 X136.370 Y173.230 E0.01654
G1 X136.606 Y173.673 E0.01574
G1 X136.704 Y173.962 E0.00955
G1 X136.787 Y174.468 E0.01609
G1 X136.759 Y174.995 E0.01655
G1 X136.617 Y175.503 E0.01655
G1 X136.378 Y175.956 E0.01604
G1 X136.199 Y176.191 E0.00928
G1 X135.827 Y176.543 E0.01604
G1 X135.375 Y176.815 E0.01655
G1 X134.875 Y176.984 E0.01655
G1 X134.350 Y177.041 E0.01655
G1 X133.825 Y176.984 E0.01655
G1 X133.340 Y176.820 E0.01604
G1 X133.079 Y176.682 E0.00928
G1 X132.684 Y176.382 E0.01554
G1 X132.481 Y176.167 E0.00928
G1 X132.194 Y175.743 E0.01604
G1 X131.998 Y175.253 E0.01655
G1 X131.913 Y174.732 E0.01655
G1 X131.941 Y174.205 E0.01654
G1 X132.075 Y173.722 E0.01574
G1 X132.202 Y173.445 E0.00955
G1 X132.490 Y173.020 E0.01609
G1 X132.873 Y172.657 E0.01655
G1 X133.274 Y172.416 E0.01467
G1 X133.468 Y172.739 F9000.000
;TYPE:External perimeter
G1 F1200.000
G1 X133.907 Y172.587 E0.01455
G1 X134.335 Y172.540 E0.01352
G1 X134.578 Y172.552 E0.00762
G1 X135.008 Y172.647 E0.01381
G1 X135.413 Y172.834 E0.01398
G1 X135.768 Y173.103 E0.01398
G1 X136.056 Y173.443 E0.01397
G1 X136.258 Y173.824 E0.01352
G1 X136.337 Y174.054 E0.00762
G1 X136.408 Y174.488 E0.01381
G1 X136.384 Y174.933 E0.01398
G1 X136.265 Y175.363 E0.01398
G1 X136.059 Y175.752 E0.01380
G1 X135.917 Y175.938 E0.00735
G1 X135.598 Y176.241 E0.01380
G1 X135.216 Y176.471 E0.01398
G1 X134.793 Y176.613 E0.01398
G1 X134.350 Y176.661 E0.01398
G1 X133.907 Y176.613 E0.01398
G1 X133.490 Y176.473 E0.01380
G1 X133.283 Y176.363 E0.00735
G1 X132.937 Y176.100 E0.01362
G1 X132.776 Y175.930 E0.00735
G1 X132.529 Y175.566 E0.01380
G1 X132.364 Y175.151 E0.01398
G1 X132.292 Y174.712 E0.01398
G1 X132.316 Y174.267 E0.01397
G1 X132.431 Y173.851 E0.01352
G1 X132.532 Y173.630 E0.00762
G1 X132.779 Y173.265 E0.01381
G1 X133.103 Y172.959 E0.01398
G1 X133.417 Y172.770 E0.01150
G1 X133.502 Y172.340 F9000.000
G1 E-3.50000 F3600.000
;WIPE_START
G1 F7200.000
G1 X133.907 Y172.587 E-0.24845
G1 X134.335 Y172.540 E-0.20477
G1 X134.578 Y172.552 E-0.11546
G1 X135.008 Y172.647 E-0.20922
G1 X135.413 Y172.834 E-0.21173
G1 X135.768 Y173.103 E-0.21173
G1 X136.056 Y173.443 E-0.21167
G1 X136.068 Y173.465 E-0.01197
;WIPE_END
G1 E-0.07500 F3600.000
G1 X71.087 Y174.468 F9000.000
G1 E5.00000 F2400.000
;TYPE:Perimeter
G1 F1200.000
G1 X71.059 Y174.995 E0.01654
G1 X70.925 Y175.478 E0.01574
G1 X70.798 Y175.755 E0.00955
G1 X70.510 Y176.180 E0.01609
G1 X70.127 Y176.543 E0.01655
G1 X69.675 Y176.815 E0.01655
G1 X69.175 Y176.984 E0.01655
G1 X68.650 Y177.041 E0.01655
G1 X68.125 Y176.984 E0.01655
G1 X67.640 Y176.820 E0.01604
G1 X67.379 Y176.682 E0.00928
G1 X66.972 Y176.372 E0.01605
G1 X66.630 Y175.970 E0.01654
G1 X66.394 Y175.527 E0.01574
G1 X66.296 Y175.238 E0.00955
G1 X66.213 Y174.732 E0.01609
G1 X66.241 Y174.205 E0.01654
G1 X66.375 Y173.722 E0.01574
G1 X66.502 Y173.445 E0.00955
G1 X66.790 Y173.020 E0.01609
G1 X67.173 Y172.657 E0.01655
G1 X67.625 Y172.385 E0.01655
G1 X68.125 Y172.216 E0.01654
G1 X68.624 Y172.162 E0.01574
G1 X68.928 Y172.177 E0.00955
G1 X69.429 Y172.287 E0.01609
G1 X69.908 Y172.509 E0.01655
G1 X70.316 Y172.818 E0.01604
G1 X70.519 Y173.033 E0.00928
G1 X70.806 Y173.457 E0.01604
G1 X71.002 Y173.947 E0.01655
G1 X71.077 Y174.409 E0.01467
G1 X70.705 Y174.470 F9000.000
;TYPE:External perimeter
G1 F1200.000
G1 X70.684 Y174.933 E0.01455
G1 X70.569 Y175.349 E0.01352
G1 X70.468 Y175.570 E0.00762
G1 X70.221 Y175.935 E0.01381
G1 X69.897 Y176.241 E0.01398
G1 X69.516 Y176.471 E0.01398
G1 X69.093 Y176.613 E0.01398
G1 X68.650 Y176.661 E0.01398
G1 X68.207 Y176.613 E0.01398
G1 X67.790 Y176.473 E0.01380
G1 X67.583 Y176.363 E0.00735
G1 X67.232 Y176.097 E0.01380
G1 X66.944 Y175.757 E0.01397
G1 X66.742 Y175.376 E0.01352
G1 X66.663 Y175.146 E0.00762
G1 X66.592 Y174.712 E0.01381
G1 X66.616 Y174.267 E0.01397
G1 X66.731 Y173.851 E0.01352
G1 X66.832 Y173.630 E0.00762
G1 X67.079 Y173.265 E0.01381
G1 X67.403 Y172.959 E0.01398
G1 X67.784 Y172.729 E0.01398
G1 X68.207 Y172.587 E0.01397
G1 X68.635 Y172.540 E0.01352
G1 X68.878 Y172.552 E0.00762
G1 X69.308 Y172.647 E0.01381
G1 X69.713 Y172.834 E0.01398
G1 X70.063 Y173.100 E0.01380
G1 X70.224 Y173.270 E0.00735
G1 X70.471 Y173.634 E0.01380
G1 X70.636 Y174.049 E0.01398
G1 X70.696 Y174.410 E0.01150
G1 X71.063 Y174.648 F9000.000
G1 E-3.50000 F3600.000
;WIPE_START
G1 F7200.000
G1 X70.684 Y174.933 E-0.24845
G1 X70.569 Y175.349 E-0.20476
G1 X70.468 Y175.570 E-0.11547
G1 X70.221 Y175.935 E-0.20922
G1 X69.897 Y176.241 E-0.21173
G1 X69.516 Y176.471 E-0.21173
G1 X69.093 Y176.613 E-0.21173
G1 X69.068 Y176.616 E-0.01191
;WIPE_END
G1 E-0.07500 F3600.000
G1 X62.963 Y59.713 F9000.000
G1 E5.00000 F2400.000
;TYPE:Perimeter
G1 F1200.000
G1 X135.537 Y59.713 E2.27551
G1 X135.537 Y163.287 E3.24750
G1 X62.963 Y163.287 E2.27551
G1 X62.963 Y59.773 E3.24561
G1 X63.340 Y60.090 F9000.000
;TYPE:External perimeter
G1 F1200.000
G1 X135.160 Y60.090 E2.25187
G1 X135.160 Y162.910 E3.22385
G1 X63.340 Y162.910 E2.25187
G1 X63.340 Y60.150 E3.22197
G1 X63.259 Y59.698 F9000.000
G1 E-3.50000 F3600.000
;WIPE_START
G1 F7200.000
G1 X66.340 Y60.147 E-1.42500
;WIPE_END
G1 E-0.07500 F3600.000
G1 X67.625 Y50.615 F9000.000
G1 E5.00000 F2400.000
;TYPE:Perimeter
G1 F1200.000
G1 X67.187 Y50.351 E0.01604
G1 X66.961 Y50.160 E0.00928
G1 X66.630 Y49.770 E0.01603
G1 X66.394 Y49.327 E0.01574
G1 X66.296 Y49.038 E0.00955
G1 X66.213 Y48.532 E0.01609
G1 X66.241 Y48.005 E0.01654
G1 X66.375 Y47.522 E0.01574
G1 X66.502 Y47.245 E0.00955
G1 X66.790 Y46.820 E0.01609
G1 X67.173 Y46.457 E0.01655
G1 X67.625 Y46.185 E0.01655
G1 X68.125 Y46.016 E0.01654
G1 X68.624 Y45.962 E0.01574
G1 X68.928 Y45.977 E0.00956
G1 X69.429 Y46.087 E0.01609
G1 X69.908 Y46.309 E0.01655
G1 X70.316 Y46.618 E0.01604
G1 X70.519 Y46.833 E0.00928
G1 X70.806 Y47.257 E0.01604
G1 X71.002 Y47.747 E0.01655
G1 X71.087 Y48.268 E0.01655
G1 X71.059 Y48.795 E0.01654
G1 X70.925 Y49.278 E0.01574
G1 X70.798 Y49.555 E0.00955
G1 X70.510 Y49.980 E0.01609
G1 X70.127 Y50.343 E0.01655
G1 X69.675 Y50.615 E0.01655
G1 X69.175 Y50.784 E0.01655
G1 X68.650 Y50.841 E0.01655
G1 X68.125 Y50.784 E0.01655
G1 X67.682 Y50.634 E0.01467
G1 X67.802 Y50.277 F9000.000
;TYPE:External perimeter
G1 F1200.000
G1 X67.407 Y50.044 E0.01438
G1 X67.229 Y49.892 E0.00735
G1 X66.944 Y49.557 E0.01379
G1 X66.742 Y49.176 E0.01352
G1 X66.663 Y48.946 E0.00762
G1 X66.592 Y48.512 E0.01381
G1 X66.616 Y48.067 E0.01397
G1 X66.731 Y47.651 E0.01352
G1 X66.832 Y47.430 E0.00762
G1 X67.079 Y47.065 E0.01381
G1 X67.403 Y46.759 E0.01398
G1 X67.784 Y46.529 E0.01398
G1 X68.207 Y46.387 E0.01397
G1 X68.635 Y46.340 E0.01352
G1 X68.878 Y46.352 E0.00762
G1 X69.308 Y46.447 E0.01381
G1 X69.713 Y46.634 E0.01398
G1 X70.063 Y46.900 E0.01380
G1 X70.224 Y47.070 E0.00735
G1 X70.471 Y47.434 E0.01380
G1 X70.636 Y47.849 E0.01398
G1 X70.708 Y48.288 E0.01398
G1 X70.684 Y48.733 E0.01397
G1 X70.569 Y49.149 E0.01352
G1 X70.468 Y49.370 E0.00762
G1 X70.221 Y49.735 E0.01381
G1 X69.897 Y50.041 E0.01398
G1 X69.516 Y50.271 E0.01398
G1 X69.093 Y50.413 E0.01398
G1 X68.650 Y50.461 E0.01398
G1 X68.207 Y50.413 E0.01398
G1 X67.859 Y50.296 E0.01150
G1 X67.477 Y50.510 F9000.000
G1 E-3.50000 F3600.000
;WIPE_START
G1 F7200.000
G1 X67.407 Y50.044 E-0.24578
G1 X67.229 Y49.892 E-0.11140
G1 X66.944 Y49.557 E-0.20895
G1 X66.742 Y49.176 E-0.20476
G1 X66.663 Y48.946 E-0.11546
G1 X66.592 Y48.512 E-0.20922
G1 X66.616 Y48.067 E-0.21167
G1 X66.682 Y47.828 E-0.11775
;WIPE_END
G1 E-0.07500 F3600.000
G1 X131.913 Y48.532 F9000.000
G1 E5.00000 F2400.000
;TYPE:Perimeter
G1 F1200.000
G1 X131.941 Y48.005 E0.01654
G1 X132.075 Y47.522 E0.01574
G1 X132.202 Y47.245 E0.00955
G1 X132.490 Y46.820 E0.01609
G1 X132.873 Y46.457 E0.01655
G1 X133.325 Y46.185 E0.01655
G1 X133.825 Y46.016 E0.01654
G1 X134.324 Y45.962 E0.01574
G1 X134.628 Y45.977 E0.00955
G1 X135.129 Y46.087 E0.01609
G1 X135.608 Y46.309 E0.01655
G1 X136.028 Y46.628 E0.01655
G1 X136.370 Y47.030 E0.01654
G1 X136.606 Y47.473 E0.01574
G1 X136.704 Y47.762 E0.00955
G1 X136.787 Y48.268 E0.01609
G1 X136.759 Y48.795 E0.01655
G1 X136.617 Y49.303 E0.01655
G1 X136.370 Y49.770 E0.01655
G1 X136.039 Y50.160 E0.01604
G1 X135.813 Y50.351 E0.00928
G1 X135.375 Y50.615 E0.01604
G1 X134.875 Y50.784 E0.01655
G1 X134.350 Y50.841 E0.01655
G1 X133.841 Y50.785 E0.01604
G1 X133.556 Y50.706 E0.00928
G1 X133.092 Y50.491 E0.01604
G1 X132.684 Y50.182 E0.01604
G1 X132.481 Y49.967 E0.00928
G1 X132.194 Y49.543 E0.01604
G1 X131.998 Y49.053 E0.01655
G1 X131.923 Y48.591 E0.01467
G1 X132.295 Y48.530 F9000.000
;TYPE:External perimeter
G1 F1200.000
G1 X132.316 Y48.067 E0.01455
G1 X132.431 Y47.651 E0.01352
G1 X132.532 Y47.430 E0.00762
G1 X132.779 Y47.065 E0.01381
G1 X133.103 Y46.759 E0.01398
G1 X133.484 Y46.529 E0.01398
G1 X133.907 Y46.387 E0.01397
G1 X134.335 Y46.340 E0.01352
G1 X134.578 Y46.352 E0.00762
G1 X135.008 Y46.447 E0.01381
G1 X135.413 Y46.634 E0.01398
G1 X135.768 Y46.903 E0.01398
G1 X136.056 Y47.243 E0.01397
G1 X136.258 Y47.624 E0.01352
G1 X136.337 Y47.854 E0.00762
G1 X136.408 Y48.288 E0.01381
G1 X136.384 Y48.733 E0.01398
G1 X136.265 Y49.163 E0.01398
G1 X136.056 Y49.557 E0.01398
G1 X135.771 Y49.892 E0.01380
G1 X135.593 Y50.044 E0.00735
G1 X135.216 Y50.271 E0.01380
G1 X134.793 Y50.413 E0.01398
G1 X134.350 Y50.461 E0.01398
G1 X133.913 Y50.414 E0.01380
G1 X133.687 Y50.351 E0.00735
G1 X133.287 Y50.166 E0.01380
G1 X132.937 Y49.900 E0.01380
G1 X132.776 Y49.730 E0.00735
G1 X132.529 Y49.366 E0.01380
G1 X132.364 Y48.951 E0.01398
G1 X132.304 Y48.590 E0.01150
G1 X131.937 Y48.352 F9000.000
G1 E-3.50000 F3600.000
;WIPE_START
G1 F7200.000
G1 X132.316 Y48.067 E-0.24845
G1 X132.431 Y47.651 E-0.20477
G1 X132.532 Y47.430 E-0.11546
G1 X132.779 Y47.065 E-0.20923
G1 X133.103 Y46.759 E-0.21173
G1 X133.484 Y46.529 E-0.21173
G1 X133.907 Y46.387 E-0.21167
G1 X133.932 Y46.384 E-0.01197
;WIPE_END
G1 E-0.07500 F3600.000
G1 X156.963 Y48.590 F9000.000
G1 E5.00000 F2400.000
;TYPE:Perimeter
G1 F1200.000
G1 X156.963 Y66.165 E0.55107
G1 X157.015 Y67.216 E0.03301
G1 X157.172 Y68.275 E0.03354
G1 X157.432 Y69.312 E0.03354
G1 X157.793 Y70.319 E0.03354
G1 X158.250 Y71.286 E0.03354
G1 X158.801 Y72.203 E0.03354
G1 X159.219 Y72.766 E0.02201
G1 X159.439 Y73.062 E0.01153
G1 X160.158 Y73.854 E0.03354
G1 X160.951 Y74.571 E0.03354
G1 X161.797 Y75.197 E0.03301
G1 X167.891 Y79.260 E0.22964
G1 X168.624 Y79.803 E0.02860
G1 X169.288 Y80.403 E0.02807
G1 X169.890 Y81.066 E0.02807
G1 X170.423 Y81.785 E0.02807
G1 X170.884 Y82.552 E0.02807
G1 X171.267 Y83.361 E0.02807
G1 X171.569 Y84.204 E0.02807
G1 X171.787 Y85.072 E0.02807
G1 X171.918 Y85.958 E0.02807
G1 X171.963 Y86.869 E0.02860
G1 X171.963 Y136.131 E1.54459
G1 X171.918 Y137.042 E0.02860
G1 X171.787 Y137.928 E0.02807
G1 X171.569 Y138.796 E0.02807
G1 X171.267 Y139.639 E0.02807
G1 X170.884 Y140.448 E0.02807
G1 X170.423 Y141.215 E0.02807
G1 X169.890 Y141.934 E0.02807
G1 X169.288 Y142.597 E0.02807
G1 X168.624 Y143.197 E0.02807
G1 X167.891 Y143.740 E0.02860
G1 X161.797 Y147.803 E0.22964
G1 X160.951 Y148.429 E0.03301
G1 X160.158 Y149.146 E0.03354
G1 X159.439 Y149.938 E0.03354
G1 X159.223 Y150.228 E0.01133
G1 X158.801 Y150.797 E0.02221
G1 X158.250 Y151.714 E0.03354
G1 X157.793 Y152.681 E0.03354
G1 X157.432 Y153.688 E0.03354
G1 X157.172 Y154.725 E0.03354
G1 X157.015 Y155.784 E0.03354
G1 X156.963 Y156.835 E0.03301
G1 X156.963 Y198.382 E1.30268
G1 X156.922 Y199.154 E0.02423
G1 X156.804 Y199.899 E0.02367
G1 X156.609 Y200.629 E0.02367
G1 X156.338 Y201.333 E0.02367
G1 X155.996 Y202.006 E0.02367
G1 X155.585 Y202.639 E0.02367
G1 X155.110 Y203.226 E0.02367
G1 X154.576 Y203.760 E0.02367
G1 X153.989 Y204.235 E0.02367
G1 X153.356 Y204.646 E0.02367
G1 X152.683 Y204.988 E0.02367
G1 X151.979 Y205.259 E0.02367
G1 X151.249 Y205.454 E0.02367
G1 X150.504 Y205.572 E0.02367
G1 X149.732 Y205.613 E0.02423
G1 X55.268 Y205.613 E2.96185
G1 X54.496 Y205.572 E0.02423
G1 X53.751 Y205.454 E0.02367
G1 X53.021 Y205.259 E0.02367
G1 X52.317 Y204.988 E0.02367
G1 X51.644 Y204.646 E0.02367
G1 X51.011 Y204.235 E0.02367
G1 X50.424 Y203.760 E0.02367
G1 X49.890 Y203.226 E0.02367
G1 X49.571 Y202.831 E0.01594
G1 X49.415 Y202.639 E0.00773
G1 X49.004 Y202.006 E0.02367
G1 X48.662 Y201.333 E0.02367
G1 X48.391 Y200.629 E0.02367
G1 X48.196 Y199.899 E0.02367
G1 X48.078 Y199.154 E0.02367
G1 X48.037 Y198.382 E0.02423
G1 X48.037 Y21.618 E5.54231
G1 X48.078 Y20.846 E0.02423
G1 X48.196 Y20.101 E0.02367
G1 X48.391 Y19.371 E0.02367
G1 X48.662 Y18.667 E0.02367
G1 X49.004 Y17.994 E0.02367
G1 X49.415 Y17.361 E0.02367
G1 X49.890 Y16.774 E0.02367
G1 X50.424 Y16.240 E0.02367
G1 X51.011 Y15.765 E0.02367
G1 X51.644 Y15.354 E0.02367
G1 X52.317 Y15.012 E0.02367
G1 X53.021 Y14.741 E0.02367
G1 X53.751 Y14.546 E0.02367
G1 X54.496 Y14.428 E0.02367
G1 X55.268 Y14.387 E0.02423
G1 X149.732 Y14.387 E2.96185
G1 X150.504 Y14.428 E0.02423
G1 X151.249 Y14.546 E0.02367
