; generated by PrusaSlicer 2.3.3+linux-x64-GTK3 on 2023-03-20 at 15:04:52 UTC

; 

; external perimeters extrusion width = 0.45mm
; perimeters extrusion width = 0.45mm
; infill extrusion width = 0.45mm
; solid infill extrusion width = 0.45mm
; top infill extrusion width = 0.40mm
; first layer extrusion width = 0.45mm

M201 X500 Y500 Z100 E5000 ; sets maximum accelerations, mm/sec^2
M203 X500 Y500 Z10 E60 ; sets maximum feedrates, mm/sec
M204 P500 R1000 T500 ; sets acceleration (P, T) and retract acceleration (R), mm/sec^2
M205 X8.00 Y8.00 Z0.40 E5.00 ; sets the jerk limits, mm/sec
M205 S0 T0 ; sets the minimum extruding and travel feed rate, mm/sec
M107
;TYPE:Custom
G90 ; use absolute coordinates
M83 ; extruder relative mode
M104 S192 ; set extruder temp
M140 S60 ; set bed temp
M190 S60 ; wait for bed temp
M109 S192 ; wait for extruder temp
G28 ; home all
G1 Z2 F240
G1 X2 Y10 F3000
G1 Z0.28 F240
G92 E0
G1 Y190 E15 F1500 ; intro line
G1 X2.3 F5000
G92 E0
G1 Y10 E15 F1200 ; intro line
G92 E0
G21 ; set units to millimeters
G90 ; use absolute coordinates
M83 ; use relative distances for extrusion
; Filament gcode
;LAYER_CHANGE
;Z:0.2
;HEIGHT:0.2
;BEFORE_LAYER_CHANGE
G92 E0
;0.2


G1 E-5.00000 F3600.000
G1 Z0.200 F9000.000
;AFTER_LAYER_CHANGE
;0.2
G1 X93.013 Y88.310
G1 E5.00000 F2400.000
;TYPE:Skirt
;WIDTH:0.45
G1 F2100.000
G1 X93.945 Y88.099 E0.03235
G1 X126.004 Y88.098 E1.08517
G1 X126.898 Y88.272 E0.03082
G1 X127.663 Y88.765 E0.03082
G1 X128.190 Y89.508 E0.03082
G1 X128.404 Y90.389 E0.03069
G1 X128.407 Y122.551 E1.08867
G1 X128.232 Y123.407 E0.02955
G1 X127.764 Y124.143 E0.02955
G1 X127.091 Y124.651 E0.02853
G1 X114.618 Y130.829 E0.47116
G1 X113.719 Y131.225 E0.03324
G1 X112.680 Y131.561 E0.03697
G1 X111.611 Y131.787 E0.03699
G1 X110.426 Y131.902 E0.04028
G1 X109.439 Y131.897 E0.03341
G1 X108.347 Y131.780 E0.03717
G1 X107.302 Y131.556 E0.03619
G1 X106.191 Y131.190 E0.03958
G1 X92.921 Y124.657 E0.50066
G1 X92.360 Y124.267 E0.02315
G1 X91.796 Y123.472 E0.03298
G1 X91.646 Y123.006 E0.01658
G1 X91.593 Y122.515 E0.01671
G1 X91.593 Y90.460 E1.08505
G1 X91.768 Y89.604 E0.02955
G1 X92.236 Y88.868 E0.02955
G1 X92.964 Y88.345 E0.03032
G1 E-3.50000 F3600.000
;WIPE_START
G1 F7200.000
G1 X93.945 Y88.099 E-0.48033
G1 X95.933 Y88.099 E-0.94467
;WIPE_END
G1 E-0.07500 F3600.000
G1 X94.732 Y91.238 F9000.000
G1 E5.00000 F2400.000
;TYPE:Perimeter
G1 F2100.000
G1 X125.268 Y91.238 E1.03360
G1 X125.268 Y121.773 E1.03360
G1 X119.128 Y121.773 E0.20783
G1 X115.665 Y126.059 E0.18650
G1 X115.143 Y126.639 E0.02643
G1 X114.578 Y127.149 E0.02578
G1 X113.962 Y127.597 E0.02578
G1 X113.306 Y127.976 E0.02563
G1 X112.607 Y128.289 E0.02593
G1 X111.883 Y128.524 E0.02577
G1 X111.138 Y128.683 E0.02578
G1 X110.381 Y128.762 E0.02578
G1 X109.619 Y128.762 E0.02578
G1 X108.862 Y128.683 E0.02578
G1 X108.117 Y128.524 E0.02578
G1 X107.393 Y128.289 E0.02578
G1 X106.697 Y127.979 E0.02578
G1 X106.038 Y127.597 E0.02578
G1 X105.422 Y127.149 E0.02578
G1 X104.857 Y126.639 E0.02578
G1 X104.335 Y126.059 E0.02643
G1 X100.872 Y121.773 E0.18650
G1 X94.732 Y121.773 E0.20783
G1 X94.732 Y91.298 E1.03157
G1 X94.325 Y90.830 F9000.000
;TYPE:External perimeter
G1 F2100.000
G1 X125.675 Y90.830 E1.06116
G1 X125.675 Y122.180 E1.06116
G1 X119.322 Y122.180 E0.21503
G1 X115.975 Y126.323 E0.18028
G1 X115.432 Y126.927 E0.02751
G1 X114.834 Y127.466 E0.02722
G1 X114.184 Y127.939 E0.02722
G1 X113.492 Y128.339 E0.02707
G1 X112.753 Y128.669 E0.02738
G1 X111.989 Y128.918 E0.02722
G1 X111.202 Y129.085 E0.02722
G1 X110.402 Y129.170 E0.02722
G1 X109.598 Y129.170 E0.02722
G1 X108.798 Y129.085 E0.02722
G1 X108.011 Y128.918 E0.02722
G1 X107.247 Y128.669 E0.02722
G1 X106.512 Y128.342 E0.02722
G1 X105.816 Y127.939 E0.02722
G1 X105.166 Y127.466 E0.02722
G1 X104.568 Y126.927 E0.02722
G1 X104.025 Y126.323 E0.02751
G1 X100.678 Y122.180 E0.18028
G1 X94.325 Y122.180 E0.21503
G1 X94.325 Y90.890 E1.05913
G1 X94.684 Y91.007 F9000.000
G1 E-3.50000 F3600.000
;WIPE_START
G1 F7200.000
G1 X97.325 Y90.885 E-1.42500
;WIPE_END
G1 E-0.07500 F3600.000
G1 X125.146 Y92.186 F9000.000
G1 E5.00000 F2400.000
;TYPE:Solid infill
;WIDTH:0.451456
G1 F2100.000
G1 X124.503 Y91.543 E0.03088
G1 X123.925 Y91.543 E0.01963
G1 X124.963 Y92.580 E0.04984
G1 X124.963 Y93.158 E0.01963
G1 X123.347 Y91.543 E0.07759
G1 X122.770 Y91.543 E0.01963
G1 X124.963 Y93.736 E0.10535
G1 X124.963 Y94.314 E0.01963
G1 X122.192 Y91.543 E0.13310
G1 X121.614 Y91.543 E0.01963
G1 X124.963 Y94.891 E0.16086
G1 X124.963 Y95.469 E0.01963
G1 X121.036 Y91.543 E0.18862
G1 X120.459 Y91.543 E0.01963
G1 X124.963 Y96.047 E0.21637
G1 X124.963 Y96.625 E0.01963
G1 X119.881 Y91.543 E0.24413
G1 X119.303 Y91.543 E0.01963
G1 X124.963 Y97.202 E0.27188
G1 X124.963 Y97.780 E0.01963
G1 X118.725 Y91.543 E0.29964
G1 X118.148 Y91.543 E0.01963
G1 X124.963 Y98.358 E0.32740
G1 X124.963 Y98.936 E0.01963
G1 X117.570 Y91.543 E0.35515
G1 X116.992 Y91.543 E0.01963
G1 X124.963 Y99.513 E0.38291
G1 X124.963 Y100.091 E0.01963
G1 X116.414 Y91.543 E0.41066
G1 X115.837 Y91.543 E0.01963
G1 X124.963 Y100.669 E0.43842
G1 X124.963 Y101.247 E0.01963
G1 X115.259 Y91.543 E0.46617
G1 X114.681 Y91.543 E0.01963
G1 X124.963 Y101.824 E0.49393
G1 X124.963 Y102.402 E0.01963
G1 X114.103 Y91.543 E0.52169
G1 X113.526 Y91.543 E0.01963
G1 X124.963 Y102.980 E0.54944
G1 X124.963 Y103.558 E0.01963
G1 X112.948 Y91.543 E0.57720
G1 X112.370 Y91.543 E0.01963
G1 X124.963 Y104.135 E0.60495
G1 X124.963 Y104.713 E0.01963
G1 X111.792 Y91.543 E0.63271
G1 X111.215 Y91.543 E0.01963
G1 X124.963 Y105.291 E0.66047
G1 X124.963 Y105.869 E0.01963
G1 X110.637 Y91.543 E0.68822
G1 X110.059 Y91.543 E0.01963
G1 X124.963 Y106.446 E0.71598
G1 X124.963 Y107.024 E0.01963
G1 X109.481 Y91.543 E0.74373
G1 X108.904 Y91.543 E0.01963
G1 X124.963 Y107.602 E0.77149
G1 X124.963 Y108.180 E0.01963
G1 X108.326 Y91.543 E0.79924
G1 X107.748 Y91.543 E0.01963
G1 X124.963 Y108.757 E0.82700
G1 X124.963 Y109.335 E0.01963
G1 X107.170 Y91.543 E0.85476
G1 X106.593 Y91.543 E0.01963
G1 X124.963 Y109.913 E0.88251
G1 X124.963 Y110.491 E0.01963
G1 X106.015 Y91.543 E0.91027
G1 X105.437 Y91.543 E0.01963
G1 X124.963 Y111.068 E0.93802
G1 X124.963 Y111.646 E0.01963
G1 X104.859 Y91.543 E0.96578
G1 X104.281 Y91.543 E0.01963
G1 X124.963 Y112.224 E0.99354
G1 X124.963 Y112.802 E0.01963
G1 X103.704 Y91.543 E1.02129
G1 X103.126 Y91.543 E0.01963
G1 X124.963 Y113.380 E1.04905
G1 X124.963 Y113.957 E0.01963
G1 X102.548 Y91.543 E1.07680
G1 X101.970 Y91.543 E0.01963
G1 X124.963 Y114.535 E1.10456
G1 X124.963 Y115.113 E0.01963
G1 X101.393 Y91.543 E1.13232
G1 X100.815 Y91.543 E0.01963
G1 X124.963 Y115.691 E1.16007
G1 X124.963 Y116.268 E0.01963
G1 X100.237 Y91.543 E1.18783
G1 X99.659 Y91.543 E0.01963
G1 X124.963 Y116.846 E1.21558
G1 X124.963 Y117.424 E0.01963
G1 X99.082 Y91.543 E1.24334
G1 X98.504 Y91.543 E0.01963
G1 X124.963 Y118.002 E1.27109
G1 X124.963 Y118.579 E0.01963
G1 X97.926 Y91.543 E1.29885
G1 X97.348 Y91.543 E0.01963
G1 X124.963 Y119.157 E1.32661
G1 X124.963 Y119.735 E0.01963
G1 X96.771 Y91.543 E1.35436
G1 X96.193 Y91.543 E0.01963
G1 X124.963 Y120.313 E1.38212
G1 X124.963 Y120.890 E0.01963
G1 X95.615 Y91.543 E1.40987
G1 X95.037 Y91.543 E0.01963
G1 X124.963 Y121.468 E1.43763
G1 X124.385 Y121.468 E0.01963
G1 X95.037 Y92.121 E1.40987
G1 X95.037 Y92.698 E0.01963
G1 X123.807 Y121.468 E1.38212
G1 X123.229 Y121.468 E0.01963
G1 X95.037 Y93.276 E1.35436
G1 X95.037 Y93.854 E0.01963
G1 X122.652 Y121.468 E1.32661
G1 X122.074 Y121.468 E0.01963
G1 X95.037 Y94.432 E1.29885
G1 X95.037 Y95.009 E0.01963
G1 X121.496 Y121.468 E1.27109
G1 X120.918 Y121.468 E0.01963
G1 X95.037 Y95.587 E1.24334
G1 X95.037 Y96.165 E0.01963
G1 X120.341 Y121.468 E1.21558
G1 X119.763 Y121.468 E0.01963
G1 X95.037 Y96.743 E1.18783
G1 X95.037 Y97.320 E0.01963
G1 X119.185 Y121.468 E1.16007
G1 X118.982 Y121.468 E0.00689
G1 X118.815 Y121.675 E0.00905
G1 X95.037 Y97.898 E1.14228
G1 X95.037 Y98.476 E0.01963
G1 X118.556 Y121.995 E1.12987
G1 X118.298 Y122.315 E0.01396
G1 X95.037 Y99.054 E1.11746
G1 X95.037 Y99.631 E0.01963
G1 X118.040 Y122.634 E1.10506
G1 X117.782 Y122.954 E0.01396
G1 X95.037 Y100.209 E1.09265
G1 X95.037 Y100.787 E0.01963
G1 X117.523 Y123.273 E1.08025
G1 X117.265 Y123.593 E0.01396
G1 X95.037 Y101.365 E1.06784
G1 X95.037 Y101.942 E0.01963
G1 X117.007 Y123.912 E1.05544
G1 X116.749 Y124.232 E0.01396
G1 X95.037 Y102.520 E1.04303
G1 X95.037 Y103.098 E0.01963
G1 X116.491 Y124.551 E1.03063
G1 X116.232 Y124.871 E0.01396
G1 X95.037 Y103.676 E1.01822
G1 X95.037 Y104.254 E0.01963
G1 X115.974 Y125.190 E1.00582
G1 X115.716 Y125.510 E0.01396
G1 X95.037 Y104.831 E0.99341
G1 X95.037 Y105.409 E0.01963
G1 X115.458 Y125.829 E0.98101
G1 X115.186 Y126.135 E0.01390
G1 X95.037 Y105.987 E0.96794
G1 X95.037 Y106.565 E0.01963
G1 X114.911 Y126.438 E0.95473
G1 X114.607 Y126.712 E0.01390
G1 X95.037 Y107.142 E0.94013
G1 X95.037 Y107.720 E0.01963
G1 X114.295 Y126.978 E0.92514
G1 X113.960 Y127.221 E0.01405
G1 X95.037 Y108.298 E0.90908
G1 X95.037 Y108.876 E0.01963
G1 X113.610 Y127.448 E0.89224
G1 X113.244 Y127.660 E0.01437
G1 X95.037 Y109.453 E0.87465
G1 X95.037 Y110.031 E0.01963
G1 X112.851 Y127.845 E0.85580
G1 X112.448 Y128.019 E0.01493
G1 X95.037 Y110.609 E0.83641
G1 X95.037 Y111.187 E0.01963
G1 X112.012 Y128.161 E0.81547
G1 X111.555 Y128.282 E0.01606
G1 X95.037 Y111.764 E0.79351
G1 X95.037 Y112.342 E0.01963
G1 X111.077 Y128.382 E0.77057
G1 X110.555 Y128.437 E0.01786
G1 X95.037 Y112.920 E0.74546
G1 X95.037 Y113.498 E0.01963
G1 X109.997 Y128.457 E0.71866
G1 X109.635 Y128.457 E0.01228
G1 X109.394 Y128.432 E0.00825
G1 X95.037 Y114.075 E0.68969
G1 X95.037 Y114.653 E0.01963
G1 X108.726 Y128.342 E0.65760
G1 X108.196 Y128.229 E0.01839
G1 X107.958 Y128.151 E0.00852
G1 X95.037 Y115.231 E0.62071
G1 X95.037 Y115.809 E0.01963
G1 X100.697 Y121.468 E0.27188
G1 X101.018 Y121.468 E0.01091
G1 X102.370 Y123.141 E0.07307
G1 X107.014 Y127.786 E0.22312
G1 X106.836 Y127.706 E0.00662
G1 X106.205 Y127.341 E0.02478
G1 X105.615 Y126.912 E0.02478
G1 X105.084 Y126.433 E0.02429
G1 X103.576 Y124.925 E0.07246
G1 E-3.50000 F3600.000
;WIPE_START
G1 F7200.000
G1 X105.084 Y126.433 E-1.01325
G1 X105.615 Y126.912 E-0.33960
G1 X105.738 Y127.001 E-0.07215
;WIPE_END
G1 E-0.07500 F3600.000
G1 X100.302 Y121.651 F9000.000
G1 E5.00000 F2400.000
G1 F2100.000
G1 X95.037 Y116.386 E0.25293
G1 X95.037 Y116.964 E0.01963
G1 X99.541 Y121.468 E0.21637
G1 X98.964 Y121.468 E0.01963
G1 X95.037 Y117.542 E0.18862
G1 X95.037 Y118.120 E0.01963
G1 X98.386 Y121.468 E0.16086
G1 X97.808 Y121.468 E0.01963
G1 X95.037 Y118.697 E0.13310
G1 X95.037 Y119.275 E0.01963
G1 X97.230 Y121.468 E0.10535
G1 X96.653 Y121.468 E0.01963
G1 X95.037 Y119.853 E0.07759
G1 X95.037 Y120.431 E0.01963
G1 X96.075 Y121.468 E0.04984
G1 X95.497 Y121.468 E0.01963
G1 X94.854 Y120.825 E0.03088
M106 S255
;LAYER_CHANGE
;Z:0.4
;HEIGHT:0.2
;BEFORE_LAYER_CHANGE
G92 E0
;0.4


G1 E-3.50000 F3600.000
;WIPE_START
G1 F7200.000
G1 X95.497 Y121.468 E-0.43181
G1 X96.075 Y121.468 E-0.27443
G1 X95.037 Y120.431 E-0.69687
G1 X95.037 Y120.385 E-0.02188
;WIPE_END
G1 E-0.07500 F3600.000
G1 Z0.400 F9000.000
;AFTER_LAYER_CHANGE
;0.4
G1 X92.360 Y124.267
G1 E5.00000 F2400.000
;TYPE:Skirt
;WIDTH:0.45
G1 X91.796 Y123.472 E0.03298
G1 X91.646 Y123.006 E0.01658
G1 X91.593 Y122.515 E0.01671
G1 X91.593 Y90.460 E1.08505
G1 X91.768 Y89.604 E0.02955
G1 X92.236 Y88.868 E0.02955
G1 X93.013 Y88.310 E0.03235
G1 X93.945 Y88.099 E0.03235
G1 X126.004 Y88.098 E1.08517
G1 X126.898 Y88.272 E0.03082
G1 X127.663 Y88.765 E0.03082
G1 X128.190 Y89.508 E0.03082
G1 X128.404 Y90.389 E0.03069
G1 X128.407 Y122.551 E1.08867
G1 X128.232 Y123.407 E0.02955
G1 X127.764 Y124.143 E0.02955
G1 X127.091 Y124.651 E0.02853
G1 X114.618 Y130.829 E0.47116
G1 X113.719 Y131.225 E0.03324
G1 X112.680 Y131.561 E0.03697
G1 X111.611 Y131.787 E0.03699
G1 X110.426 Y131.902 E0.04028
G1 X109.439 Y131.897 E0.03341
G1 X108.347 Y131.780 E0.03717
G1 X107.302 Y131.556 E0.03619
G1 X106.191 Y131.190 E0.03958
G1 X92.921 Y124.657 E0.50066
G1 X92.409 Y124.301 E0.02111
G1 E-3.50000 F3600.000
;WIPE_START
G1 F7200.000
G1 X91.796 Y123.472 E-0.48977
G1 X91.646 Y123.006 E-0.23264
G1 X91.593 Y122.515 E-0.23445
G1 X91.593 Y121.530 E-0.46814
;WIPE_END
G1 E-0.07500 F3600.000
G1 X94.632 Y121.873 F9000.000
G1 E5.00000 F2400.000
;TYPE:Perimeter
G1 X94.632 Y91.138 E1.04037
G1 X125.368 Y91.138 E1.04037
G1 X125.368 Y121.873 E1.04037
G1 X119.176 Y121.873 E0.20960
G1 X115.741 Y126.124 E0.18497
G1 X115.214 Y126.710 E0.02669
G1 X114.641 Y127.227 E0.02613
G1 X114.016 Y127.681 E0.02613
G1 X113.348 Y128.068 E0.02613
G1 X112.643 Y128.382 E0.02613
G1 X111.909 Y128.621 E0.02613
G1 X111.154 Y128.782 E0.02613
G1 X110.386 Y128.862 E0.02613
G1 X109.614 Y128.862 E0.02613
G1 X108.846 Y128.782 E0.02613
G1 X108.091 Y128.621 E0.02613
G1 X107.357 Y128.382 E0.02613
G1 X106.652 Y128.068 E0.02613
G1 X105.984 Y127.681 E0.02613
G1 X105.359 Y127.227 E0.02613
G1 X104.786 Y126.710 E0.02613
G1 X104.259 Y126.124 E0.02669
G1 X100.824 Y121.873 E0.18497
G1 X94.692 Y121.873 E0.20757
G1 E-3.50000 F3600.000
;WIPE_START
G1 F7200.000
G1 X94.686 Y118.873 E-1.42500
;WIPE_END
G1 E-0.07500 F3600.000
G1 X100.630 Y122.280 F9000.000
G1 E5.00000 F2400.000
;TYPE:External perimeter
G1 F1500.000
G1 X94.225 Y122.280 E0.21680
G1 X94.225 Y90.730 E1.06793
G1 X125.775 Y90.730 E1.06793
G1 X125.775 Y122.280 E1.06793
G1 X119.370 Y122.280 E0.21680
G1 X116.051 Y126.388 E0.17875
G1 X115.502 Y126.998 E0.02778
G1 X114.897 Y127.544 E0.02758
G1 X114.239 Y128.023 E0.02758
G1 X113.533 Y128.431 E0.02758
G1 X112.789 Y128.763 E0.02758
G1 X112.014 Y129.015 E0.02758
G1 X111.218 Y129.184 E0.02758
G1 X110.407 Y129.270 E0.02758
G1 X109.593 Y129.270 E0.02758
G1 X108.782 Y129.184 E0.02758
G1 X107.986 Y129.015 E0.02758
G1 X107.211 Y128.763 E0.02758
G1 X106.467 Y128.431 E0.02758
G1 X105.761 Y128.023 E0.02758
G1 X105.103 Y127.544 E0.02758
G1 X104.498 Y126.998 E0.02758
G1 X103.949 Y126.388 E0.02778
G1 X100.668 Y122.327 E0.17672
G1 X100.539 Y121.891 F9000.000
G1 E-3.50000 F3600.000
;WIPE_START
G1 F7200.000
G1 X97.668 Y122.305 E-1.42500
;WIPE_END
G1 E-0.07500 F3600.000
G1 X124.422 Y121.751 F9000.000
G1 E5.00000 F2400.000
;TYPE:Solid infill
;WIDTH:0.45027
G1 X125.063 Y121.111 E0.03067
G1 X125.063 Y120.535 E0.01951
G1 X124.029 Y121.568 E0.04949
G1 X123.453 Y121.568 E0.01951
G1 X125.063 Y119.959 E0.07709
G1 X125.063 Y119.383 E0.01951
G1 X122.877 Y121.568 E0.10468
G1 X122.301 Y121.568 E0.01951
G1 X125.063 Y118.807 E0.13228
G1 X125.063 Y118.231 E0.01951
G1 X121.725 Y121.568 E0.15987
G1 X121.149 Y121.568 E0.01951
G1 X125.063 Y117.655 E0.18747
G1 X125.063 Y117.078 E0.01951
G1 X120.573 Y121.568 E0.21506
G1 X119.997 Y121.568 E0.01951
G1 X125.063 Y116.502 E0.24266
G1 X125.063 Y115.926 E0.01951
G1 X119.421 Y121.568 E0.27025
G1 X119.030 Y121.568 E0.01324
G1 X117.384 Y123.605 E0.08871
G1 X113.181 Y127.808 E0.20132
G1 X112.533 Y128.097 E0.02401
G1 X112.211 Y128.202 E0.01147
G1 X125.063 Y115.350 E0.61559
G1 X125.063 Y114.774 E0.01951
G1 X111.425 Y128.412 E0.65326
G1 X111.106 Y128.480 E0.01105
G1 X110.743 Y128.518 E0.01237
G1 X125.063 Y114.198 E0.68594
G1 X125.063 Y113.622 E0.01951
G1 X110.127 Y128.557 E0.71541
G1 X109.559 Y128.550 E0.01926
G1 X125.063 Y113.046 E0.74265
G1 X125.063 Y112.470 E0.01951
G1 X109.038 Y128.495 E0.76762
G1 X108.550 Y128.406 E0.01679
G1 X125.063 Y111.894 E0.79098
G1 X125.063 Y111.318 E0.01951
G1 X108.083 Y128.297 E0.81334
G1 X107.648 Y128.156 E0.01548
G1 X125.063 Y110.742 E0.83417
G1 X125.063 Y110.165 E0.01951
G1 X107.235 Y127.993 E0.85398
G1 X106.836 Y127.816 E0.01478
G1 X125.063 Y109.589 E0.87306
G1 X125.063 Y109.013 E0.01951
G1 X106.467 Y127.608 E0.89073
G1 X106.107 Y127.393 E0.01423
G1 X125.063 Y108.437 E0.90802
G1 X125.063 Y107.861 E0.01951
G1 X105.773 Y127.151 E0.92399
G1 X105.450 Y126.898 E0.01390
G1 X125.063 Y107.285 E0.93947
G1 X125.063 Y106.709 E0.01951
G1 X105.147 Y126.625 E0.95398
G1 X104.860 Y126.336 E0.01380
G1 X125.063 Y106.133 E0.96773
G1 X125.063 Y105.557 E0.01951
G1 X104.587 Y126.032 E0.98079
G1 X104.324 Y125.719 E0.01385
G1 X125.063 Y104.981 E0.99338
G1 X125.063 Y104.405 E0.01951
G1 X104.067 Y125.400 E1.00572
G1 X103.810 Y125.082 E0.01387
G1 X125.063 Y103.829 E1.01805
