; generated by PrusaSlicer 2.3.3+linux-x64-GTK3 on 2023-04-25 at 08:09:18 UTC

; 

; external perimeters extrusion width = 0.45mm
; perimeters extrusion width = 0.45mm
; infill extrusion width = 0.45mm
; solid infill extrusion width = 0.45mm
; top infill extrusion width = 0.40mm
; first layer extrusion width = 0.45mm

M201 X500 Y500 Z100 E5000 ; sets maximum accelerations, mm/sec^2
M203 X500 Y500 Z10 E60 ; sets maximum feedrates, mm/sec
M204 P500 R1000 T500 ; sets acceleration (P, T) and retract acceleration (R), mm/sec^2
M205 X8.00 Y8.00 Z0.40 E5.00 ; sets the jerk limits, mm/sec
M205 S0 T0 ; sets the minimum extruding and travel feed rate, mm/sec
M107
;TYPE:Custom
G90 ; use absolute coordinates
M83 ; extruder relative mode
M104 S192 ; set extruder temp
M140 S60 ; set bed temp
M190 S60 ; wait for bed temp
M109 S192 ; wait for extruder temp
G28 ; home all
G1 Z2 F240
G1 X2 Y10 F3000
G1 Z0.28 F240
G92 E0
G1 Y190 E15 F1500 ; intro line
G1 X2.3 F5000
G92 E0
G1 Y10 E15 F1200 ; intro line
G92 E0
G21 ; set units to millimeters
G90 ; use absolute coordinates
M83 ; use relative distances for extrusion
; Filament gcode
;LAYER_CHANGE
;Z:0.2
;HEIGHT:0.2
;BEFORE_LAYER_CHANGE
G92 E0
;0.2


G1 E-5.00000 F3600.000
G1 Z0.200 F9000.000
;AFTER_LAYER_CHANGE
;0.2
G1 X93.713 Y89.010
G1 E5.00000 F2400.000
;TYPE:Skirt
;WIDTH:0.45
G1 F2100.000
G1 X94.641 Y88.799 E0.03222
G1 X125.304 Y88.798 E1.03791
G1 X126.194 Y88.971 E0.03069
G1 X126.960 Y89.463 E0.03082
G1 X127.487 Y90.201 E0.03069
G1 X127.704 Y91.085 E0.03082
G1 X127.707 Y121.851 E1.04141
G1 X127.532 Y122.707 E0.02955
G1 X127.064 Y123.443 E0.02955
G1 X126.429 Y123.932 E0.02712
G1 X114.335 Y130.190 E0.46092
G1 X113.471 Y130.571 E0.03194
G1 X112.489 Y130.888 E0.03495
G1 X111.501 Y131.096 E0.03417
G1 X110.393 Y131.203 E0.03766
G1 X108.453 Y131.088 E0.06579
G1 X107.466 Y130.876 E0.03417
G1 X106.411 Y130.522 E0.03767
G1 X93.587 Y123.940 E0.48794
G1 X93.062 Y123.569 E0.02173
G1 X92.739 Y123.201 E0.01658
G1 X92.495 Y122.772 E0.01671
G1 X92.345 Y122.302 E0.01671
G1 X92.293 Y121.815 E0.01658
G1 X92.293 Y91.156 E1.03778
G1 X92.468 Y90.304 E0.02942
G1 X92.936 Y89.568 E0.02955
G1 X93.664 Y89.045 E0.03032
G1 E-3.50000 F3600.000
;WIPE_START
G1 F7200.000
G1 X94.641 Y88.799 E-0.47856
G1 X96.633 Y88.799 E-0.94644
;WIPE_END
G1 E-0.07500 F3600.000
G1 X95.632 Y92.138 F9000.000
G1 E5.00000 F2400.000
;TYPE:Perimeter
G1 F2100.000
G1 X124.368 Y92.138 E0.97267
G1 X124.368 Y120.873 E0.97267
G1 X118.698 Y120.873 E0.19192
G1 X114.965 Y125.493 E0.20105
G1 X114.506 Y126.004 E0.02323
G1 X114.011 Y126.450 E0.02258
G1 X113.471 Y126.843 E0.02258
G1 X112.894 Y127.177 E0.02258
G1 X112.284 Y127.449 E0.02258
G1 X111.650 Y127.655 E0.02258
G1 X110.997 Y127.794 E0.02258
G1 X110.334 Y127.864 E0.02258
G1 X109.666 Y127.864 E0.02258
G1 X109.003 Y127.794 E0.02258
G1 X108.350 Y127.655 E0.02258
G1 X107.716 Y127.449 E0.02258
G1 X107.106 Y127.177 E0.02258
G1 X106.529 Y126.843 E0.02258
G1 X105.989 Y126.450 E0.02258
G1 X105.494 Y126.004 E0.02258
G1 X105.035 Y125.493 E0.02323
G1 X101.302 Y120.873 E0.20105
G1 X95.632 Y120.873 E0.19192
G1 X95.632 Y92.198 E0.97064
G1 X95.225 Y91.730 F9000.000
;TYPE:External perimeter
G1 F2100.000
G1 X124.775 Y91.730 E1.00023
G1 X124.775 Y121.280 E1.00023
G1 X118.893 Y121.280 E0.19911
G1 X115.275 Y125.757 E0.19483
G1 X114.795 Y126.292 E0.02432
G1 X114.267 Y126.767 E0.02403
G1 X113.693 Y127.185 E0.02403
G1 X113.079 Y127.540 E0.02403
G1 X112.430 Y127.829 E0.02403
G1 X111.755 Y128.049 E0.02403
G1 X111.061 Y128.196 E0.02403
G1 X110.355 Y128.271 E0.02403
G1 X109.645 Y128.271 E0.02403
G1 X108.939 Y128.196 E0.02403
G1 X108.245 Y128.049 E0.02403
G1 X107.570 Y127.829 E0.02403
G1 X106.921 Y127.540 E0.02403
G1 X106.307 Y127.185 E0.02403
G1 X105.733 Y126.767 E0.02403
G1 X105.205 Y126.292 E0.02403
G1 X104.725 Y125.757 E0.02432
G1 X101.107 Y121.280 E0.19483
G1 X95.225 Y121.280 E0.19911
G1 X95.225 Y91.790 E0.99820
G1 X95.584 Y91.907 F9000.000
G1 E-3.50000 F3600.000
;WIPE_START
G1 F7200.000
G1 X98.225 Y91.784 E-1.42500
;WIPE_END
G1 E-0.07500 F3600.000
G1 X124.246 Y93.084 F9000.000
G1 E5.00000 F2400.000
;TYPE:Solid infill
;WIDTH:0.450503
G1 F2100.000
G1 X123.605 Y92.443 E0.03071
G1 X123.029 Y92.443 E0.01953
G1 X124.063 Y93.477 E0.04956
G1 X124.063 Y94.053 E0.01953
G1 X122.452 Y92.443 E0.07719
G1 X121.876 Y92.443 E0.01953
G1 X124.063 Y94.630 E0.10481
G1 X124.063 Y95.206 E0.01953
G1 X121.299 Y92.443 E0.13244
G1 X120.723 Y92.443 E0.01953
G1 X124.063 Y95.783 E0.16007
G1 X124.063 Y96.359 E0.01953
G1 X120.147 Y92.443 E0.18769
G1 X119.570 Y92.443 E0.01953
G1 X124.063 Y96.935 E0.21532
G1 X124.063 Y97.512 E0.01953
G1 X118.994 Y92.443 E0.24294
G1 X118.417 Y92.443 E0.01953
G1 X124.063 Y98.088 E0.27057
G1 X124.063 Y98.665 E0.01953
G1 X117.841 Y92.443 E0.29820
G1 X117.265 Y92.443 E0.01953
G1 X124.063 Y99.241 E0.32582
G1 X124.063 Y99.817 E0.01953
G1 X116.688 Y92.443 E0.35345
G1 X116.112 Y92.443 E0.01953
G1 X124.063 Y100.394 E0.38108
G1 X124.063 Y100.970 E0.01953
G1 X115.535 Y92.443 E0.40870
G1 X114.959 Y92.443 E0.01953
G1 X124.063 Y101.547 E0.43633
G1 X124.063 Y102.123 E0.01953
G1 X114.382 Y92.443 E0.46396
G1 X113.806 Y92.443 E0.01953
G1 X124.063 Y102.699 E0.49158
G1 X124.063 Y103.276 E0.01953
G1 X113.230 Y92.443 E0.51921
G1 X112.653 Y92.443 E0.01953
G1 X124.063 Y103.852 E0.54684
G1 X124.063 Y104.429 E0.01953
G1 X112.077 Y92.443 E0.57446
G1 X111.500 Y92.443 E0.01953
G1 X124.063 Y105.005 E0.60209
G1 X124.063 Y105.581 E0.01953
G1 X110.924 Y92.443 E0.62972
G1 X110.348 Y92.443 E0.01953
G1 X124.063 Y106.158 E0.65734
G1 X124.063 Y106.734 E0.01953
G1 X109.771 Y92.443 E0.68497
G1 X109.195 Y92.443 E0.01953
G1 X124.063 Y107.311 E0.71260
G1 X124.063 Y107.887 E0.01953
G1 X108.618 Y92.443 E0.74022
G1 X108.042 Y92.443 E0.01953
G1 X124.063 Y108.464 E0.76785
G1 X124.063 Y109.040 E0.01953
G1 X107.466 Y92.443 E0.79547
G1 X106.889 Y92.443 E0.01953
G1 X124.063 Y109.616 E0.82310
G1 X124.063 Y110.193 E0.01953
G1 X106.313 Y92.443 E0.85073
G1 X105.736 Y92.443 E0.01953
G1 X124.063 Y110.769 E0.87835
G1 X124.063 Y111.346 E0.01953
G1 X105.160 Y92.443 E0.90598
G1 X104.584 Y92.443 E0.01953
G1 X124.063 Y111.922 E0.93361
G1 X124.063 Y112.498 E0.01953
G1 X104.007 Y92.443 E0.96123
G1 X103.431 Y92.443 E0.01953
G1 X124.063 Y113.075 E0.98886
G1 X124.063 Y113.651 E0.01953
G1 X102.854 Y92.443 E1.01649
G1 X102.278 Y92.443 E0.01953
G1 X124.063 Y114.228 E1.04411
G1 X124.063 Y114.804 E0.01953
G1 X101.701 Y92.443 E1.07174
G1 X101.125 Y92.443 E0.01953
G1 X124.063 Y115.380 E1.09937
G1 X124.063 Y115.957 E0.01953
G1 X100.549 Y92.443 E1.12699
G1 X99.972 Y92.443 E0.01953
G1 X124.063 Y116.533 E1.15462
G1 X124.063 Y117.110 E0.01953
G1 X99.396 Y92.443 E1.18225
G1 X98.819 Y92.443 E0.01953
G1 X124.063 Y117.686 E1.20987
G1 X124.063 Y118.262 E0.01953
G1 X98.243 Y92.443 E1.23750
G1 X97.667 Y92.443 E0.01953
G1 X124.063 Y118.839 E1.26513
G1 X124.063 Y119.415 E0.01953
G1 X97.090 Y92.443 E1.29275
G1 X96.514 Y92.443 E0.01953
G1 X124.063 Y119.992 E1.32038
G1 X124.063 Y120.568 E0.01953
G1 X95.937 Y92.443 E1.34800
G1 X95.937 Y93.019 E0.01953
G1 X123.486 Y120.568 E1.32038
G1 X122.910 Y120.568 E0.01953
G1 X95.937 Y93.596 E1.29275
G1 X95.937 Y94.172 E0.01953
G1 X122.333 Y120.568 E1.26512
G1 X121.757 Y120.568 E0.01953
G1 X95.937 Y94.749 E1.23750
G1 X95.937 Y95.325 E0.01953
G1 X121.181 Y120.568 E1.20987
G1 X120.604 Y120.568 E0.01953
G1 X95.937 Y95.901 E1.18224
G1 X95.937 Y96.478 E0.01953
G1 X120.028 Y120.568 E1.15462
G1 X119.451 Y120.568 E0.01953
G1 X95.937 Y97.054 E1.12699
G1 X95.937 Y97.631 E0.01953
G1 X118.875 Y120.568 E1.09937
G1 X118.552 Y120.568 E0.01093
G1 X118.439 Y120.708 E0.00612
G1 X95.937 Y98.207 E1.07847
G1 X95.937 Y98.783 E0.01953
G1 X118.181 Y121.027 E1.06612
G1 X117.924 Y121.346 E0.01389
G1 X95.937 Y99.360 E1.05377
G1 X95.937 Y99.936 E0.01953
G1 X117.666 Y121.665 E1.04142
G1 X117.408 Y121.984 E0.01389
G1 X95.937 Y100.513 E1.02908
G1 X95.937 Y101.089 E0.01953
G1 X117.151 Y122.302 E1.01673
G1 X116.893 Y122.621 E0.01389
G1 X95.937 Y101.665 E1.00438
G1 X95.937 Y102.242 E0.01953
G1 X116.636 Y122.940 E0.99203
G1 X116.378 Y123.259 E0.01389
G1 X95.937 Y102.818 E0.97969
G1 X95.937 Y103.395 E0.01953
G1 X116.120 Y123.578 E0.96734
G1 X115.863 Y123.896 E0.01389
G1 X95.937 Y103.971 E0.95499
G1 X95.937 Y104.547 E0.01953
G1 X115.605 Y124.215 E0.94265
G1 X115.347 Y124.534 E0.01389
G1 X95.937 Y105.124 E0.93030
G1 X95.937 Y105.700 E0.01953
G1 X115.090 Y124.853 E0.91795
G1 X114.832 Y125.172 E0.01389
G1 X95.937 Y106.277 E0.90560
G1 X95.937 Y106.853 E0.01953
G1 X114.565 Y125.481 E0.89281
G1 X114.292 Y125.785 E0.01383
G1 X95.937 Y107.430 E0.87973
G1 X95.937 Y108.006 E0.01953
G1 X113.990 Y126.058 E0.86522
G1 X113.673 Y126.318 E0.01388
G1 X95.937 Y108.582 E0.85006
G1 X95.937 Y109.159 E0.01953
G1 X113.340 Y126.561 E0.83407
G1 X112.978 Y126.776 E0.01426
G1 X95.937 Y109.735 E0.81672
G1 X95.937 Y110.312 E0.01953
G1 X112.600 Y126.974 E0.79859
G1 X112.201 Y127.151 E0.01479
G1 X95.937 Y110.888 E0.77949
G1 X95.937 Y111.464 E0.01953
G1 X111.768 Y127.295 E0.75876
G1 X111.311 Y127.415 E0.01601
G1 X95.937 Y112.041 E0.73686
G1 X95.937 Y112.617 E0.01953
G1 X110.825 Y127.505 E0.71355
G1 X110.302 Y127.558 E0.01782
G1 X95.937 Y113.194 E0.68848
G1 X95.937 Y113.770 E0.01953
G1 X109.726 Y127.558 E0.66086
G1 X109.087 Y127.496 E0.02176
G1 X95.937 Y114.346 E0.63022
G1 X95.937 Y114.923 E0.01953
G1 X108.348 Y127.333 E0.59480
G1 X107.826 Y127.163 E0.01860
G1 X107.421 Y126.983 E0.01501
G1 X103.307 Y122.869 E0.19718
G1 X101.448 Y120.568 E0.10025
G1 X101.006 Y120.568 E0.01496
G1 X95.937 Y115.499 E0.24294
G1 X95.937 Y116.076 E0.01953
G1 X100.430 Y120.568 E0.21532
G1 X99.853 Y120.568 E0.01953
G1 X95.937 Y116.652 E0.18769
G1 X95.937 Y117.228 E0.01953
G1 X99.277 Y120.568 E0.16006
G1 X98.701 Y120.568 E0.01953
G1 X95.937 Y117.805 E0.13244
G1 X95.937 Y118.381 E0.01953
G1 X98.124 Y120.568 E0.10481
G1 X97.548 Y120.568 E0.01953
G1 X95.937 Y118.958 E0.07718
G1 X95.937 Y119.534 E0.01953
G1 X96.971 Y120.568 E0.04956
G1 X96.395 Y120.568 E0.01953
G1 X95.754 Y119.927 E0.03071
M106 S255
;LAYER_CHANGE
;Z:0.4
;HEIGHT:0.2
;BEFORE_LAYER_CHANGE
G92 E0
;0.4


G1 E-3.50000 F3600.000
;WIPE_START
G1 F7200.000
G1 X96.395 Y120.568 E-0.43044
G1 X96.971 Y120.568 E-0.27379
G1 X95.937 Y119.534 E-0.69458
G1 X95.937 Y119.479 E-0.02618
;WIPE_END
G1 E-0.07500 F3600.000
G1 Z0.400 F9000.000
;AFTER_LAYER_CHANGE
;0.4
G1 X93.713 Y89.010
G1 E5.00000 F2400.000
;TYPE:Skirt
;WIDTH:0.45
G1 X94.641 Y88.799 E0.03222
G1 X125.304 Y88.798 E1.03791
G1 X126.194 Y88.971 E0.03069
G1 X126.960 Y89.463 E0.03082
G1 X127.487 Y90.201 E0.03069
G1 X127.704 Y91.085 E0.03082
G1 X127.707 Y121.851 E1.04141
G1 X127.532 Y122.707 E0.02955
G1 X127.064 Y123.443 E0.02955
G1 X126.429 Y123.932 E0.02712
G1 X114.335 Y130.190 E0.46092
G1 X113.471 Y130.571 E0.03194
G1 X112.489 Y130.888 E0.03495
G1 X111.501 Y131.096 E0.03417
G1 X110.393 Y131.203 E0.03766
G1 X108.453 Y131.088 E0.06579
G1 X107.466 Y130.876 E0.03417
G1 X106.411 Y130.522 E0.03767
G1 X93.587 Y123.940 E0.48794
G1 X93.062 Y123.569 E0.02173
G1 X92.739 Y123.201 E0.01658
G1 X92.495 Y122.772 E0.01671
G1 X92.345 Y122.302 E0.01671
G1 X92.293 Y121.815 E0.01658
G1 X92.293 Y91.156 E1.03778
G1 X92.468 Y90.304 E0.02942
G1 X92.936 Y89.568 E0.02955
G1 X93.664 Y89.045 E0.03032
G1 E-3.50000 F3600.000
;WIPE_START
G1 F7200.000
G1 X94.641 Y88.799 E-0.47856
G1 X96.633 Y88.799 E-0.94644
;WIPE_END
G1 E-0.07500 F3600.000
G1 X95.332 Y91.838 F9000.000
G1 E5.00000 F2400.000
;TYPE:Perimeter
G1 X124.668 Y91.838 E0.99298
G1 X124.668 Y121.173 E0.99298
G1 X118.841 Y121.173 E0.19722
G1 X115.197 Y125.684 E0.19629
G1 X114.718 Y126.216 E0.02421
G1 X114.200 Y126.684 E0.02365
G1 X113.635 Y127.095 E0.02365
G1 X113.030 Y127.444 E0.02365
G1 X112.392 Y127.729 E0.02365
G1 X111.727 Y127.945 E0.02365
G1 X111.044 Y128.090 E0.02365
G1 X110.349 Y128.163 E0.02365
G1 X109.651 Y128.163 E0.02365
G1 X108.956 Y128.090 E0.02365
G1 X108.273 Y127.945 E0.02365
G1 X107.608 Y127.729 E0.02365
G1 X106.970 Y127.444 E0.02365
G1 X106.365 Y127.095 E0.02365
G1 X105.800 Y126.684 E0.02365
G1 X105.282 Y126.216 E0.02365
G1 X104.803 Y125.684 E0.02421
G1 X101.159 Y121.173 E0.19629
G1 X95.332 Y121.173 E0.19722
G1 X95.332 Y91.898 E0.99095
G1 E-3.50000 F3600.000
;WIPE_START
G1 F7200.000
G1 X98.332 Y91.891 E-1.42500
;WIPE_END
G1 E-0.07500 F3600.000
G1 X119.036 Y121.580 F9000.000
G1 E5.00000 F2400.000
;TYPE:External perimeter
G1 F1500.000
G1 X115.506 Y125.948 E0.19007
G1 X115.007 Y126.504 E0.02529
G1 X114.456 Y127.000 E0.02509
G1 X113.857 Y127.436 E0.02509
G1 X113.215 Y127.807 E0.02509
G1 X112.538 Y128.109 E0.02509
G1 X111.833 Y128.339 E0.02509
G1 X111.108 Y128.493 E0.02509
G1 X110.371 Y128.570 E0.02509
G1 X109.629 Y128.570 E0.02509
G1 X108.892 Y128.493 E0.02509
G1 X108.167 Y128.339 E0.02509
G1 X107.462 Y128.109 E0.02509
G1 X106.785 Y127.807 E0.02509
G1 X106.143 Y127.436 E0.02509
G1 X105.544 Y127.000 E0.02509
G1 X104.993 Y126.504 E0.02509
G1 X104.494 Y125.948 E0.02529
G1 X100.964 Y121.580 E0.19007
G1 X94.925 Y121.580 E0.20442
G1 X94.925 Y91.430 E1.02054
G1 X125.075 Y91.430 E1.02054
G1 X125.075 Y121.580 E1.02054
G1 X119.096 Y121.580 E0.20239
G1 X118.636 Y121.582 F9000.000
G1 E-3.50000 F3600.000
;WIPE_START
G1 F7200.000
G1 X117.191 Y123.898 E-1.42500
;WIPE_END
G1 E-0.07500 F3600.000
G1 X124.546 Y120.227 F9000.000
G1 E5.00000 F2400.000
;TYPE:Solid infill
;WIDTH:0.450833
G1 X123.904 Y120.868 E0.03077
G1 X123.327 Y120.868 E0.01957
G1 X124.363 Y119.833 E0.04966
G1 X124.363 Y119.256 E0.01957
G1 X122.751 Y120.868 E0.07733
G1 X122.174 Y120.868 E0.01957
G1 X124.363 Y118.679 E0.10500
G1 X124.363 Y118.102 E0.01957
G1 X121.597 Y120.868 E0.13267
G1 X121.020 Y120.868 E0.01957
G1 X124.363 Y117.525 E0.16034
G1 X124.363 Y116.949 E0.01957
G1 X120.443 Y120.868 E0.18801
G1 X119.866 Y120.868 E0.01957
G1 X124.363 Y116.372 E0.21568
G1 X124.363 Y115.795 E0.01957
G1 X119.106 Y121.051 E0.25214
G1 E-3.50000 F3600.000
;WIPE_START
G1 F7200.000
G1 X121.227 Y118.930 E-1.42500
;WIPE_END
G1 E-0.07500 F3600.000
G1 X117.423 Y122.735 F9000.000
G1 E5.00000 F2400.000
G1 X113.115 Y127.042 E0.20663
G1 X112.891 Y127.172 E0.00877
G1 X112.282 Y127.443 E0.02261
G1 X112.067 Y127.513 E0.00766
G1 X124.363 Y115.218 E0.58978
G1 X124.363 Y114.641 E0.01957
G1 X111.275 Y127.729 E0.62780
G1 X110.996 Y127.788 E0.00965
G1 X110.596 Y127.830 E0.01364
G1 X124.363 Y114.064 E0.66033
G1 X124.363 Y113.487 E0.01957
G1 X109.992 Y127.858 E0.68933
G1 X109.667 Y127.858 E0.01103
G1 X109.439 Y127.834 E0.00777
G1 X124.363 Y112.910 E0.71585
G1 X124.363 Y112.334 E0.01957
G1 X108.925 Y127.771 E0.74052
G1 X108.449 Y127.670 E0.01649
G1 X124.363 Y111.757 E0.76334
G1 X124.363 Y111.180 E0.01957
G1 X108.005 Y127.537 E0.78461
G1 X107.582 Y127.383 E0.01527
G1 X124.363 Y110.603 E0.80490
G1 X124.363 Y110.026 E0.01957
G1 X107.183 Y127.205 E0.82404
G1 X106.812 Y127.000 E0.01440
G1 X124.363 Y109.449 E0.84187
G1 X124.363 Y108.872 E0.01957
G1 X106.454 Y126.781 E0.85905
G1 X106.120 Y126.538 E0.01401
G1 X124.363 Y108.295 E0.87507
G1 X124.363 Y107.719 E0.01957
G1 X105.805 Y126.276 E0.89017
G1 X105.501 Y126.003 E0.01385
G1 X124.363 Y107.142 E0.90472
G1 X124.363 Y106.565 E0.01957
G1 X105.228 Y125.699 E0.91784
G1 X104.959 Y125.391 E0.01387
G1 X124.363 Y105.988 E0.93072
G1 X124.363 Y105.411 E0.01957
G1 X104.702 Y125.072 E0.94309
G1 X104.444 Y124.753 E0.01391
G1 X124.363 Y104.834 E0.95545
G1 X124.363 Y104.257 E0.01957
G1 X104.186 Y124.434 E0.96782
G1 X103.928 Y124.115 E0.01391
G1 X124.363 Y103.680 E0.98019
G1 X124.363 Y103.104 E0.01957
G1 X103.670 Y123.796 E0.99256
G1 X103.413 Y123.477 E0.01391
G1 X124.363 Y102.527 E1.00492
G1 X124.363 Y101.950 E0.01957
G1 X103.155 Y123.158 E1.01729
G1 X102.897 Y122.839 E0.01391
G1 X124.363 Y101.373 E1.02966
G1 X124.363 Y100.796 E0.01957
G1 X102.639 Y122.520 E1.04202
G1 X102.381 Y122.201 E0.01391
G1 X124.363 Y100.219 E1.05439
G1 X124.363 Y99.642 E0.01957
G1 X102.123 Y121.882 E1.06676
G1 X101.866 Y121.562 E0.01391
G1 X124.363 Y99.065 E1.07913
G1 X124.363 Y98.489 E0.01957
G1 X101.608 Y121.243 E1.09149
G1 X101.350 Y120.924 E0.01391
G1 X124.363 Y97.912 E1.10386
G1 X124.363 Y97.335 E0.01957
G1 X100.829 Y120.868 E1.12883
G1 X100.252 Y120.868 E0.01957
G1 X124.363 Y96.758 E1.15651
