; generated by PrusaSlicer 2.3.3+linux-x64-GTK3 on 2023-03-20 at 08:34:59 UTC

; 

; external perimeters extrusion width = 0.45mm
; perimeters extrusion width = 0.45mm
; infill extrusion width = 0.45mm
; solid infill extrusion width = 0.45mm
; top infill extrusion width = 0.40mm
; first layer extrusion width = 0.45mm

M201 X500 Y500 Z100 E5000 ; sets maximum accelerations, mm/sec^2
M203 X500 Y500 Z10 E60 ; sets maximum feedrates, mm/sec
M204 P500 R1000 T500 ; sets acceleration (P, T) and retract acceleration (R), mm/sec^2
M205 X8.00 Y8.00 Z0.40 E5.00 ; sets the jerk limits, mm/sec
M205 S0 T0 ; sets the minimum extruding and travel feed rate, mm/sec
M107
;TYPE:Custom
G90 ; use absolute coordinates
M83 ; extruder relative mode
M104 S195 ; set extruder temp
M140 S60 ; set bed temp
M190 S60 ; wait for bed temp
M109 S195 ; wait for extruder temp
G28 ; home all
G1 Z2 F240
G1 X2 Y10 F3000
G1 Z0.28 F240
G92 E0
G1 Y190 E15 F1500 ; intro line
G1 X2.3 F5000
G92 E0
G1 Y10 E15 F1200 ; intro line
G92 E0
G21 ; set units to millimeters
G90 ; use absolute coordinates
M83 ; use relative distances for extrusion
; Filament gcode
;LAYER_CHANGE
;Z:0.2
;HEIGHT:0.2
;BEFORE_LAYER_CHANGE
G92 E0
;0.2


G1 E-5.00000 F3600.000
G1 Z0.200 F9000.000
;AFTER_LAYER_CHANGE
;0.2
G1 X50.804 Y75.911
G1 E5.00000 F2400.000
;TYPE:Skirt
;WIDTH:0.45
G1 F2100.000
G1 X51.377 Y75.675 E0.02096
G1 X51.994 Y75.593 E0.02109
G1 X168.004 Y75.593 E3.92678
G1 X168.915 Y75.774 E0.03146
G1 X169.691 Y76.287 E0.03146
G1 X170.212 Y77.051 E0.03133
G1 X170.407 Y77.960 E0.03146
G1 X170.407 Y142.046 E2.16924
G1 X170.315 Y142.658 E0.02096
G1 X170.071 Y143.227 E0.02096
G1 X169.689 Y143.715 E0.02096
G1 X169.196 Y144.089 E0.02096
G1 X168.623 Y144.325 E0.02096
G1 X168.006 Y144.407 E0.02109
G1 X51.981 Y144.407 E3.92730
G1 X51.360 Y144.320 E0.02122
G1 X50.786 Y144.078 E0.02109
G1 X50.290 Y143.695 E0.02122
G1 X49.911 Y143.196 E0.02122
G1 X49.676 Y142.627 E0.02083
G1 X49.593 Y142.013 E0.02096
G1 X49.593 Y77.969 E2.16781
G1 X49.682 Y77.353 E0.02109
G1 X49.925 Y76.779 E0.02109
G1 X50.308 Y76.288 E0.02109
G1 X50.757 Y75.947 E0.01906
G1 E-3.50000 F3600.000
;WIPE_START
G1 F7200.000
G1 X51.377 Y75.675 E-0.32176
G1 X51.994 Y75.593 E-0.29594
G1 X53.694 Y75.593 E-0.80730
;WIPE_END
G1 E-0.07500 F3600.000
G1 X108.267 Y121.974 F9000.000
G1 E5.00000 F2400.000
;TYPE:Perimeter
G1 F2100.000
G1 X108.651 Y121.682 E0.01634
G1 X109.070 Y121.541 E0.01497
G1 X109.309 Y121.515 E0.00814
G1 X109.749 Y121.563 E0.01497
G1 X110.187 Y121.765 E0.01634
G1 X110.538 Y122.097 E0.01634
G1 X110.764 Y122.524 E0.01634
G1 X110.832 Y122.941 E0.01430
G1 X110.827 Y133.184 E0.34672
G1 X110.704 Y133.626 E0.01555
G1 X110.433 Y134.026 E0.01634
G1 X110.049 Y134.318 E0.01634
G1 X109.630 Y134.459 E0.01497
G1 X109.391 Y134.485 E0.00814
G1 X108.951 Y134.437 E0.01497
G1 X108.513 Y134.235 E0.01634
G1 X108.162 Y133.903 E0.01634
G1 X107.936 Y133.476 E0.01634
G1 X107.868 Y133.059 E0.01430
G1 X107.873 Y122.816 E0.34672
G1 X107.996 Y122.374 E0.01555
G1 X108.233 Y122.024 E0.01431
G1 X109.158 Y121.941 F9000.000
;TYPE:External perimeter
G1 F2100.000
G1 X109.309 Y121.924 E0.00514
G1 X109.639 Y121.960 E0.01121
G1 X109.956 Y122.107 E0.01182
G1 X110.209 Y122.347 E0.01182
G1 X110.373 Y122.655 E0.01182
G1 X110.425 Y122.974 E0.01092
G1 X110.420 Y133.128 E0.34372
G1 X110.330 Y133.453 E0.01142
G1 X110.134 Y133.742 E0.01182
G1 X109.856 Y133.954 E0.01182
G1 X109.542 Y134.059 E0.01121
G1 X109.391 Y134.076 E0.00514
G1 X109.061 Y134.040 E0.01121
G1 X108.744 Y133.893 E0.01182
G1 X108.491 Y133.653 E0.01182
G1 X108.327 Y133.345 E0.01182
G1 X108.275 Y133.026 E0.01092
G1 X108.280 Y122.872 E0.34372
G1 X108.370 Y122.547 E0.01142
G1 X108.566 Y122.258 E0.01182
G1 X108.844 Y122.046 E0.01182
G1 X109.102 Y121.960 E0.00918
G1 X109.201 Y121.795 F9000.000
G1 E-3.50000 F3600.000
;WIPE_START
G1 F7200.000
G1 X109.309 Y121.924 E-0.10017
G1 X109.639 Y121.960 E-0.15737
G1 X109.956 Y122.107 E-0.16588
G1 X110.209 Y122.347 E-0.16589
G1 X110.373 Y122.655 E-0.16589
G1 X110.425 Y122.974 E-0.15317
G1 X110.424 Y124.061 E-0.51662
;WIPE_END
G1 E-0.07500 F3600.000
G1 X105.564 Y122.524 F9000.000
G1 E5.00000 F2400.000
;TYPE:Perimeter
G1 F2100.000
G1 X105.632 Y122.941 E0.01430
G1 X105.627 Y133.184 E0.34672
G1 X105.504 Y133.626 E0.01555
G1 X105.233 Y134.026 E0.01634
G1 X104.849 Y134.318 E0.01634
G1 X104.430 Y134.459 E0.01497
G1 X104.191 Y134.485 E0.00814
G1 X103.751 Y134.437 E0.01497
G1 X103.313 Y134.235 E0.01634
G1 X102.962 Y133.903 E0.01634
G1 X102.736 Y133.476 E0.01634
G1 X102.668 Y133.059 E0.01430
G1 X102.673 Y122.816 E0.34672
G1 X102.796 Y122.374 E0.01555
G1 X103.067 Y121.974 E0.01634
G1 X103.451 Y121.682 E0.01634
G1 X103.870 Y121.541 E0.01497
G1 X104.109 Y121.515 E0.00814
G1 X104.549 Y121.563 E0.01497
G1 X104.987 Y121.765 E0.01634
G1 X105.338 Y122.097 E0.01634
G1 X105.536 Y122.471 E0.01431
G1 X104.109 Y121.924 F9000.000
;TYPE:External perimeter
G1 F2100.000
G1 X104.439 Y121.960 E0.01121
G1 X104.756 Y122.107 E0.01182
G1 X105.009 Y122.347 E0.01182
G1 X105.173 Y122.655 E0.01182
G1 X105.225 Y122.974 E0.01092
G1 X105.220 Y133.128 E0.34372
G1 X105.130 Y133.453 E0.01142
G1 X104.934 Y133.742 E0.01182
G1 X104.656 Y133.954 E0.01182
G1 X104.342 Y134.059 E0.01121
G1 X104.191 Y134.076 E0.00514
G1 X103.861 Y134.040 E0.01121
G1 X103.544 Y133.893 E0.01182
G1 X103.291 Y133.653 E0.01182
G1 X103.127 Y133.345 E0.01182
G1 X103.075 Y133.026 E0.01092
G1 X103.080 Y122.872 E0.34372
G1 X103.170 Y122.547 E0.01142
G1 X103.366 Y122.258 E0.01182
G1 X103.644 Y122.046 E0.01182
G1 X103.958 Y121.941 E0.01121
G1 X104.050 Y121.931 E0.00311
G1 X104.271 Y121.635 F9000.000
G1 E-3.50000 F3600.000
;WIPE_START
G1 F7200.000
G1 X104.439 Y121.960 E-0.18530
G1 X104.756 Y122.107 E-0.16589
G1 X105.009 Y122.347 E-0.16589
G1 X105.173 Y122.655 E-0.16589
G1 X105.225 Y122.974 E-0.15317
G1 X105.224 Y124.213 E-0.58886
;WIPE_END
G1 E-0.07500 F3600.000
G1 X100.364 Y122.524 F9000.000
G1 E5.00000 F2400.000
;TYPE:Perimeter
G1 F2100.000
G1 X100.432 Y122.941 E0.01430
G1 X100.427 Y133.184 E0.34672
G1 X100.304 Y133.626 E0.01555
G1 X100.033 Y134.026 E0.01634
G1 X99.649 Y134.318 E0.01634
G1 X99.230 Y134.459 E0.01497
G1 X98.991 Y134.485 E0.00814
G1 X98.551 Y134.437 E0.01497
G1 X98.113 Y134.235 E0.01634
G1 X97.762 Y133.903 E0.01634
G1 X97.536 Y133.476 E0.01634
G1 X97.468 Y133.059 E0.01430
G1 X97.473 Y122.816 E0.34672
G1 X97.596 Y122.374 E0.01555
G1 X97.867 Y121.974 E0.01634
G1 X98.251 Y121.682 E0.01634
G1 X98.670 Y121.541 E0.01497
G1 X98.909 Y121.515 E0.00814
G1 X99.349 Y121.563 E0.01497
G1 X99.787 Y121.765 E0.01634
G1 X100.138 Y122.097 E0.01634
G1 X100.336 Y122.471 E0.01431
G1 X98.909 Y121.924 F9000.000
;TYPE:External perimeter
G1 F2100.000
G1 X99.239 Y121.960 E0.01121
G1 X99.556 Y122.107 E0.01182
G1 X99.809 Y122.347 E0.01182
G1 X99.973 Y122.655 E0.01182
G1 X100.025 Y122.974 E0.01092
G1 X100.020 Y133.128 E0.34372
G1 X99.930 Y133.453 E0.01142
G1 X99.734 Y133.742 E0.01182
G1 X99.456 Y133.954 E0.01182
G1 X99.142 Y134.059 E0.01121
G1 X98.991 Y134.076 E0.00514
G1 X98.661 Y134.040 E0.01121
G1 X98.344 Y133.893 E0.01182
G1 X98.091 Y133.653 E0.01182
G1 X97.927 Y133.345 E0.01182
G1 X97.875 Y133.026 E0.01092
G1 X97.880 Y122.872 E0.34372
G1 X97.970 Y122.547 E0.01142
G1 X98.166 Y122.258 E0.01182
G1 X98.444 Y122.046 E0.01182
G1 X98.758 Y121.941 E0.01121
G1 X98.850 Y121.931 E0.00311
G1 X99.071 Y121.635 F9000.000
G1 E-3.50000 F3600.000
;WIPE_START
G1 F7200.000
G1 X99.239 Y121.960 E-0.18530
G1 X99.556 Y122.107 E-0.16589
G1 X99.809 Y122.347 E-0.16589
G1 X99.973 Y122.655 E-0.16589
G1 X100.025 Y122.974 E-0.15317
G1 X100.024 Y124.213 E-0.58886
;WIPE_END
G1 E-0.07500 F3600.000
G1 X95.164 Y122.524 F9000.000
G1 E5.00000 F2400.000
;TYPE:Perimeter
G1 F2100.000
G1 X95.232 Y122.941 E0.01430
G1 X95.227 Y133.184 E0.34672
G1 X95.104 Y133.626 E0.01555
G1 X94.833 Y134.026 E0.01634
G1 X94.449 Y134.318 E0.01634
G1 X94.030 Y134.459 E0.01497
G1 X93.791 Y134.485 E0.00814
G1 X93.351 Y134.437 E0.01497
G1 X92.913 Y134.235 E0.01634
G1 X92.562 Y133.903 E0.01634
G1 X92.336 Y133.476 E0.01634
G1 X92.268 Y133.059 E0.01430
G1 X92.273 Y122.816 E0.34672
G1 X92.396 Y122.374 E0.01555
G1 X92.667 Y121.974 E0.01634
G1 X93.051 Y121.682 E0.01634
G1 X93.470 Y121.541 E0.01497
G1 X93.709 Y121.515 E0.00814
G1 X94.149 Y121.563 E0.01497
G1 X94.587 Y121.765 E0.01634
G1 X94.938 Y122.097 E0.01634
G1 X95.136 Y122.471 E0.01431
G1 X93.709 Y121.924 F9000.000
;TYPE:External perimeter
G1 F2100.000
G1 X94.039 Y121.960 E0.01121
G1 X94.356 Y122.107 E0.01182
G1 X94.609 Y122.347 E0.01182
G1 X94.773 Y122.655 E0.01182
G1 X94.825 Y122.974 E0.01092
G1 X94.820 Y133.128 E0.34372
G1 X94.730 Y133.453 E0.01142
G1 X94.534 Y133.742 E0.01182
G1 X94.256 Y133.954 E0.01182
G1 X93.942 Y134.059 E0.01121
G1 X93.791 Y134.076 E0.00514
G1 X93.461 Y134.040 E0.01121
G1 X93.144 Y133.893 E0.01182
G1 X92.891 Y133.653 E0.01182
G1 X92.727 Y133.345 E0.01182
G1 X92.675 Y133.026 E0.01092
G1 X92.680 Y122.872 E0.34372
G1 X92.770 Y122.547 E0.01142
G1 X92.966 Y122.258 E0.01182
G1 X93.244 Y122.046 E0.01182
G1 X93.558 Y121.941 E0.01121
G1 X93.650 Y121.931 E0.00311
G1 X93.871 Y121.635 F9000.000
G1 E-3.50000 F3600.000
;WIPE_START
G1 F7200.000
G1 X94.039 Y121.960 E-0.18530
G1 X94.356 Y122.107 E-0.16589
G1 X94.609 Y122.347 E-0.16589
G1 X94.773 Y122.655 E-0.16589
G1 X94.825 Y122.974 E-0.15317
G1 X94.824 Y124.213 E-0.58886
;WIPE_END
G1 E-0.07500 F3600.000
G1 X89.964 Y122.524 F9000.000
G1 E5.00000 F2400.000
;TYPE:Perimeter
G1 F2100.000
G1 X90.032 Y122.941 E0.01430
G1 X90.027 Y133.184 E0.34672
G1 X89.904 Y133.626 E0.01555
G1 X89.633 Y134.026 E0.01634
G1 X89.249 Y134.318 E0.01634
G1 X88.830 Y134.459 E0.01497
G1 X88.591 Y134.485 E0.00814
G1 X88.151 Y134.437 E0.01497
G1 X87.713 Y134.235 E0.01634
G1 X87.362 Y133.903 E0.01634
G1 X87.136 Y133.476 E0.01634
G1 X87.068 Y133.059 E0.01430
G1 X87.073 Y122.816 E0.34672
G1 X87.196 Y122.374 E0.01555
G1 X87.467 Y121.974 E0.01634
G1 X87.851 Y121.682 E0.01634
G1 X88.270 Y121.541 E0.01497
G1 X88.509 Y121.515 E0.00814
G1 X88.949 Y121.563 E0.01497
G1 X89.387 Y121.765 E0.01634
G1 X89.738 Y122.097 E0.01634
G1 X89.936 Y122.471 E0.01431
G1 X88.509 Y121.924 F9000.000
;TYPE:External perimeter
G1 F2100.000
G1 X88.839 Y121.960 E0.01121
G1 X89.156 Y122.107 E0.01182
G1 X89.409 Y122.347 E0.01182
G1 X89.573 Y122.655 E0.01182
G1 X89.625 Y122.974 E0.01092
G1 X89.620 Y133.128 E0.34372
G1 X89.530 Y133.453 E0.01142
G1 X89.334 Y133.742 E0.01182
G1 X89.056 Y133.954 E0.01182
G1 X88.742 Y134.059 E0.01121
G1 X88.591 Y134.076 E0.00514
G1 X88.261 Y134.040 E0.01121
G1 X87.944 Y133.893 E0.01182
G1 X87.691 Y133.653 E0.01182
G1 X87.527 Y133.345 E0.01182
G1 X87.475 Y133.026 E0.01092
G1 X87.480 Y122.872 E0.34372
G1 X87.570 Y122.547 E0.01142
G1 X87.766 Y122.258 E0.01182
G1 X88.044 Y122.046 E0.01182
G1 X88.358 Y121.941 E0.01121
G1 X88.450 Y121.931 E0.00311
G1 X88.671 Y121.635 F9000.000
G1 E-3.50000 F3600.000
;WIPE_START
G1 F7200.000
G1 X88.839 Y121.960 E-0.18530
G1 X89.156 Y122.107 E-0.16589
G1 X89.409 Y122.347 E-0.16589
G1 X89.573 Y122.655 E-0.16589
G1 X89.625 Y122.974 E-0.15317
G1 X89.624 Y124.213 E-0.58886
;WIPE_END
G1 E-0.07500 F3600.000
G1 X84.764 Y122.524 F9000.000
G1 E5.00000 F2400.000
;TYPE:Perimeter
G1 F2100.000
G1 X84.832 Y122.941 E0.01430
G1 X84.827 Y133.184 E0.34672
G1 X84.704 Y133.626 E0.01555
G1 X84.433 Y134.026 E0.01634
G1 X84.049 Y134.318 E0.01634
G1 X83.630 Y134.459 E0.01497
G1 X83.391 Y134.485 E0.00814
G1 X82.951 Y134.437 E0.01497
G1 X82.513 Y134.235 E0.01634
G1 X82.162 Y133.903 E0.01634
G1 X81.936 Y133.476 E0.01634
G1 X81.868 Y133.059 E0.01430
G1 X81.873 Y122.816 E0.34672
G1 X81.996 Y122.374 E0.01555
G1 X82.267 Y121.974 E0.01634
G1 X82.651 Y121.682 E0.01634
G1 X83.070 Y121.541 E0.01497
G1 X83.309 Y121.515 E0.00814
G1 X83.749 Y121.563 E0.01497
G1 X84.187 Y121.765 E0.01634
G1 X84.538 Y122.097 E0.01634
G1 X84.736 Y122.471 E0.01431
G1 X83.309 Y121.924 F9000.000
;TYPE:External perimeter
G1 F2100.000
G1 X83.639 Y121.960 E0.01121
G1 X83.956 Y122.107 E0.01182
G1 X84.209 Y122.347 E0.01182
G1 X84.373 Y122.655 E0.01182
G1 X84.425 Y122.974 E0.01092
G1 X84.420 Y133.128 E0.34372
G1 X84.330 Y133.453 E0.01142
G1 X84.134 Y133.742 E0.01182
G1 X83.856 Y133.954 E0.01182
G1 X83.542 Y134.059 E0.01121
G1 X83.391 Y134.076 E0.00514
G1 X83.061 Y134.040 E0.01121
G1 X82.744 Y133.893 E0.01182
G1 X82.491 Y133.653 E0.01182
G1 X82.327 Y133.345 E0.01182
G1 X82.275 Y133.026 E0.01092
G1 X82.280 Y122.872 E0.34372
G1 X82.370 Y122.547 E0.01142
G1 X82.566 Y122.258 E0.01182
G1 X82.844 Y122.046 E0.01182
G1 X83.158 Y121.941 E0.01121
G1 X83.250 Y121.931 E0.00311
G1 X83.471 Y121.635 F9000.000
G1 E-3.50000 F3600.000
;WIPE_START
G1 F7200.000
G1 X83.639 Y121.960 E-0.18530
G1 X83.956 Y122.107 E-0.16589
G1 X84.209 Y122.347 E-0.16589
G1 X84.373 Y122.655 E-0.16589
G1 X84.425 Y122.974 E-0.15317
G1 X84.424 Y124.213 E-0.58886
;WIPE_END
G1 E-0.07500 F3600.000
G1 X79.564 Y122.524 F9000.000
G1 E5.00000 F2400.000
;TYPE:Perimeter
G1 F2100.000
G1 X79.632 Y122.941 E0.01430
G1 X79.627 Y133.184 E0.34672
G1 X79.504 Y133.626 E0.01555
G1 X79.233 Y134.026 E0.01634
G1 X78.849 Y134.318 E0.01634
G1 X78.430 Y134.459 E0.01497
G1 X78.191 Y134.485 E0.00814
G1 X77.751 Y134.437 E0.01497
G1 X77.313 Y134.235 E0.01634
G1 X76.962 Y133.903 E0.01634
G1 X76.736 Y133.476 E0.01634
G1 X76.668 Y133.059 E0.01430
G1 X76.673 Y122.816 E0.34672
G1 X76.796 Y122.374 E0.01555
G1 X77.067 Y121.974 E0.01634
G1 X77.451 Y121.682 E0.01634
G1 X77.870 Y121.541 E0.01497
G1 X78.109 Y121.515 E0.00814
G1 X78.549 Y121.563 E0.01497
G1 X78.987 Y121.765 E0.01634
G1 X79.338 Y122.097 E0.01634
G1 X79.536 Y122.471 E0.01431
G1 X78.109 Y121.924 F9000.000
;TYPE:External perimeter
G1 F2100.000
G1 X78.439 Y121.960 E0.01121
G1 X78.756 Y122.107 E0.01182
G1 X79.009 Y122.347 E0.01182
G1 X79.173 Y122.655 E0.01182
G1 X79.225 Y122.974 E0.01092
G1 X79.220 Y133.128 E0.34372
G1 X79.130 Y133.453 E0.01142
G1 X78.934 Y133.742 E0.01182
G1 X78.656 Y133.954 E0.01182
G1 X78.342 Y134.059 E0.01121
G1 X78.191 Y134.076 E0.00514
G1 X77.861 Y134.040 E0.01121
G1 X77.544 Y133.893 E0.01182
G1 X77.291 Y133.653 E0.01182
G1 X77.127 Y133.345 E0.01182
G1 X77.075 Y133.026 E0.01092
G1 X77.080 Y122.872 E0.34372
G1 X77.170 Y122.547 E0.01142
G1 X77.366 Y122.258 E0.01182
G1 X77.644 Y122.046 E0.01182
G1 X77.958 Y121.941 E0.01121
G1 X78.050 Y121.931 E0.00311
G1 X78.271 Y121.635 F9000.000
G1 E-3.50000 F3600.000
;WIPE_START
G1 F7200.000
G1 X78.439 Y121.960 E-0.18530
G1 X78.756 Y122.107 E-0.16589
G1 X79.009 Y122.347 E-0.16589
G1 X79.173 Y122.655 E-0.16589
G1 X79.225 Y122.974 E-0.15318
G1 X79.224 Y124.213 E-0.58886
;WIPE_END
G1 E-0.07500 F3600.000
G1 X74.364 Y122.524 F9000.000
G1 E5.00000 F2400.000
;TYPE:Perimeter
G1 F2100.000
G1 X74.432 Y122.941 E0.01430
G1 X74.427 Y133.184 E0.34672
G1 X74.304 Y133.626 E0.01555
G1 X74.033 Y134.026 E0.01634
G1 X73.649 Y134.318 E0.01634
G1 X73.230 Y134.459 E0.01497
G1 X72.991 Y134.485 E0.00814
G1 X72.551 Y134.437 E0.01497
G1 X72.113 Y134.235 E0.01634
G1 X71.762 Y133.903 E0.01634
G1 X71.536 Y133.476 E0.01634
G1 X71.468 Y133.059 E0.01430
G1 X71.473 Y122.816 E0.34672
G1 X71.596 Y122.374 E0.01555
G1 X71.867 Y121.974 E0.01634
G1 X72.251 Y121.682 E0.01634
G1 X72.670 Y121.541 E0.01497
G1 X72.909 Y121.515 E0.00814
G1 X73.349 Y121.563 E0.01497
G1 X73.787 Y121.765 E0.01634
G1 X74.138 Y122.097 E0.01634
G1 X74.336 Y122.471 E0.01431
G1 X72.909 Y121.924 F9000.000
;TYPE:External perimeter
G1 F2100.000
G1 X73.239 Y121.960 E0.01121
G1 X73.556 Y122.107 E0.01182
G1 X73.809 Y122.347 E0.01182
G1 X73.973 Y122.655 E0.01182
G1 X74.025 Y122.974 E0.01092
G1 X74.020 Y133.128 E0.34372
G1 X73.930 Y133.453 E0.01142
G1 X73.734 Y133.742 E0.01182
G1 X73.456 Y133.954 E0.01182
G1 X73.142 Y134.059 E0.01121
G1 X72.991 Y134.076 E0.00514
G1 X72.661 Y134.040 E0.01121
G1 X72.344 Y133.893 E0.01182
G1 X72.091 Y133.653 E0.01182
G1 X71.927 Y133.345 E0.01182
G1 X71.875 Y133.026 E0.01092
G1 X71.880 Y122.872 E0.34372
G1 X71.970 Y122.547 E0.01142
G1 X72.166 Y122.258 E0.01182
G1 X72.444 Y122.046 E0.01182
G1 X72.758 Y121.941 E0.01121
G1 X72.850 Y121.931 E0.00311
G1 X73.071 Y121.635 F9000.000
G1 E-3.50000 F3600.000
;WIPE_START
G1 F7200.000
G1 X73.239 Y121.960 E-0.18530
G1 X73.556 Y122.107 E-0.16588
