; generated by PrusaSlicer 2.3.3+linux-x64-GTK3 on 2023-01-14 at 12:50:08 UTC

; 

; external perimeters extrusion width = 0.45mm
; perimeters extrusion width = 0.45mm
; infill extrusion width = 0.45mm
; solid infill extrusion width = 0.45mm
; top infill extrusion width = 0.40mm
; first layer extrusion width = 0.45mm

M201 X500 Y500 Z100 E5000 ; sets maximum accelerations, mm/sec^2
M203 X500 Y500 Z10 E60 ; sets maximum feedrates, mm/sec
M204 P500 R1000 T500 ; sets acceleration (P, T) and retract acceleration (R), mm/sec^2
M205 X8.00 Y8.00 Z0.40 E5.00 ; sets the jerk limits, mm/sec
M205 S0 T0 ; sets the minimum extruding and travel feed rate, mm/sec
M107
;TYPE:Custom
G90 ; use absolute coordinates
M83 ; extruder relative mode
M104 S195 ; set extruder temp
M140 S60 ; set bed temp
M190 S60 ; wait for bed temp
M109 S195 ; wait for extruder temp
G28 ; home all
G1 Z2 F240
G1 X2 Y10 F3000
G1 Z0.28 F240
G92 E0
G1 Y190 E15 F1500 ; intro line
G1 X2.3 F5000
G92 E0
G1 Y10 E15 F1200 ; intro line
G92 E0
G21 ; set units to millimeters
G90 ; use absolute coordinates
M83 ; use relative distances for extrusion
; Filament gcode
;LAYER_CHANGE
;Z:0.2
;HEIGHT:0.2
;BEFORE_LAYER_CHANGE
G92 E0
;0.2


G1 E-5.00000 F3600.000
G1 Z0.200 F9000.000
;AFTER_LAYER_CHANGE
;0.2
G1 X48.077 Y99.569
G1 E5.00000 F2400.000
;TYPE:Skirt
;WIDTH:0.45
G1 F2100.000
G1 X48.822 Y99.079 E0.03018
G1 X57.303 Y96.235 E0.30276
G1 X162.254 Y96.193 E3.55247
G1 X162.993 Y96.310 E0.02533
G1 X171.216 Y99.095 E0.29389
G1 X171.692 Y99.373 E0.01864
G1 X172.092 Y99.751 E0.01864
G1 X172.396 Y100.210 E0.01864
G1 X172.588 Y100.727 E0.01864
G1 X172.657 Y101.292 E0.01929
G1 X172.629 Y117.767 E0.55764
G1 X172.458 Y118.358 E0.02083
G1 X170.510 Y122.646 E0.15942
G1 X169.875 Y123.340 E0.03184
G1 X169.023 Y123.738 E0.03184
G1 X168.450 Y123.807 E0.01953
G1 X51.435 Y123.804 E3.96082
G1 X50.884 Y123.713 E0.01890
G1 X50.372 Y123.499 E0.01877
G1 X49.923 Y123.174 E0.01877
G1 X49.558 Y122.752 E0.01890
G1 X47.549 Y118.374 E0.16305
G1 X47.384 Y117.844 E0.01877
G1 X47.343 Y101.277 E0.56078
G1 X47.401 Y100.775 E0.01709
G1 X47.562 Y100.297 E0.01709
G1 X48.043 Y99.618 E0.02815
G1 E-3.50000 F3600.000
;WIPE_START
G1 F7200.000
G1 X48.822 Y99.079 E-0.45024
G1 X50.768 Y98.426 E-0.97476
;WIPE_END
G1 E-0.07500 F3600.000
G1 X111.146 Y106.774 F9000.000
G1 E5.00000 F2400.000
;TYPE:Perimeter
G1 F2100.000
G1 X111.417 Y106.374 E0.01634
G1 X111.801 Y106.082 E0.01634
G1 X112.220 Y105.941 E0.01497
G1 X112.459 Y105.915 E0.00814
G1 X112.899 Y105.963 E0.01497
G1 X113.337 Y106.165 E0.01634
G1 X113.688 Y106.497 E0.01634
G1 X113.914 Y106.924 E0.01634
G1 X113.982 Y107.341 E0.01430
G1 X113.977 Y115.584 E0.27902
G1 X113.854 Y116.026 E0.01555
G1 X113.583 Y116.426 E0.01634
G1 X113.199 Y116.718 E0.01634
G1 X112.780 Y116.859 E0.01497
G1 X112.541 Y116.885 E0.00814
G1 X112.101 Y116.837 E0.01497
G1 X111.663 Y116.635 E0.01634
G1 X111.312 Y116.303 E0.01634
G1 X111.086 Y115.876 E0.01634
G1 X111.018 Y115.459 E0.01430
G1 X111.023 Y107.216 E0.27902
G1 X111.130 Y106.831 E0.01352
G1 X112.308 Y106.341 F9000.000
;TYPE:External perimeter
G1 F2100.000
G1 X112.459 Y106.324 E0.00514
G1 X112.789 Y106.360 E0.01121
G1 X113.106 Y106.507 E0.01182
G1 X113.359 Y106.747 E0.01182
G1 X113.523 Y107.055 E0.01182
G1 X113.575 Y107.374 E0.01092
G1 X113.570 Y115.528 E0.27602
G1 X113.480 Y115.853 E0.01142
G1 X113.284 Y116.142 E0.01182
G1 X113.006 Y116.354 E0.01182
G1 X112.692 Y116.459 E0.01121
G1 X112.541 Y116.476 E0.00514
G1 X112.211 Y116.440 E0.01121
G1 X111.894 Y116.293 E0.01182
G1 X111.641 Y116.053 E0.01182
G1 X111.477 Y115.745 E0.01182
G1 X111.425 Y115.426 E0.01092
G1 X111.430 Y107.272 E0.27602
G1 X111.520 Y106.947 E0.01142
G1 X111.716 Y106.658 E0.01182
G1 X111.994 Y106.446 E0.01182
G1 X112.252 Y106.360 E0.00918
G1 X112.351 Y106.195 F9000.000
G1 E-3.50000 F3600.000
;WIPE_START
G1 F7200.000
G1 X112.459 Y106.324 E-0.10018
G1 X112.789 Y106.360 E-0.15737
G1 X113.106 Y106.507 E-0.16589
G1 X113.359 Y106.747 E-0.16589
G1 X113.523 Y107.055 E-0.16589
G1 X113.575 Y107.374 E-0.15318
G1 X113.574 Y108.461 E-0.51662
;WIPE_END
G1 E-0.07500 F3600.000
G1 X108.914 Y106.924 F9000.000
G1 E5.00000 F2400.000
;TYPE:Perimeter
G1 F2100.000
G1 X108.982 Y107.341 E0.01430
G1 X108.977 Y115.584 E0.27902
G1 X108.854 Y116.026 E0.01555
G1 X108.583 Y116.426 E0.01634
G1 X108.199 Y116.718 E0.01634
G1 X107.780 Y116.859 E0.01497
G1 X107.541 Y116.885 E0.00814
G1 X107.101 Y116.837 E0.01497
G1 X106.663 Y116.635 E0.01634
G1 X106.312 Y116.303 E0.01634
G1 X106.086 Y115.876 E0.01634
G1 X106.018 Y115.459 E0.01430
G1 X106.023 Y107.216 E0.27902
G1 X106.146 Y106.774 E0.01555
G1 X106.417 Y106.374 E0.01634
G1 X106.801 Y106.082 E0.01634
G1 X107.220 Y105.941 E0.01497
G1 X107.459 Y105.915 E0.00814
G1 X107.899 Y105.963 E0.01497
G1 X108.337 Y106.165 E0.01634
G1 X108.688 Y106.497 E0.01634
G1 X108.886 Y106.871 E0.01431
G1 X108.523 Y107.055 F9000.000
;TYPE:External perimeter
G1 F2100.000
G1 X108.575 Y107.374 E0.01092
G1 X108.570 Y115.528 E0.27602
G1 X108.480 Y115.853 E0.01142
G1 X108.284 Y116.142 E0.01182
G1 X108.006 Y116.354 E0.01182
G1 X107.692 Y116.459 E0.01121
G1 X107.541 Y116.476 E0.00514
G1 X107.211 Y116.440 E0.01121
G1 X106.894 Y116.293 E0.01182
G1 X106.641 Y116.053 E0.01182
G1 X106.477 Y115.745 E0.01182
G1 X106.425 Y115.426 E0.01092
G1 X106.430 Y107.272 E0.27602
G1 X106.520 Y106.947 E0.01142
G1 X106.716 Y106.658 E0.01182
G1 X106.994 Y106.446 E0.01182
G1 X107.308 Y106.341 E0.01121
G1 X107.459 Y106.324 E0.00514
G1 X107.789 Y106.360 E0.01121
G1 X108.106 Y106.507 E0.01182
G1 X108.359 Y106.747 E0.01182
G1 X108.495 Y107.002 E0.00979
G1 X108.839 Y107.119 F9000.000
G1 E-3.50000 F3600.000
;WIPE_START
G1 F7200.000
G1 X108.575 Y107.374 E-0.18042
G1 X108.573 Y109.994 E-1.24458
;WIPE_END
G1 E-0.07500 F3600.000
G1 X103.914 Y106.924 F9000.000
G1 E5.00000 F2400.000
;TYPE:Perimeter
G1 F2100.000
G1 X103.982 Y107.341 E0.01430
G1 X103.977 Y115.584 E0.27902
G1 X103.854 Y116.026 E0.01555
G1 X103.583 Y116.426 E0.01634
G1 X103.199 Y116.718 E0.01634
G1 X102.780 Y116.859 E0.01497
G1 X102.541 Y116.885 E0.00814
G1 X102.101 Y116.837 E0.01497
G1 X101.663 Y116.635 E0.01634
G1 X101.312 Y116.303 E0.01634
G1 X101.086 Y115.876 E0.01634
G1 X101.018 Y115.459 E0.01430
G1 X101.023 Y107.216 E0.27902
G1 X101.146 Y106.774 E0.01555
G1 X101.417 Y106.374 E0.01634
G1 X101.801 Y106.082 E0.01634
G1 X102.220 Y105.941 E0.01497
G1 X102.459 Y105.915 E0.00814
G1 X102.899 Y105.963 E0.01497
G1 X103.337 Y106.165 E0.01634
G1 X103.688 Y106.497 E0.01634
G1 X103.886 Y106.871 E0.01431
G1 X103.523 Y107.055 F9000.000
;TYPE:External perimeter
G1 F2100.000
G1 X103.575 Y107.374 E0.01092
G1 X103.570 Y115.528 E0.27602
G1 X103.480 Y115.853 E0.01142
G1 X103.284 Y116.142 E0.01182
G1 X103.006 Y116.354 E0.01182
G1 X102.692 Y116.459 E0.01121
G1 X102.541 Y116.476 E0.00514
G1 X102.211 Y116.440 E0.01121
G1 X101.894 Y116.293 E0.01182
G1 X101.641 Y116.053 E0.01182
G1 X101.477 Y115.745 E0.01182
G1 X101.425 Y115.426 E0.01092
G1 X101.430 Y107.272 E0.27602
G1 X101.520 Y106.947 E0.01142
G1 X101.716 Y106.658 E0.01182
G1 X101.994 Y106.446 E0.01182
G1 X102.308 Y106.341 E0.01121
G1 X102.459 Y106.324 E0.00514
G1 X102.789 Y106.360 E0.01121
G1 X103.106 Y106.507 E0.01182
G1 X103.359 Y106.747 E0.01182
G1 X103.495 Y107.002 E0.00979
G1 X103.839 Y107.119 F9000.000
G1 E-3.50000 F3600.000
;WIPE_START
G1 F7200.000
G1 X103.575 Y107.374 E-0.18042
G1 X103.573 Y109.994 E-1.24458
;WIPE_END
G1 E-0.07500 F3600.000
G1 X98.914 Y106.924 F9000.000
G1 E5.00000 F2400.000
;TYPE:Perimeter
G1 F2100.000
G1 X98.982 Y107.341 E0.01430
G1 X98.977 Y115.584 E0.27902
G1 X98.854 Y116.026 E0.01555
G1 X98.583 Y116.426 E0.01634
G1 X98.199 Y116.718 E0.01634
G1 X97.780 Y116.859 E0.01497
G1 X97.541 Y116.885 E0.00814
G1 X97.101 Y116.837 E0.01497
G1 X96.663 Y116.635 E0.01634
G1 X96.312 Y116.303 E0.01634
G1 X96.086 Y115.876 E0.01634
G1 X96.018 Y115.459 E0.01430
G1 X96.023 Y107.216 E0.27902
G1 X96.146 Y106.774 E0.01555
G1 X96.417 Y106.374 E0.01634
G1 X96.801 Y106.082 E0.01634
G1 X97.220 Y105.941 E0.01497
G1 X97.459 Y105.915 E0.00814
G1 X97.899 Y105.963 E0.01497
G1 X98.337 Y106.165 E0.01634
G1 X98.688 Y106.497 E0.01634
G1 X98.886 Y106.871 E0.01431
G1 X98.523 Y107.055 F9000.000
;TYPE:External perimeter
G1 F2100.000
G1 X98.575 Y107.374 E0.01092
G1 X98.570 Y115.528 E0.27602
G1 X98.480 Y115.853 E0.01142
G1 X98.284 Y116.142 E0.01182
G1 X98.006 Y116.354 E0.01182
G1 X97.692 Y116.459 E0.01121
G1 X97.541 Y116.476 E0.00514
G1 X97.211 Y116.440 E0.01121
G1 X96.894 Y116.293 E0.01182
G1 X96.641 Y116.053 E0.01182
G1 X96.477 Y115.745 E0.01182
G1 X96.425 Y115.426 E0.01092
G1 X96.430 Y107.272 E0.27602
G1 X96.520 Y106.947 E0.01142
G1 X96.716 Y106.658 E0.01182
G1 X96.994 Y106.446 E0.01182
G1 X97.308 Y106.341 E0.01121
G1 X97.459 Y106.324 E0.00514
G1 X97.789 Y106.360 E0.01121
G1 X98.106 Y106.507 E0.01182
G1 X98.359 Y106.747 E0.01182
G1 X98.495 Y107.002 E0.00979
G1 X98.839 Y107.119 F9000.000
G1 E-3.50000 F3600.000
;WIPE_START
G1 F7200.000
G1 X98.575 Y107.374 E-0.18042
G1 X98.573 Y109.994 E-1.24458
;WIPE_END
G1 E-0.07500 F3600.000
G1 X93.914 Y106.924 F9000.000
G1 E5.00000 F2400.000
;TYPE:Perimeter
G1 F2100.000
G1 X93.982 Y107.341 E0.01430
G1 X93.977 Y115.584 E0.27902
G1 X93.854 Y116.026 E0.01555
G1 X93.583 Y116.426 E0.01634
G1 X93.199 Y116.718 E0.01634
G1 X92.780 Y116.859 E0.01497
G1 X92.541 Y116.885 E0.00814
G1 X92.101 Y116.837 E0.01497
G1 X91.663 Y116.635 E0.01634
G1 X91.312 Y116.303 E0.01634
G1 X91.086 Y115.876 E0.01634
G1 X91.018 Y115.459 E0.01430
G1 X91.023 Y107.216 E0.27902
G1 X91.146 Y106.774 E0.01555
G1 X91.417 Y106.374 E0.01634
G1 X91.801 Y106.082 E0.01634
G1 X92.220 Y105.941 E0.01497
G1 X92.459 Y105.915 E0.00814
G1 X92.899 Y105.963 E0.01497
G1 X93.337 Y106.165 E0.01634
G1 X93.688 Y106.497 E0.01634
G1 X93.886 Y106.871 E0.01431
G1 X93.523 Y107.055 F9000.000
;TYPE:External perimeter
G1 F2100.000
G1 X93.575 Y107.374 E0.01092
G1 X93.570 Y115.528 E0.27602
G1 X93.480 Y115.853 E0.01142
G1 X93.284 Y116.142 E0.01182
G1 X93.006 Y116.354 E0.01182
G1 X92.692 Y116.459 E0.01121
G1 X92.541 Y116.476 E0.00514
G1 X92.211 Y116.440 E0.01121
G1 X91.894 Y116.293 E0.01182
G1 X91.641 Y116.053 E0.01182
G1 X91.477 Y115.745 E0.01182
G1 X91.425 Y115.426 E0.01092
G1 X91.430 Y107.272 E0.27602
G1 X91.520 Y106.947 E0.01142
G1 X91.716 Y106.658 E0.01182
G1 X91.994 Y106.446 E0.01182
G1 X92.308 Y106.341 E0.01121
G1 X92.459 Y106.324 E0.00514
G1 X92.789 Y106.360 E0.01121
G1 X93.106 Y106.507 E0.01182
G1 X93.359 Y106.747 E0.01182
G1 X93.495 Y107.002 E0.00979
G1 X93.839 Y107.119 F9000.000
G1 E-3.50000 F3600.000
;WIPE_START
G1 F7200.000
G1 X93.575 Y107.374 E-0.18042
G1 X93.573 Y109.994 E-1.24458
;WIPE_END
G1 E-0.07500 F3600.000
G1 X88.914 Y106.924 F9000.000
G1 E5.00000 F2400.000
;TYPE:Perimeter
G1 F2100.000
G1 X88.982 Y107.341 E0.01430
G1 X88.977 Y115.584 E0.27902
G1 X88.854 Y116.026 E0.01555
G1 X88.583 Y116.426 E0.01634
G1 X88.199 Y116.718 E0.01634
G1 X87.780 Y116.859 E0.01497
G1 X87.541 Y116.885 E0.00814
G1 X87.101 Y116.837 E0.01497
G1 X86.663 Y116.635 E0.01634
G1 X86.312 Y116.303 E0.01634
G1 X86.086 Y115.876 E0.01634
G1 X86.018 Y115.459 E0.01430
G1 X86.023 Y107.216 E0.27902
G1 X86.146 Y106.774 E0.01555
G1 X86.417 Y106.374 E0.01634
G1 X86.801 Y106.082 E0.01634
G1 X87.220 Y105.941 E0.01497
G1 X87.459 Y105.915 E0.00814
G1 X87.899 Y105.963 E0.01497
G1 X88.337 Y106.165 E0.01634
G1 X88.688 Y106.497 E0.01634
G1 X88.886 Y106.871 E0.01431
G1 X88.523 Y107.055 F9000.000
;TYPE:External perimeter
G1 F2100.000
G1 X88.575 Y107.374 E0.01092
G1 X88.570 Y115.528 E0.27602
G1 X88.480 Y115.853 E0.01142
G1 X88.284 Y116.142 E0.01182
G1 X88.006 Y116.354 E0.01182
G1 X87.692 Y116.459 E0.01121
G1 X87.541 Y116.476 E0.00514
G1 X87.211 Y116.440 E0.01121
G1 X86.894 Y116.293 E0.01182
G1 X86.641 Y116.053 E0.01182
G1 X86.477 Y115.745 E0.01182
G1 X86.425 Y115.426 E0.01092
G1 X86.430 Y107.272 E0.27602
G1 X86.520 Y106.947 E0.01142
G1 X86.716 Y106.658 E0.01182
G1 X86.994 Y106.446 E0.01182
G1 X87.308 Y106.341 E0.01121
G1 X87.459 Y106.324 E0.00514
G1 X87.789 Y106.360 E0.01121
G1 X88.106 Y106.507 E0.01182
G1 X88.359 Y106.747 E0.01182
G1 X88.495 Y107.002 E0.00979
G1 X88.839 Y107.119 F9000.000
G1 E-3.50000 F3600.000
;WIPE_START
G1 F7200.000
G1 X88.575 Y107.374 E-0.18042
G1 X88.573 Y109.994 E-1.24458
;WIPE_END
G1 E-0.07500 F3600.000
G1 X116.146 Y106.774 F9000.000
G1 E5.00000 F2400.000
;TYPE:Perimeter
G1 F2100.000
G1 X116.417 Y106.374 E0.01634
G1 X116.801 Y106.082 E0.01634
G1 X117.220 Y105.941 E0.01497
G1 X117.459 Y105.915 E0.00814
G1 X117.899 Y105.963 E0.01497
G1 X118.337 Y106.165 E0.01634
G1 X118.688 Y106.497 E0.01634
G1 X118.914 Y106.924 E0.01634
G1 X118.982 Y107.341 E0.01430
G1 X118.977 Y115.584 E0.27902
G1 X118.854 Y116.026 E0.01555
G1 X118.583 Y116.426 E0.01634
G1 X118.199 Y116.718 E0.01634
G1 X117.780 Y116.859 E0.01497
G1 X117.541 Y116.885 E0.00814
G1 X117.101 Y116.837 E0.01497
G1 X116.663 Y116.635 E0.01634
G1 X116.312 Y116.303 E0.01634
G1 X116.086 Y115.876 E0.01634
G1 X116.018 Y115.459 E0.01430
G1 X116.023 Y107.216 E0.27902
G1 X116.130 Y106.831 E0.01352
G1 X117.308 Y106.341 F9000.000
;TYPE:External perimeter
G1 F2100.000
G1 X117.459 Y106.324 E0.00514
G1 X117.789 Y106.360 E0.01121
G1 X118.106 Y106.507 E0.01182
G1 X118.359 Y106.747 E0.01182
G1 X118.523 Y107.055 E0.01182
G1 X118.575 Y107.374 E0.01092
G1 X118.570 Y115.528 E0.27602
G1 X118.480 Y115.853 E0.01142
G1 X118.284 Y116.142 E0.01182
G1 X118.006 Y116.354 E0.01182
G1 X117.692 Y116.459 E0.01121
G1 X117.541 Y116.476 E0.00514
G1 X117.211 Y116.440 E0.01121
G1 X116.894 Y116.293 E0.01182
G1 X116.641 Y116.053 E0.01182
G1 X116.477 Y115.745 E0.01182
G1 X116.425 Y115.426 E0.01092
G1 X116.430 Y107.272 E0.27602
G1 X116.520 Y106.947 E0.01142
G1 X116.716 Y106.658 E0.01182
G1 X116.994 Y106.446 E0.01182
G1 X117.252 Y106.360 E0.00918
G1 X117.351 Y106.195 F9000.000
G1 E-3.50000 F3600.000
;WIPE_START
G1 F7200.000
G1 X117.459 Y106.324 E-0.10018
G1 X117.789 Y106.360 E-0.15737
G1 X118.106 Y106.507 E-0.16589
G1 X118.359 Y106.747 E-0.16589
G1 X118.523 Y107.055 E-0.16589
G1 X118.575 Y107.374 E-0.15318
G1 X118.574 Y108.461 E-0.51662
;WIPE_END
G1 E-0.07500 F3600.000
G1 X121.146 Y106.774 F9000.000
G1 E5.00000 F2400.000
;TYPE:Perimeter
G1 F2100.000
G1 X121.417 Y106.374 E0.01634
G1 X121.801 Y106.082 E0.01634
G1 X122.220 Y105.941 E0.01497
G1 X122.459 Y105.915 E0.00814
G1 X122.899 Y105.963 E0.01497
G1 X123.337 Y106.165 E0.01634
G1 X123.688 Y106.497 E0.01634
G1 X123.914 Y106.924 E0.01634
G1 X123.982 Y107.341 E0.01430
G1 X123.977 Y115.584 E0.27902
G1 X123.854 Y116.026 E0.01555
G1 X123.583 Y116.426 E0.01634
G1 X123.199 Y116.718 E0.01634
G1 X122.780 Y116.859 E0.01497
G1 X122.541 Y116.885 E0.00814
G1 X122.101 Y116.837 E0.01497
G1 X121.663 Y116.635 E0.01634
G1 X121.312 Y116.303 E0.01634
G1 X121.086 Y115.876 E0.01634
G1 X121.018 Y115.459 E0.01430
G1 X121.023 Y107.216 E0.27902
G1 X121.130 Y106.831 E0.01352
G1 X122.308 Y106.341 F9000.000
;TYPE:External perimeter
G1 F2100.000
G1 X122.459 Y106.324 E0.00514
G1 X122.789 Y106.360 E0.01121
G1 X123.106 Y106.507 E0.01182
G1 X123.359 Y106.747 E0.01182
G1 X123.523 Y107.055 E0.01182
G1 X123.575 Y107.374 E0.01092
G1 X123.570 Y115.528 E0.27602
G1 X123.480 Y115.853 E0.01142
G1 X123.284 Y116.142 E0.01182
G1 X123.006 Y116.354 E0.01182
G1 X122.692 Y116.459 E0.01121
G1 X122.541 Y116.476 E0.00514
G1 X122.211 Y116.440 E0.01121
G1 X121.894 Y116.293 E0.01182
G1 X121.641 Y116.053 E0.01182
G1 X121.477 Y115.745 E0.01182
G1 X121.425 Y115.426 E0.01092
G1 X121.430 Y107.272 E0.27602
G1 X121.520 Y106.947 E0.01142
G1 X121.716 Y106.658 E0.01182
G1 X121.994 Y106.446 E0.01182
G1 X122.252 Y106.360 E0.00918
G1 X122.351 Y106.195 F9000.000
G1 E-3.50000 F3600.000
;WIPE_START
G1 F7200.000
G1 X122.459 Y106.324 E-0.10018
G1 X122.789 Y106.360 E-0.15737
G1 X123.106 Y106.507 E-0.16588
G1 X123.359 Y106.747 E-0.16589
G1 X123.523 Y107.055 E-0.16589
G1 X123.575 Y107.374 E-0.15318
G1 X123.574 Y108.461 E-0.51662
;WIPE_END
G1 E-0.07500 F3600.000
G1 X126.146 Y106.774 F9000.000
G1 E5.00000 F2400.000
;TYPE:Perimeter
G1 F2100.000
G1 X126.417 Y106.374 E0.01634
G1 X126.801 Y106.082 E0.01634
G1 X127.220 Y105.941 E0.01497
G1 X127.459 Y105.915 E0.00814
G1 X127.899 Y105.963 E0.01497
