; generated by PrusaSlicer 2.3.3+linux-x64-GTK3 on 2023-03-16 at 18:28:18 UTC

; 

; external perimeters extrusion width = 0.45mm
; perimeters extrusion width = 0.45mm
; infill extrusion width = 0.45mm
; solid infill extrusion width = 0.45mm
; top infill extrusion width = 0.40mm
; first layer extrusion width = 0.45mm

M201 X500 Y500 Z100 E5000 ; sets maximum accelerations, mm/sec^2
M203 X500 Y500 Z10 E60 ; sets maximum feedrates, mm/sec
M204 P500 R1000 T500 ; sets acceleration (P, T) and retract acceleration (R), mm/sec^2
M205 X8.00 Y8.00 Z0.40 E5.00 ; sets the jerk limits, mm/sec
M205 S0 T0 ; sets the minimum extruding and travel feed rate, mm/sec
M107
;TYPE:Custom
G90 ; use absolute coordinates
M83 ; extruder relative mode
M104 S195 ; set extruder temp
M140 S60 ; set bed temp
M190 S60 ; wait for bed temp
M109 S195 ; wait for extruder temp
G28 ; home all
G1 Z2 F240
G1 X2 Y10 F3000
G1 Z0.28 F240
G92 E0
G1 Y190 E15 F1500 ; intro line
G1 X2.3 F5000
G92 E0
G1 Y10 E15 F1200 ; intro line
G92 E0
G21 ; set units to millimeters
G90 ; use absolute coordinates
M83 ; use relative distances for extrusion
; Filament gcode
;LAYER_CHANGE
;Z:0.2
;HEIGHT:0.2
;BEFORE_LAYER_CHANGE
G92 E0
;0.2


G1 E-5.00000 F3600.000
G1 Z0.200 F9000.000
;AFTER_LAYER_CHANGE
;0.2
G1 X67.730 Y88.309
G1 E5.00000 F2400.000
;TYPE:Skirt
;WIDTH:0.45
G1 F2100.000
G1 X68.659 Y88.099 E0.03222
G1 X100.718 Y88.098 E1.08517
G1 X134.841 Y89.100 E1.15551
G1 X135.691 Y89.299 E0.02955
G1 X136.414 Y89.787 E0.02955
G1 X136.947 Y90.572 E0.03209
G1 X137.135 Y91.501 E0.03209
G1 X137.134 Y121.558 E1.01741
G1 X136.945 Y122.441 E0.03057
G1 X136.444 Y123.193 E0.03057
G1 X135.866 Y123.626 E0.02443
G1 X123.984 Y129.894 E0.45472
G1 X122.984 Y130.328 E0.03693
G1 X121.227 Y130.792 E0.06149
G1 X120.167 Y130.901 E0.03609
G1 X85.168 Y131.901 E1.18516
G1 X84.157 Y131.898 E0.03421
G1 X83.065 Y131.781 E0.03717
G1 X82.016 Y131.556 E0.03632
G1 X80.906 Y131.190 E0.03958
G1 X67.635 Y124.657 E0.50066
G1 X67.027 Y124.222 E0.02533
G1 X66.496 Y123.441 E0.03197
G1 X66.307 Y122.512 E0.03209
G1 X66.307 Y90.460 E1.08492
G1 X66.482 Y89.604 E0.02955
G1 X66.953 Y88.865 E0.02967
G1 X67.681 Y88.344 E0.03032
G1 E-3.50000 F3600.000
;WIPE_START
G1 F7200.000
G1 X68.659 Y88.099 E-0.47856
G1 X70.651 Y88.099 E-0.94644
;WIPE_END
G1 E-0.07500 F3600.000
G1 X116.957 Y119.838 F9000.000
G1 E5.00000 F2400.000
;TYPE:Perimeter
G1 F2100.000
G1 X117.154 Y119.548 E0.01185
G1 X117.380 Y119.281 E0.01185
G1 X117.635 Y119.041 E0.01185
G1 X117.913 Y118.829 E0.01185
G1 X118.213 Y118.648 E0.01185
G1 X118.531 Y118.501 E0.01185
G1 X118.863 Y118.390 E0.01185
G1 X119.205 Y118.314 E0.01185
G1 X119.553 Y118.276 E0.01185
G1 X119.903 Y118.276 E0.01185
G1 X120.251 Y118.314 E0.01185
G1 X120.593 Y118.390 E0.01185
G1 X120.912 Y118.497 E0.01142
G1 X121.241 Y118.648 E0.01223
G1 X121.542 Y118.829 E0.01189
G1 X121.821 Y119.041 E0.01185
G1 X122.075 Y119.281 E0.01185
G1 X122.302 Y119.548 E0.01185
G1 X122.498 Y119.838 E0.01185
G1 X122.662 Y120.147 E0.01185
G1 X122.792 Y120.472 E0.01185
G1 X122.885 Y120.810 E0.01185
G1 X122.942 Y121.155 E0.01185
G1 X122.961 Y121.505 E0.01185
G1 X122.942 Y121.854 E0.01185
G1 X122.885 Y122.200 E0.01185
G1 X122.792 Y122.537 E0.01185
G1 X122.662 Y122.862 E0.01185
G1 X122.498 Y123.172 E0.01185
G1 X122.302 Y123.461 E0.01185
G1 X122.075 Y123.728 E0.01185
G1 X121.821 Y123.969 E0.01185
G1 X121.542 Y124.181 E0.01185
G1 X121.242 Y124.361 E0.01185
G1 X120.936 Y124.503 E0.01142
G1 X120.594 Y124.620 E0.01223
G1 X120.251 Y124.695 E0.01190
G1 X119.903 Y124.733 E0.01185
G1 X119.553 Y124.733 E0.01185
G1 X119.205 Y124.695 E0.01185
G1 X118.863 Y124.620 E0.01185
G1 X118.531 Y124.508 E0.01185
G1 X118.213 Y124.361 E0.01185
G1 X117.913 Y124.181 E0.01185
G1 X117.635 Y123.969 E0.01185
G1 X117.380 Y123.728 E0.01185
G1 X117.154 Y123.461 E0.01185
G1 X116.957 Y123.172 E0.01185
G1 X116.793 Y122.862 E0.01185
G1 X116.664 Y122.537 E0.01185
G1 X116.570 Y122.200 E0.01185
G1 X116.514 Y121.854 E0.01185
G1 X116.495 Y121.505 E0.01185
G1 X116.514 Y121.155 E0.01185
G1 X116.570 Y120.810 E0.01185
G1 X116.664 Y120.472 E0.01185
G1 X116.793 Y120.147 E0.01185
G1 X116.929 Y119.891 E0.00982
G1 X117.289 Y120.082 F9000.000
;TYPE:External perimeter
G1 F2100.000
G1 X117.478 Y119.795 E0.01163
G1 X117.676 Y119.562 E0.01036
G1 X117.899 Y119.351 E0.01036
G1 X118.142 Y119.166 E0.01036
G1 X118.404 Y119.008 E0.01036
G1 X118.682 Y118.880 E0.01036
G1 X118.972 Y118.782 E0.01036
G1 X119.271 Y118.717 E0.01036
G1 X119.575 Y118.683 E0.01036
G1 X119.881 Y118.683 E0.01036
G1 X120.185 Y118.717 E0.01036
G1 X120.484 Y118.782 E0.01036
G1 X120.762 Y118.876 E0.00995
G1 X121.051 Y119.008 E0.01074
G1 X121.313 Y119.166 E0.01037
G1 X121.557 Y119.351 E0.01036
G1 X121.779 Y119.562 E0.01036
G1 X121.977 Y119.795 E0.01036
G1 X122.149 Y120.048 E0.01036
G1 X122.292 Y120.318 E0.01036
G1 X122.405 Y120.603 E0.01036
G1 X122.487 Y120.897 E0.01036
G1 X122.537 Y121.199 E0.01036
G1 X122.553 Y121.505 E0.01036
G1 X122.537 Y121.810 E0.01036
G1 X122.487 Y122.112 E0.01036
G1 X122.405 Y122.407 E0.01036
G1 X122.292 Y122.691 E0.01036
G1 X122.149 Y122.961 E0.01036
G1 X121.977 Y123.215 E0.01036
G1 X121.779 Y123.448 E0.01036
G1 X121.557 Y123.658 E0.01036
G1 X121.313 Y123.843 E0.01036
G1 X121.051 Y124.001 E0.01036
G1 X120.784 Y124.125 E0.00995
G1 X120.484 Y124.227 E0.01074
G1 X120.185 Y124.293 E0.01037
G1 X119.881 Y124.326 E0.01036
G1 X119.575 Y124.326 E0.01036
G1 X119.271 Y124.293 E0.01036
G1 X118.972 Y124.227 E0.01036
G1 X118.682 Y124.130 E0.01036
G1 X118.404 Y124.001 E0.01036
G1 X118.142 Y123.843 E0.01036
G1 X117.899 Y123.658 E0.01036
G1 X117.676 Y123.448 E0.01036
G1 X117.478 Y123.215 E0.01036
G1 X117.307 Y122.961 E0.01036
G1 X117.163 Y122.691 E0.01036
G1 X117.050 Y122.407 E0.01036
G1 X116.968 Y122.112 E0.01036
G1 X116.919 Y121.810 E0.01036
G1 X116.902 Y121.505 E0.01036
G1 X116.919 Y121.199 E0.01036
G1 X116.968 Y120.897 E0.01036
G1 X117.050 Y120.603 E0.01036
G1 X117.163 Y120.318 E0.01036
G1 X117.261 Y120.135 E0.00704
G1 X117.120 Y119.782 F9000.000
G1 E-3.50000 F3600.000
;WIPE_START
G1 F7200.000
G1 X117.478 Y119.795 E-0.19163
G1 X117.676 Y119.562 E-0.14532
G1 X117.899 Y119.351 E-0.14532
G1 X118.142 Y119.166 E-0.14532
G1 X118.404 Y119.008 E-0.14532
G1 X118.682 Y118.880 E-0.14532
G1 X118.972 Y118.782 E-0.14532
G1 X119.271 Y118.717 E-0.14532
G1 X119.575 Y118.683 E-0.14532
G1 X119.724 Y118.683 E-0.07081
;WIPE_END
G1 E-0.07500 F3600.000
G1 X128.378 Y120.773 F9000.000
G1 E5.00000 F2400.000
;TYPE:Perimeter
G1 F2100.000
G1 X124.615 Y125.430 E0.20266
G1 X124.163 Y125.932 E0.02288
G1 X123.675 Y126.372 E0.02223
G1 X123.144 Y126.758 E0.02223
G1 X122.576 Y127.087 E0.02223
G1 X121.976 Y127.355 E0.02223
G1 X121.351 Y127.558 E0.02223
G1 X120.709 Y127.694 E0.02223
G1 X120.056 Y127.763 E0.02223
G1 X119.399 Y127.763 E0.02223
G1 X118.746 Y127.694 E0.02223
G1 X118.104 Y127.558 E0.02223
G1 X117.489 Y127.358 E0.02187
G1 X116.879 Y127.087 E0.02260
G1 X116.311 Y126.758 E0.02221
G1 X115.780 Y126.372 E0.02223
G1 X115.292 Y125.932 E0.02223
G1 X114.841 Y125.430 E0.02288
G1 X111.077 Y120.773 E0.20266
G1 X105.460 Y120.773 E0.19015
G1 X105.460 Y92.237 E0.96590
G1 X133.996 Y92.237 E0.96590
G1 X133.996 Y120.773 E0.96590
G1 X128.438 Y120.773 E0.18812
G1 X128.572 Y121.180 F9000.000
;TYPE:External perimeter
G1 F2100.000
G1 X124.925 Y125.694 E0.19644
G1 X124.452 Y126.220 E0.02396
G1 X123.932 Y126.689 E0.02367
G1 X123.367 Y127.100 E0.02367
G1 X122.761 Y127.450 E0.02367
G1 X122.122 Y127.735 E0.02367
G1 X121.457 Y127.951 E0.02367
G1 X120.773 Y128.097 E0.02367
G1 X120.077 Y128.170 E0.02367
G1 X119.378 Y128.170 E0.02367
G1 X118.682 Y128.097 E0.02367
G1 X117.998 Y127.951 E0.02367
G1 X117.344 Y127.738 E0.02331
G1 X116.694 Y127.450 E0.02405
G1 X116.089 Y127.100 E0.02367
G1 X115.523 Y126.689 E0.02367
G1 X115.004 Y126.220 E0.02367
G1 X114.531 Y125.694 E0.02396
G1 X110.883 Y121.180 E0.19644
G1 X105.053 Y121.180 E0.19735
G1 X105.053 Y91.830 E0.99346
G1 X134.403 Y91.830 E0.99346
G1 X134.403 Y121.180 E0.99346
G1 X128.632 Y121.180 E0.19531
G1 X128.173 Y121.182 F9000.000
G1 E-3.50000 F3600.000
;WIPE_START
G1 F7200.000
G1 X126.728 Y123.498 E-1.42500
;WIPE_END
G1 E-0.07500 F3600.000
G1 X133.874 Y93.186 F9000.000
G1 E5.00000 F2400.000
;TYPE:Solid infill
;WIDTH:0.451776
G1 F2100.000
G1 X133.230 Y92.542 E0.03094
G1 X132.652 Y92.542 E0.01966
G1 X133.690 Y93.581 E0.04993
G1 X133.690 Y94.159 E0.01966
G1 X132.074 Y92.542 E0.07773
G1 X131.495 Y92.542 E0.01966
G1 X133.690 Y94.737 E0.10553
G1 X133.690 Y95.315 E0.01966
G1 X130.917 Y92.542 E0.13333
G1 X130.339 Y92.542 E0.01966
G1 X133.690 Y95.894 E0.16113
G1 X133.690 Y96.472 E0.01966
G1 X129.761 Y92.542 E0.18893
G1 X129.183 Y92.542 E0.01966
G1 X133.690 Y97.050 E0.21673
G1 X133.690 Y97.628 E0.01966
G1 X128.604 Y92.542 E0.24453
G1 X128.026 Y92.542 E0.01966
G1 X133.690 Y98.206 E0.27233
G1 X133.690 Y98.785 E0.01966
G1 X127.448 Y92.542 E0.30012
G1 X126.870 Y92.542 E0.01966
G1 X133.690 Y99.363 E0.32792
G1 X133.690 Y99.941 E0.01966
G1 X126.292 Y92.542 E0.35572
G1 X125.713 Y92.542 E0.01966
G1 X133.690 Y100.519 E0.38352
G1 X133.690 Y101.097 E0.01966
G1 X125.135 Y92.542 E0.41132
G1 X124.557 Y92.542 E0.01966
G1 X133.690 Y101.676 E0.43912
G1 X133.690 Y102.254 E0.01966
G1 X123.979 Y92.542 E0.46692
G1 X123.400 Y92.542 E0.01966
G1 X133.690 Y102.832 E0.49472
G1 X133.690 Y103.410 E0.01966
G1 X122.822 Y92.542 E0.52252
G1 X122.244 Y92.542 E0.01966
G1 X133.690 Y103.988 E0.55032
G1 X133.690 Y104.567 E0.01966
G1 X121.666 Y92.542 E0.57812
G1 X121.088 Y92.542 E0.01966
G1 X133.690 Y105.145 E0.60592
G1 X133.690 Y105.723 E0.01966
G1 X120.509 Y92.542 E0.63372
G1 X119.931 Y92.542 E0.01966
G1 X133.690 Y106.301 E0.66152
G1 X133.690 Y106.880 E0.01966
G1 X119.353 Y92.542 E0.68932
G1 X118.775 Y92.542 E0.01966
G1 X133.690 Y107.458 E0.71711
G1 X133.690 Y108.036 E0.01966
G1 X118.197 Y92.542 E0.74491
G1 X117.618 Y92.542 E0.01966
G1 X133.690 Y108.614 E0.77271
G1 X133.690 Y109.192 E0.01966
G1 X117.040 Y92.542 E0.80051
G1 X116.462 Y92.542 E0.01966
G1 X133.690 Y109.771 E0.82831
G1 X133.690 Y110.349 E0.01966
G1 X115.884 Y92.542 E0.85611
G1 X115.306 Y92.542 E0.01966
G1 X133.690 Y110.927 E0.88391
G1 X133.690 Y111.505 E0.01966
G1 X114.727 Y92.542 E0.91171
G1 X114.149 Y92.542 E0.01966
G1 X133.690 Y112.083 E0.93951
G1 X133.690 Y112.662 E0.01966
G1 X113.571 Y92.542 E0.96731
G1 X112.993 Y92.542 E0.01966
G1 X133.690 Y113.240 E0.99511
G1 X133.690 Y113.818 E0.01966
G1 X112.414 Y92.542 E1.02291
G1 X111.836 Y92.542 E0.01966
G1 X133.690 Y114.396 E1.05071
G1 X133.690 Y114.974 E0.01966
G1 X111.258 Y92.542 E1.07851
G1 X110.680 Y92.542 E0.01966
G1 X133.690 Y115.553 E1.10631
G1 X133.690 Y116.131 E0.01966
G1 X110.102 Y92.542 E1.13411
G1 X109.523 Y92.542 E0.01966
G1 X133.690 Y116.709 E1.16190
G1 X133.690 Y117.287 E0.01966
G1 X108.945 Y92.542 E1.18970
G1 X108.367 Y92.542 E0.01966
G1 X133.690 Y117.866 E1.21750
G1 X133.690 Y118.444 E0.01966
G1 X107.789 Y92.542 E1.24530
G1 X107.211 Y92.542 E0.01966
G1 X133.690 Y119.022 E1.27310
G1 X133.690 Y119.600 E0.01966
G1 X106.632 Y92.542 E1.30090
G1 X106.054 Y92.542 E0.01966
G1 X133.690 Y120.178 E1.32870
G1 X133.690 Y120.467 E0.00983
G1 X133.401 Y120.467 E0.00983
G1 X105.765 Y92.831 E1.32870
G1 X105.765 Y93.410 E0.01966
G1 X132.823 Y120.467 E1.30090
G1 X132.245 Y120.467 E0.01966
G1 X105.765 Y93.988 E1.27310
G1 X105.765 Y94.566 E0.01966
G1 X131.667 Y120.467 E1.24530
G1 X131.088 Y120.467 E0.01966
G1 X105.765 Y95.144 E1.21750
G1 X105.765 Y95.722 E0.01966
G1 X130.510 Y120.467 E1.18970
G1 X129.932 Y120.467 E0.01966
G1 X105.765 Y96.301 E1.16190
G1 X105.765 Y96.879 E0.01966
G1 X129.354 Y120.467 E1.13410
G1 X128.776 Y120.467 E0.01966
G1 X105.765 Y97.457 E1.10630
G1 X105.765 Y98.035 E0.01966
G1 X128.217 Y120.487 E1.07943
G1 X127.958 Y120.807 E0.01398
G1 X105.765 Y98.613 E1.06701
G1 X105.765 Y99.192 E0.01966
G1 X127.700 Y121.126 E1.05458
G1 X127.441 Y121.446 E0.01398
G1 X105.765 Y99.770 E1.04216
G1 X105.765 Y100.348 E0.01966
G1 X127.183 Y121.766 E1.02974
G1 X126.925 Y122.086 E0.01398
G1 X105.765 Y100.926 E1.01731
G1 X105.765 Y101.504 E0.01966
G1 X126.666 Y122.405 E1.00489
G1 X126.408 Y122.725 E0.01398
G1 X105.765 Y102.083 E0.99246
G1 X105.765 Y102.661 E0.01966
G1 X126.149 Y123.045 E0.98004
G1 X125.891 Y123.365 E0.01398
G1 X123.151 Y120.625 E0.13174
G1 X123.246 Y121.122 E0.01722
G1 X123.256 Y121.308 E0.00633
G1 X125.632 Y123.685 E0.11426
G1 X125.374 Y124.004 E0.01398
G1 X123.246 Y121.877 E0.10229
G1 X123.156 Y122.365 E0.01687
G1 X125.116 Y124.324 E0.09420
G1 X124.857 Y124.644 E0.01398
G1 X123.015 Y122.802 E0.08857
G1 X122.831 Y123.196 E0.01479
G1 X124.599 Y124.964 E0.08500
G1 X124.338 Y125.281 E0.01397
G1 X122.609 Y123.552 E0.08312
G1 X122.352 Y123.874 E0.01399
G1 X124.064 Y125.586 E0.08231
G1 X123.773 Y125.873 E0.01390
G1 X122.062 Y124.161 E0.08228
G1 X121.738 Y124.416 E0.01400
G1 X123.468 Y126.146 E0.08317
G1 X123.133 Y126.389 E0.01407
G1 X121.379 Y124.635 E0.08435
G1 X120.977 Y124.812 E0.01491
G1 X122.781 Y126.616 E0.08674
G1 X122.413 Y126.825 E0.01441
G1 X120.533 Y124.946 E0.09037
G1 X120.300 Y124.997 E0.00811
G1 X120.035 Y125.026 E0.00906
G1 X122.013 Y127.004 E0.09509
G1 X121.590 Y127.159 E0.01532
G1 X119.461 Y125.030 E0.10234
G1 X119.155 Y124.997 E0.01047
G1 X118.761 Y124.908 E0.01375
G1 X121.297 Y127.444 E0.12195
G1 E-3.50000 F3600.000
;WIPE_START
G1 F7200.000
G1 X119.176 Y125.323 E-1.42500
;WIPE_END
G1 E-0.07500 F3600.000
G1 X120.885 Y118.359 F9000.000
G1 E5.00000 F2400.000
G1 F2100.000
G1 X105.765 Y103.239 E0.72695
G1 X105.765 Y103.817 E0.01966
G1 X119.919 Y117.971 E0.68049
G1 X119.536 Y117.971 E0.01301
G1 X119.360 Y117.990 E0.00603
G1 X105.765 Y104.396 E0.65361
G1 X105.765 Y104.974 E0.01966
G1 X118.867 Y118.076 E0.62993
G1 X118.427 Y118.214 E0.01568
G1 X105.765 Y105.552 E0.60878
G1 X105.765 Y106.130 E0.01966
G1 X118.034 Y118.400 E0.58989
G1 X117.680 Y118.623 E0.01425
G1 X105.765 Y106.708 E0.57283
G1 X105.765 Y107.287 E0.01966
G1 X117.359 Y118.881 E0.55743
G1 X117.073 Y119.172 E0.01390
G1 X105.765 Y107.865 E0.54365
G1 X105.765 Y108.443 E0.01966
G1 X116.819 Y119.497 E0.53148
G1 X116.601 Y119.858 E0.01431
G1 X105.765 Y109.021 E0.52099
G1 X105.765 Y109.599 E0.01966
G1 X116.421 Y120.256 E0.51234
G1 X116.285 Y120.697 E0.01571
G1 X105.765 Y110.178 E0.50576
G1 X105.765 Y110.756 E0.01966
G1 X116.206 Y121.196 E0.50196
G1 X116.189 Y121.505 E0.01050
G1 X116.203 Y121.772 E0.00911
G1 X105.765 Y111.334 E0.50185
G1 X105.765 Y111.912 E0.01966
G1 X116.627 Y122.774 E0.52220
G1 E-3.50000 F3600.000
;WIPE_START
G1 F7200.000
G1 X114.505 Y120.652 E-1.42500
;WIPE_END
G1 E-0.07500 F3600.000
G1 X120.821 Y127.546 F9000.000
G1 E5.00000 F2400.000
G1 F2100.000
G1 X105.765 Y112.490 E0.72384
G1 X105.765 Y113.069 E0.01966
G1 X120.143 Y127.447 E0.69128
G1 X119.576 Y127.458 E0.01929
G1 X105.765 Y113.647 E0.66401
G1 X105.765 Y114.225 E0.01966
G1 X118.949 Y127.409 E0.63385
G1 X118.794 Y127.392 E0.00528
G1 X118.235 Y127.274 E0.01942
G1 X105.765 Y114.803 E0.59955
G1 X105.765 Y115.381 E0.01966
G1 X110.851 Y120.467 E0.24452
G1 X111.223 Y120.467 E0.01265
G1 X112.790 Y122.407 E0.08477
G1 X117.342 Y126.958 E0.21883
G1 X117.018 Y126.814 E0.01205
G1 X116.478 Y126.502 E0.02121
G1 X115.973 Y126.135 E0.02124
G1 X115.640 Y125.835 E0.01522
G1 X113.998 Y124.193 E0.07894
G1 E-3.50000 F3600.000
;WIPE_START
G1 F7200.000
G1 X115.640 Y125.835 E-1.10300
G1 X115.973 Y126.135 E-0.21270
G1 X116.159 Y126.270 E-0.10931
;WIPE_END
G1 E-0.07500 F3600.000
G1 X110.456 Y120.651 F9000.000
G1 E5.00000 F2400.000
G1 F2100.000
G1 X105.765 Y115.960 E0.22553
G1 X105.765 Y116.538 E0.01966
G1 X109.695 Y120.467 E0.18892
G1 X109.116 Y120.467 E0.01966
G1 X105.765 Y117.116 E0.16113
G1 X105.765 Y117.694 E0.01966
G1 X108.538 Y120.467 E0.13333
G1 X107.960 Y120.467 E0.01966
G1 X105.765 Y118.273 E0.10553
G1 X105.765 Y118.851 E0.01966
G1 X107.382 Y120.467 E0.07773
G1 X106.804 Y120.467 E0.01966
G1 X105.765 Y119.429 E0.04993
G1 X105.765 Y120.007 E0.01966
G1 X106.409 Y120.651 E0.03094
G1 E-3.50000 F3600.000
;WIPE_START
G1 F7200.000
G1 X105.765 Y120.007 E-0.43224
G1 X105.765 Y119.429 E-0.27465
G1 X106.804 Y120.467 E-0.69760
G1 X106.847 Y120.467 E-0.02052
;WIPE_END
G1 E-0.07500 F3600.000
G1 X93.842 Y121.773 F9000.000
