; generated by PrusaSlicer 2.3.3+linux-x64-GTK3 on 2023-01-14 at 12:50:55 UTC

; 

; external perimeters extrusion width = 0.45mm
; perimeters extrusion width = 0.45mm
; infill extrusion width = 0.45mm
; solid infill extrusion width = 0.45mm
; top infill extrusion width = 0.40mm
; first layer extrusion width = 0.45mm

M201 X500 Y500 Z100 E5000 ; sets maximum accelerations, mm/sec^2
M203 X500 Y500 Z10 E60 ; sets maximum feedrates, mm/sec
M204 P500 R1000 T500 ; sets acceleration (P, T) and retract acceleration (R), mm/sec^2
M205 X8.00 Y8.00 Z0.40 E5.00 ; sets the jerk limits, mm/sec
M205 S0 T0 ; sets the minimum extruding and travel feed rate, mm/sec
M107
;TYPE:Custom
G90 ; use absolute coordinates
M83 ; extruder relative mode
M104 S195 ; set extruder temp
M140 S60 ; set bed temp
M190 S60 ; wait for bed temp
M109 S195 ; wait for extruder temp
G28 ; home all
G1 Z2 F240
G1 X2 Y10 F3000
G1 Z0.28 F240
G92 E0
G1 Y190 E15 F1500 ; intro line
G1 X2.3 F5000
G92 E0
G1 Y10 E15 F1200 ; intro line
G92 E0
G21 ; set units to millimeters
G90 ; use absolute coordinates
M83 ; use relative distances for extrusion
; Filament gcode
;LAYER_CHANGE
;Z:0.2
;HEIGHT:0.2
;BEFORE_LAYER_CHANGE
G92 E0
;0.2


G1 E-5.00000 F3600.000
G1 Z0.200 F9000.000
;AFTER_LAYER_CHANGE
;0.2
G1 X172.469 Y101.367
G1 E5.00000 F2400.000
;TYPE:Skirt
;WIDTH:0.45
G1 F2100.000
G1 X172.657 Y102.288 E0.03184
G1 X172.657 Y119.415 E0.57973
G1 X172.549 Y120.114 E0.02392
G1 X172.323 Y120.624 E0.01890
G1 X170.277 Y123.968 E0.13268
G1 X169.915 Y124.310 E0.01684
G1 X169.488 Y124.572 E0.01697
G1 X169.016 Y124.740 E0.01697
G1 X168.519 Y124.806 E0.01697
G1 X51.527 Y124.807 E3.96005
G1 X50.947 Y124.730 E0.01980
G1 X50.406 Y124.518 E0.01967
G1 X49.929 Y124.179 E0.01980
G1 X49.550 Y123.739 E0.01967
G1 X47.617 Y120.515 E0.12725
G1 X47.427 Y120.030 E0.01761
G1 X47.346 Y119.516 E0.01761
G1 X47.347 Y102.166 E0.58729
G1 X47.442 Y101.616 E0.01890
G1 X47.660 Y101.106 E0.01877
G1 X47.989 Y100.659 E0.01877
G1 X48.411 Y100.300 E0.01877
G1 X48.973 Y100.022 E0.02122
G1 X56.995 Y97.314 E0.28658
G1 X57.473 Y97.209 E0.01658
G1 X81.692 Y95.219 E0.82255
G1 X92.254 Y95.193 E0.35750
G1 X162.323 Y97.194 E2.37271
G1 X162.963 Y97.301 E0.02199
G1 X171.195 Y100.086 E0.29416
G1 X171.958 Y100.604 E0.03120
G1 X172.435 Y101.317 E0.02905
G1 E-3.50000 F3600.000
;WIPE_START
G1 F7200.000
G1 X172.657 Y102.288 E-0.47331
G1 X172.657 Y104.292 E-0.95169
;WIPE_END
G1 E-0.07500 F3600.000
G1 X134.727 Y105.107 F9000.000
G1 E5.00000 F2400.000
;TYPE:Perimeter
G1 F2100.000
G1 X134.727 Y105.593 E0.01643
G1 X134.674 Y106.075 E0.01643
G1 X134.570 Y106.549 E0.01643
G1 X134.415 Y107.009 E0.01643
G1 X134.211 Y107.450 E0.01643
G1 X133.961 Y107.866 E0.01643
G1 X133.667 Y108.252 E0.01643
G1 X133.333 Y108.605 E0.01643
G1 X132.963 Y108.919 E0.01643
G1 X132.561 Y109.191 E0.01643
G1 X132.132 Y109.419 E0.01643
G1 X131.681 Y109.598 E0.01643
G1 X131.214 Y109.728 E0.01643
G1 X130.735 Y109.807 E0.01643
G1 X130.250 Y109.833 E0.01643
G1 X129.765 Y109.807 E0.01643
G1 X129.286 Y109.728 E0.01643
G1 X128.819 Y109.598 E0.01643
G1 X128.368 Y109.419 E0.01643
G1 X127.939 Y109.191 E0.01643
G1 X127.537 Y108.919 E0.01643
G1 X127.167 Y108.605 E0.01643
G1 X126.833 Y108.252 E0.01643
G1 X126.539 Y107.866 E0.01643
G1 X126.289 Y107.450 E0.01643
G1 X126.085 Y107.009 E0.01643
G1 X125.930 Y106.549 E0.01643
G1 X125.826 Y106.075 E0.01643
G1 X125.773 Y105.593 E0.01643
G1 X125.773 Y105.107 E0.01643
G1 X125.826 Y104.625 E0.01643
G1 X125.930 Y104.151 E0.01643
G1 X126.085 Y103.691 E0.01643
G1 X126.289 Y103.250 E0.01643
G1 X126.539 Y102.834 E0.01643
G1 X126.833 Y102.448 E0.01643
G1 X127.167 Y102.095 E0.01643
G1 X127.535 Y101.782 E0.01636
G1 X127.939 Y101.508 E0.01652
G1 X128.368 Y101.281 E0.01641
G1 X128.819 Y101.102 E0.01643
G1 X129.286 Y100.972 E0.01643
G1 X129.765 Y100.893 E0.01643
G1 X130.217 Y100.869 E0.01531
G1 X130.732 Y100.893 E0.01747
G1 X131.214 Y100.972 E0.01651
G1 X131.681 Y101.102 E0.01643
G1 X132.132 Y101.281 E0.01643
G1 X132.561 Y101.509 E0.01644
G1 X132.965 Y101.782 E0.01650
G1 X133.333 Y102.095 E0.01636
G1 X133.667 Y102.448 E0.01643
G1 X133.961 Y102.834 E0.01643
G1 X134.211 Y103.250 E0.01643
G1 X134.415 Y103.691 E0.01643
G1 X134.570 Y104.151 E0.01643
G1 X134.674 Y104.625 E0.01643
G1 X134.720 Y105.048 E0.01440
G1 X134.315 Y105.092 F9000.000
;TYPE:External perimeter
G1 F2100.000
G1 X134.319 Y105.571 E0.01621
G1 X134.272 Y106.009 E0.01494
G1 X134.177 Y106.440 E0.01494
G1 X134.036 Y106.858 E0.01494
G1 X133.851 Y107.259 E0.01494
G1 X133.623 Y107.637 E0.01494
G1 X133.356 Y107.988 E0.01494
G1 X133.053 Y108.309 E0.01494
G1 X132.716 Y108.594 E0.01494
G1 X132.351 Y108.842 E0.01494
G1 X131.961 Y109.049 E0.01494
G1 X131.551 Y109.212 E0.01494
G1 X131.126 Y109.330 E0.01494
G1 X130.691 Y109.402 E0.01494
G1 X130.250 Y109.425 E0.01494
G1 X129.809 Y109.402 E0.01494
G1 X129.374 Y109.330 E0.01494
G1 X128.949 Y109.212 E0.01494
G1 X128.539 Y109.049 E0.01494
G1 X128.149 Y108.842 E0.01494
G1 X127.784 Y108.594 E0.01494
G1 X127.447 Y108.309 E0.01494
G1 X127.144 Y107.988 E0.01494
G1 X126.877 Y107.637 E0.01494
G1 X126.649 Y107.259 E0.01494
G1 X126.464 Y106.858 E0.01494
G1 X126.323 Y106.440 E0.01494
G1 X126.228 Y106.009 E0.01494
G1 X126.181 Y105.571 E0.01494
G1 X126.181 Y105.129 E0.01494
G1 X126.228 Y104.691 E0.01494
G1 X126.323 Y104.260 E0.01494
G1 X126.464 Y103.842 E0.01494
G1 X126.649 Y103.441 E0.01494
G1 X126.877 Y103.063 E0.01494
G1 X127.144 Y102.712 E0.01494
G1 X127.447 Y102.391 E0.01494
G1 X127.782 Y102.107 E0.01487
G1 X128.149 Y101.858 E0.01503
G1 X128.539 Y101.651 E0.01491
G1 X128.949 Y101.488 E0.01494
G1 X129.374 Y101.370 E0.01494
G1 X129.809 Y101.298 E0.01494
G1 X130.218 Y101.276 E0.01387
G1 X130.690 Y101.298 E0.01597
G1 X131.126 Y101.370 E0.01497
G1 X131.551 Y101.488 E0.01494
G1 X131.961 Y101.651 E0.01494
G1 X132.351 Y101.858 E0.01494
G1 X132.718 Y102.107 E0.01500
G1 X133.053 Y102.391 E0.01487
G1 X133.356 Y102.712 E0.01494
G1 X133.623 Y103.063 E0.01494
G1 X133.851 Y103.441 E0.01494
G1 X134.036 Y103.842 E0.01494
G1 X134.177 Y104.260 E0.01494
G1 X134.272 Y104.691 E0.01494
G1 X134.309 Y105.032 E0.01162
G1 X134.673 Y105.270 F9000.000
G1 E-3.50000 F3600.000
;WIPE_START
G1 F7200.000
G1 X134.319 Y105.571 E-0.25590
G1 X134.272 Y106.009 E-0.20961
G1 X134.177 Y106.440 E-0.20961
G1 X134.036 Y106.858 E-0.20961
G1 X133.851 Y107.259 E-0.20961
G1 X133.623 Y107.637 E-0.20961
G1 X133.469 Y107.840 E-0.12105
;WIPE_END
G1 E-0.07500 F3600.000
G1 X165.268 Y106.568 F9000.000
G1 E5.00000 F2400.000
;TYPE:Perimeter
G1 F2100.000
G1 X168.132 Y106.568 E0.09695
G1 X168.132 Y114.032 E0.25265
G1 X165.268 Y114.032 E0.09695
G1 X165.268 Y106.628 E0.25062
G1 X165.675 Y106.975 F9000.000
;TYPE:External perimeter
G1 F2100.000
G1 X167.725 Y106.975 E0.06939
G1 X167.725 Y113.625 E0.22509
G1 X165.675 Y113.625 E0.06939
G1 X165.675 Y107.035 E0.22306
G1 X165.635 Y106.577 F9000.000
G1 E-3.50000 F3600.000
;WIPE_START
G1 F7200.000
G1 X167.725 Y106.975 E-0.97417
G1 X167.725 Y107.924 E-0.45083
;WIPE_END
G1 E-0.07500 F3600.000
G1 X92.937 Y105.065 F9000.000
G1 E5.00000 F2400.000
;TYPE:Perimeter
G1 F2100.000
G1 X92.792 Y105.509 E0.01582
G1 X92.559 Y105.914 E0.01582
G1 X92.257 Y106.249 E0.01526
G1 X92.063 Y106.407 E0.00847
G1 X91.853 Y106.543 E0.00845
G1 X91.458 Y106.720 E0.01467
G1 X90.986 Y106.823 E0.01634
G1 X83.715 Y106.832 E0.24614
G1 X83.285 Y106.787 E0.01462
G1 X82.841 Y106.642 E0.01582
G1 X82.436 Y106.409 E0.01582
G1 X82.089 Y106.096 E0.01582
G1 X81.814 Y105.718 E0.01582
G1 X81.631 Y105.306 E0.01526
G1 X81.561 Y105.048 E0.00903
G1 X81.518 Y104.634 E0.01409
G1 X81.527 Y102.865 E0.05990
G1 X81.624 Y102.409 E0.01576
G1 X81.814 Y101.982 E0.01582
G1 X82.079 Y101.618 E0.01526
G1 X82.256 Y101.440 E0.00847
G1 X82.450 Y101.283 E0.00847
G1 X82.841 Y101.058 E0.01526
G1 X83.285 Y100.913 E0.01582
G1 X83.714 Y100.868 E0.01460
G1 X90.786 Y100.868 E0.23937
G1 X91.215 Y100.913 E0.01460
G1 X91.659 Y101.058 E0.01582
G1 X92.050 Y101.283 E0.01526
G1 X92.257 Y101.451 E0.00904
G1 X92.559 Y101.786 E0.01526
G1 X92.792 Y102.191 E0.01582
G1 X92.937 Y102.635 E0.01582
G1 X92.982 Y103.064 E0.01460
G1 X92.982 Y104.636 E0.05320
G1 X92.943 Y105.005 E0.01257
G1 X91.823 Y106.077 F9000.000
;TYPE:External perimeter
G1 F2100.000
G1 X91.658 Y106.184 E0.00666
G1 X91.329 Y106.331 E0.01219
G1 X90.942 Y106.416 E0.01343
G1 X83.736 Y106.425 E0.24392
G1 X83.370 Y106.386 E0.01244
G1 X83.007 Y106.268 E0.01292
G1 X82.676 Y106.078 E0.01292
G1 X82.393 Y105.822 E0.01292
G1 X82.168 Y105.513 E0.01292
G1 X82.015 Y105.170 E0.01272
G1 X81.963 Y104.974 E0.00687
G1 X81.925 Y104.614 E0.01225
G1 X81.934 Y102.909 E0.05773
G1 X82.013 Y102.536 E0.01290
G1 X82.168 Y102.187 E0.01292
G1 X82.389 Y101.883 E0.01272
G1 X82.529 Y101.743 E0.00667
G1 X82.682 Y101.619 E0.00667
G1 X83.007 Y101.432 E0.01272
G1 X83.370 Y101.314 E0.01292
G1 X83.736 Y101.275 E0.01243
G1 X90.764 Y101.275 E0.23792
G1 X91.130 Y101.314 E0.01243
G1 X91.493 Y101.432 E0.01292
G1 X91.818 Y101.619 E0.01272
G1 X91.976 Y101.747 E0.00687
G1 X92.228 Y102.026 E0.01272
G1 X92.418 Y102.357 E0.01292
G1 X92.536 Y102.720 E0.01292
G1 X92.575 Y103.086 E0.01243
G1 X92.575 Y104.614 E0.05175
G1 X92.536 Y104.980 E0.01243
G1 X92.418 Y105.343 E0.01292
G1 X92.228 Y105.674 E0.01292
G1 X91.976 Y105.953 E0.01272
G1 X91.870 Y106.039 E0.00464
G1 X91.847 Y106.272 F9000.000
G1 E-3.50000 F3600.000
;WIPE_START
G1 F7200.000
G1 X91.658 Y106.184 E-0.12182
G1 X91.329 Y106.331 E-0.17104
G1 X90.942 Y106.416 E-0.18850
G1 X88.955 Y106.419 E-0.94365
;WIPE_END
G1 E-0.07500 F3600.000
G1 X54.732 Y106.568 F9000.000
G1 E5.00000 F2400.000
;TYPE:Perimeter
G1 F2100.000
G1 X54.732 Y114.032 E0.25265
G1 X51.868 Y114.032 E0.09695
G1 X51.868 Y106.568 E0.25265
G1 X54.672 Y106.568 E0.09492
G1 X54.325 Y106.975 F9000.000
;TYPE:External perimeter
G1 F2100.000
G1 X54.325 Y113.625 E0.22509
G1 X52.275 Y113.625 E0.06939
G1 X52.275 Y106.975 E0.22509
G1 X54.265 Y106.975 E0.06736
G1 X54.690 Y106.810 F9000.000
G1 E-3.50000 F3600.000
;WIPE_START
G1 F7200.000
G1 X54.292 Y109.975 E-1.42500
;WIPE_END
G1 E-0.07500 F3600.000
G1 X95.317 Y100.332 F9000.000
G1 E5.00000 F2400.000
;TYPE:Perimeter
G1 F2100.000
G1 X161.518 Y100.332 E2.24084
G1 X161.518 Y103.032 E0.09139
G1 X169.518 Y103.032 E0.27079
G1 X169.518 Y119.197 E0.54717
G1 X168.036 Y121.668 E0.09753
G1 X51.964 Y121.668 E3.92887
G1 X50.482 Y119.197 E0.09753
G1 X50.482 Y103.032 E0.54717
G1 X58.482 Y103.032 E0.27079
G1 X58.482 Y100.332 E0.09139
G1 X79.183 Y100.332 E0.70071
G1 X79.607 Y99.680 E0.02633
G1 X79.822 Y99.414 E0.01157
G1 X80.064 Y99.172 E0.01157
G1 X80.330 Y98.957 E0.01157
G1 X80.617 Y98.771 E0.01157
G1 X80.921 Y98.616 E0.01157
G1 X81.240 Y98.493 E0.01157
G1 X81.571 Y98.404 E0.01157
G1 X81.909 Y98.351 E0.01157
G1 X82.269 Y98.332 E0.01222
G1 X92.231 Y98.332 E0.33719
G1 X92.591 Y98.351 E0.01222
G1 X92.929 Y98.404 E0.01157
G1 X93.260 Y98.493 E0.01157
G1 X93.579 Y98.616 E0.01157
G1 X93.883 Y98.771 E0.01157
G1 X94.170 Y98.957 E0.01157
G1 X94.436 Y99.172 E0.01157
G1 X94.678 Y99.414 E0.01157
G1 X94.893 Y99.680 E0.01157
G1 X95.284 Y100.282 E0.02430
G1 X95.538 Y99.925 F9000.000
;TYPE:External perimeter
G1 F2100.000
G1 X161.925 Y99.925 E2.24713
G1 X161.925 Y102.625 E0.09139
G1 X169.925 Y102.625 E0.27079
G1 X169.925 Y119.310 E0.56477
G1 X168.266 Y122.075 E0.10915
G1 X51.734 Y122.075 E3.94447
G1 X50.075 Y119.310 E0.10915
G1 X50.075 Y102.625 E0.56477
G1 X58.075 Y102.625 E0.27079
G1 X58.075 Y99.925 E0.09139
G1 X78.962 Y99.925 E0.70701
G1 X79.277 Y99.440 E0.01957
G1 X79.519 Y99.141 E0.01302
G1 X79.791 Y98.869 E0.01302
G1 X80.090 Y98.627 E0.01302
G1 X80.413 Y98.418 E0.01302
G1 X80.755 Y98.243 E0.01302
G1 X81.114 Y98.105 E0.01302
G1 X81.486 Y98.006 E0.01302
G1 X81.866 Y97.946 E0.01302
G1 X82.259 Y97.925 E0.01331
G1 X92.241 Y97.925 E0.33791
G1 X92.634 Y97.946 E0.01331
G1 X93.014 Y98.006 E0.01302
G1 X93.386 Y98.105 E0.01302
G1 X93.745 Y98.243 E0.01302
G1 X94.087 Y98.418 E0.01302
G1 X94.410 Y98.627 E0.01302
G1 X94.709 Y98.869 E0.01302
G1 X94.981 Y99.141 E0.01302
G1 X95.223 Y99.440 E0.01302
G1 X95.505 Y99.875 E0.01754
G1 X95.619 Y100.317 F9000.000
G1 E-3.50000 F3600.000
;WIPE_START
G1 F7200.000
G1 X98.505 Y99.877 E-1.42500
;WIPE_END
G1 E-0.07500 F3600.000
G1 X128.830 Y100.708 F9000.000
G1 E5.00000 F2400.000
;TYPE:Gap fill
;WIDTH:0.281462
G1 F2100.000
G1 X129.477 Y100.634 E0.01292
;WIDTH:0.172242
G1 X130.219 Y100.600 E0.00799
;WIDTH:0.198307
G1 X130.766 Y100.613 E0.00707
;WIDTH:0.239884
G1 X131.022 Y100.634 E0.00420
;WIDTH:0.28429
G1 X131.290 Y100.656 E0.00540
;WIDTH:0.3156
G1 X131.480 Y100.682 E0.00436
;WIDTH:0.346912
G1 X131.670 Y100.708 E0.00486
G1 E-3.50000 F3600.000
;WIPE_START
G1 F7200.000
G1 X131.480 Y100.682 E-0.09124
;WIPE_END
G1 E-1.40876 F3600.000
G1 X168.569 Y103.154 F9000.000
G1 E5.00000 F2400.000
;TYPE:Solid infill
;WIDTH:0.451616
G1 F2100.000
G1 X169.213 Y103.797 E0.03091
G1 X169.213 Y104.375 E0.01964
G1 X168.175 Y103.337 E0.04988
G1 X167.597 Y103.337 E0.01964
G1 X169.213 Y104.953 E0.07766
G1 X169.213 Y105.531 E0.01964
G1 X167.019 Y103.337 E0.10544
G1 X166.441 Y103.337 E0.01964
G1 X169.213 Y106.109 E0.13322
G1 X169.213 Y106.687 E0.01964
G1 X165.863 Y103.337 E0.16099
G1 X165.285 Y103.337 E0.01964
G1 X169.213 Y107.265 E0.18877
G1 X169.213 Y107.843 E0.01964
G1 X168.437 Y107.068 E0.03726
G1 X168.437 Y107.646 E0.01964
G1 X169.213 Y108.421 E0.03726
G1 X169.213 Y108.999 E0.01964
G1 X168.437 Y108.224 E0.03726
G1 X168.437 Y108.802 E0.01964
G1 X169.213 Y109.577 E0.03726
G1 X169.213 Y110.155 E0.01964
G1 X168.437 Y109.380 E0.03726
G1 X168.437 Y109.958 E0.01964
G1 X169.213 Y110.733 E0.03726
G1 X169.213 Y111.311 E0.01964
G1 X168.437 Y110.536 E0.03726
G1 X168.437 Y111.114 E0.01964
G1 X169.213 Y111.889 E0.03726
G1 X169.213 Y112.467 E0.01964
G1 X168.437 Y111.692 E0.03726
G1 X168.437 Y112.270 E0.01964
G1 X169.213 Y113.045 E0.03726
G1 X169.213 Y113.623 E0.01964
G1 X168.437 Y112.848 E0.03726
G1 X168.437 Y113.426 E0.01964
G1 X169.213 Y114.201 E0.03726
G1 X169.213 Y114.779 E0.01964
G1 X168.437 Y114.004 E0.03726
G1 X168.437 Y114.337 E0.01134
G1 X168.193 Y114.337 E0.00831
G1 X169.213 Y115.357 E0.04900
G1 X169.213 Y115.935 E0.01964
G1 X167.615 Y114.337 E0.07678
G1 X167.037 Y114.337 E0.01964
G1 X169.213 Y116.513 E0.10456
G1 X169.213 Y117.091 E0.01964
G1 X166.459 Y114.337 E0.13234
G1 X165.881 Y114.337 E0.01964
G1 X169.396 Y117.852 E0.16892
G1 E-3.50000 F3600.000
;WIPE_START
G1 F7200.000
G1 X167.274 Y115.731 E-1.42500
;WIPE_END
G1 E-0.07500 F3600.000
G1 X167.815 Y106.446 F9000.000
G1 E5.00000 F2400.000
G1 F2100.000
G1 X164.707 Y103.337 E0.14939
G1 X164.129 Y103.337 E0.01964
G1 X167.054 Y106.263 E0.14059
G1 X166.476 Y106.263 E0.01964
G1 X163.551 Y103.337 E0.14059
G1 X162.973 Y103.337 E0.01964
G1 X165.898 Y106.263 E0.14059
G1 X165.320 Y106.263 E0.01964
G1 X162.395 Y103.337 E0.14059
G1 X161.817 Y103.337 E0.01964
G1 X165.146 Y106.666 E0.15999
G1 E-3.50000 F3600.000
;WIPE_START
G1 F7200.000
G1 X163.024 Y104.545 E-1.42500
;WIPE_END
G1 E-0.07500 F3600.000
G1 X161.396 Y101.182 F9000.000
G1 E5.00000 F2400.000
G1 F2100.000
G1 X160.851 Y100.637 E0.02619
G1 X160.273 Y100.637 E0.01964
G1 X161.213 Y101.577 E0.04517
G1 X161.213 Y102.155 E0.01964
G1 X159.695 Y100.637 E0.07294
G1 X159.117 Y100.637 E0.01964
G1 X161.396 Y102.916 E0.10953
G1 E-3.50000 F3600.000
;WIPE_START
G1 F7200.000
G1 X159.274 Y100.795 E-1.42500
;WIPE_END
G1 E-0.07500 F3600.000
G1 X158.356 Y100.454 F9000.000
G1 E5.00000 F2400.000
G1 F2100.000
G1 X164.963 Y107.061 E0.31753
G1 X164.963 Y107.639 E0.01964
G1 X157.961 Y100.637 E0.33650
G1 X157.383 Y100.637 E0.01964
G1 X164.963 Y108.217 E0.36428
G1 X164.963 Y108.795 E0.01964
G1 X156.805 Y100.637 E0.39206
G1 X156.227 Y100.637 E0.01964
G1 X164.963 Y109.373 E0.41983
G1 X164.963 Y109.951 E0.01964
G1 X155.649 Y100.637 E0.44761
G1 X155.071 Y100.637 E0.01964
G1 X164.963 Y110.529 E0.47539
G1 X164.963 Y111.107 E0.01964
G1 X154.493 Y100.637 E0.50317
G1 X153.915 Y100.637 E0.01964
G1 X164.963 Y111.685 E0.53094
G1 X164.963 Y112.263 E0.01964
G1 X153.337 Y100.637 E0.55872
G1 X152.759 Y100.637 E0.01964
G1 X164.963 Y112.841 E0.58650
G1 X164.963 Y113.419 E0.01964
G1 X152.181 Y100.637 E0.61428
G1 X151.603 Y100.637 E0.01964
G1 X169.213 Y118.247 E0.84631
