; generated by PrusaSlicer 2.3.3+linux-x64-GTK3 on 2023-01-14 at 12:48:49 UTC

; 

; external perimeters extrusion width = 0.45mm
; perimeters extrusion width = 0.45mm
; infill extrusion width = 0.45mm
; solid infill extrusion width = 0.45mm
; top infill extrusion width = 0.40mm
; first layer extrusion width = 0.45mm

M201 X500 Y500 Z100 E5000 ; sets maximum accelerations, mm/sec^2
M203 X500 Y500 Z10 E60 ; sets maximum feedrates, mm/sec
M204 P500 R1000 T500 ; sets acceleration (P, T) and retract acceleration (R), mm/sec^2
M205 X8.00 Y8.00 Z0.40 E5.00 ; sets the jerk limits, mm/sec
M205 S0 T0 ; sets the minimum extruding and travel feed rate, mm/sec
M107
;TYPE:Custom
G90 ; use absolute coordinates
M83 ; extruder relative mode
M104 S195 ; set extruder temp
M140 S60 ; set bed temp
M190 S60 ; wait for bed temp
M109 S195 ; wait for extruder temp
G28 ; home all
G1 Z2 F240
G1 X2 Y10 F3000
G1 Z0.28 F240
G92 E0
G1 Y190 E15 F1500 ; intro line
G1 X2.3 F5000
G92 E0
G1 Y10 E15 F1200 ; intro line
G92 E0
G21 ; set units to millimeters
G90 ; use absolute coordinates
M83 ; use relative distances for extrusion
; Filament gcode
;LAYER_CHANGE
;Z:0.2
;HEIGHT:0.2
;BEFORE_LAYER_CHANGE
G92 E0
;0.2


G1 E-5.00000 F3600.000
G1 Z0.200 F9000.000
;AFTER_LAYER_CHANGE
;0.2
G1 X46.973 Y77.461
G1 E5.00000 F2400.000
;TYPE:Skirt
;WIDTH:0.45
G1 F2100.000
G1 X47.630 Y77.119 E0.02507
G1 X97.997 Y60.474 E1.79555
G1 X98.947 Y60.225 E0.03325
G1 X100.062 Y60.047 E0.03822
G1 X101.094 Y59.993 E0.03498
G1 X119.127 Y59.993 E0.61039
G1 X121.005 Y60.174 E0.06386
G1 X122.117 Y60.451 E0.03880
G1 X172.361 Y77.117 E1.79182
G1 X173.143 Y77.553 E0.03031
G1 X173.710 Y78.242 E0.03018
G1 X173.930 Y78.796 E0.02019
G1 X174.007 Y79.391 E0.02032
G1 X174.007 Y157.604 E2.64741
G1 X173.890 Y158.343 E0.02533
G1 X173.549 Y159.013 E0.02545
G1 X173.165 Y159.429 E0.01916
G1 X172.698 Y159.742 E0.01903
G1 X172.171 Y159.938 E0.01903
G1 X171.609 Y160.007 E0.01916
G1 X48.392 Y160.007 E4.17075
G1 X47.654 Y159.888 E0.02533
G1 X46.987 Y159.549 E0.02533
G1 X46.573 Y159.168 E0.01903
G1 X46.260 Y158.701 E0.01903
G1 X46.063 Y158.175 E0.01903
G1 X45.993 Y157.617 E0.01903
G1 X45.993 Y79.385 E2.64807
G1 X46.113 Y78.650 E0.02520
G1 X46.451 Y77.987 E0.02520
G1 X46.931 Y77.504 E0.02304
G1 E-3.50000 F3600.000
;WIPE_START
G1 F7200.000
G1 X47.630 Y77.119 E-0.37906
G1 X49.721 Y76.428 E-1.04595
;WIPE_END
G1 E-0.07500 F3600.000
G1 X165.268 Y112.768 F9000.000
G1 E5.00000 F2400.000
;TYPE:Perimeter
G1 F2100.000
G1 X168.332 Y112.768 E0.10372
G1 X168.332 Y124.232 E0.38805
G1 X165.268 Y124.232 E0.10372
G1 X165.268 Y112.828 E0.38602
G1 X165.675 Y113.175 F9000.000
;TYPE:External perimeter
G1 F2100.000
G1 X167.925 Y113.175 E0.07616
G1 X167.925 Y123.825 E0.36049
G1 X165.675 Y123.825 E0.07616
G1 X165.675 Y113.235 E0.35846
G1 X165.647 Y112.776 F9000.000
G1 E-3.50000 F3600.000
;WIPE_START
G1 F7200.000
G1 X167.925 Y113.175 E-1.06913
G1 X167.925 Y113.924 E-0.35587
;WIPE_END
G1 E-0.07500 F3600.000
G1 X166.629 Y86.882 F9000.000
G1 E5.00000 F2400.000
;TYPE:Perimeter
G1 F2100.000
G1 X166.115 Y86.855 E0.01743
G1 X165.654 Y86.728 E0.01616
G1 X165.371 Y86.600 E0.01054
G1 X164.970 Y86.328 E0.01640
G1 X164.757 Y86.127 E0.00990
G1 X164.456 Y85.730 E0.01688
G1 X164.239 Y85.262 E0.01746
G1 X164.128 Y84.758 E0.01746
G1 X164.128 Y84.242 E0.01746
G1 X164.239 Y83.738 E0.01746
G1 X164.456 Y83.270 E0.01746
G1 X164.768 Y82.859 E0.01746
G1 X165.148 Y82.536 E0.01688
G1 X165.398 Y82.386 E0.00990
G1 X165.862 Y82.201 E0.01688
G1 X166.370 Y82.118 E0.01743
G1 X166.847 Y82.142 E0.01616
G1 X167.152 Y82.206 E0.01054
G1 X167.618 Y82.392 E0.01698
G1 X168.045 Y82.682 E0.01746
G1 X168.388 Y83.044 E0.01688
G1 X168.552 Y83.286 E0.00990
G1 X168.761 Y83.738 E0.01688
G1 X168.868 Y84.225 E0.01688
G1 X168.884 Y84.517 E0.00990
G1 X168.830 Y85.013 E0.01688
G1 X168.665 Y85.502 E0.01746
G1 X168.399 Y85.944 E0.01746
G1 X168.045 Y86.318 E0.01746
G1 X167.618 Y86.608 E0.01746
G1 X167.138 Y86.799 E0.01746
G1 X166.688 Y86.873 E0.01543
G1 X166.623 Y86.471 F9000.000
;TYPE:External perimeter
G1 F2100.000
G1 X166.181 Y86.450 E0.01498
G1 X165.793 Y86.344 E0.01361
G1 X165.570 Y86.243 E0.00828
G1 X165.226 Y86.010 E0.01409
G1 X165.061 Y85.854 E0.00765
G1 X164.806 Y85.519 E0.01426
G1 X164.627 Y85.131 E0.01447
G1 X164.535 Y84.714 E0.01447
G1 X164.535 Y84.286 E0.01447
G1 X164.627 Y83.869 E0.01447
G1 X164.806 Y83.481 E0.01447
G1 X165.065 Y83.141 E0.01447
G1 X165.386 Y82.868 E0.01426
G1 X165.580 Y82.751 E0.00765
G1 X165.971 Y82.596 E0.01426
G1 X166.393 Y82.526 E0.01446
G1 X166.794 Y82.547 E0.01361
G1 X167.033 Y82.597 E0.00828
G1 X167.426 Y82.754 E0.01429
G1 X167.780 Y82.994 E0.01447
G1 X168.069 Y83.299 E0.01426
G1 X168.196 Y83.487 E0.00765
G1 X168.373 Y83.869 E0.01426
G1 X168.464 Y84.280 E0.01426
G1 X168.476 Y84.506 E0.00765
G1 X168.430 Y84.925 E0.01426
G1 X168.294 Y85.330 E0.01447
G1 X168.073 Y85.696 E0.01447
G1 X167.780 Y86.006 E0.01447
G1 X167.426 Y86.246 E0.01447
G1 X167.029 Y86.404 E0.01447
G1 X166.682 Y86.461 E0.01190
G1 X166.444 Y86.829 F9000.000
G1 E-3.50000 F3600.000
;WIPE_START
G1 F7200.000
G1 X166.181 Y86.450 E-0.23811
G1 X165.793 Y86.344 E-0.19095
G1 X165.570 Y86.243 E-0.11616
G1 X165.226 Y86.010 E-0.19768
G1 X165.061 Y85.854 E-0.10742
G1 X164.806 Y85.519 E-0.20009
G1 X164.627 Y85.131 E-0.20301
G1 X164.549 Y84.778 E-0.17158
;WIPE_END
G1 E-0.07500 F3600.000
G1 X167.138 Y150.201 F9000.000
G1 E5.00000 F2400.000
;TYPE:Perimeter
G1 F2100.000
G1 X167.618 Y150.392 E0.01746
G1 X168.045 Y150.682 E0.01746
G1 X168.388 Y151.044 E0.01688
G1 X168.552 Y151.286 E0.00990
G1 X168.761 Y151.738 E0.01688
G1 X168.868 Y152.225 E0.01688
G1 X168.884 Y152.517 E0.00990
G1 X168.830 Y153.013 E0.01688
G1 X168.665 Y153.502 E0.01746
G1 X168.399 Y153.944 E0.01746
G1 X168.045 Y154.318 E0.01746
G1 X167.618 Y154.608 E0.01746
G1 X167.138 Y154.799 E0.01746
G1 X166.646 Y154.880 E0.01688
G1 X166.354 Y154.880 E0.00990
G1 X165.862 Y154.799 E0.01688
G1 X165.382 Y154.608 E0.01746
G1 X164.970 Y154.328 E0.01688
G1 X164.757 Y154.127 E0.00990
G1 X164.456 Y153.730 E0.01688
G1 X164.239 Y153.262 E0.01746
G1 X164.128 Y152.758 E0.01746
G1 X164.128 Y152.242 E0.01746
G1 X164.239 Y151.738 E0.01746
G1 X164.456 Y151.270 E0.01746
G1 X164.757 Y150.873 E0.01688
G1 X164.970 Y150.672 E0.00990
G1 X165.382 Y150.392 E0.01688
G1 X165.862 Y150.201 E0.01746
G1 X166.354 Y150.120 E0.01688
G1 X166.646 Y150.120 E0.00990
G1 X167.079 Y150.191 E0.01485
G1 X167.013 Y150.593 F9000.000
;TYPE:External perimeter
G1 F2100.000
G1 X167.426 Y150.754 E0.01499
G1 X167.780 Y150.994 E0.01447
G1 X168.069 Y151.299 E0.01426
G1 X168.196 Y151.487 E0.00765
G1 X168.373 Y151.869 E0.01426
G1 X168.464 Y152.280 E0.01426
G1 X168.476 Y152.506 E0.00765
G1 X168.430 Y152.925 E0.01426
G1 X168.294 Y153.330 E0.01447
G1 X168.073 Y153.696 E0.01447
G1 X167.780 Y154.006 E0.01447
G1 X167.426 Y154.246 E0.01447
G1 X167.029 Y154.404 E0.01447
G1 X166.613 Y154.473 E0.01426
G1 X166.387 Y154.473 E0.00765
G1 X165.971 Y154.404 E0.01426
G1 X165.574 Y154.246 E0.01447
G1 X165.226 Y154.010 E0.01426
G1 X165.061 Y153.854 E0.00765
G1 X164.806 Y153.519 E0.01426
G1 X164.627 Y153.131 E0.01447
G1 X164.535 Y152.714 E0.01447
G1 X164.535 Y152.286 E0.01447
G1 X164.627 Y151.869 E0.01447
G1 X164.806 Y151.481 E0.01447
G1 X165.061 Y151.146 E0.01426
G1 X165.226 Y150.990 E0.00765
G1 X165.574 Y150.754 E0.01426
G1 X165.971 Y150.596 E0.01447
G1 X166.387 Y150.527 E0.01426
G1 X166.613 Y150.527 E0.00765
G1 X166.954 Y150.583 E0.01170
G1 X167.302 Y150.316 F9000.000
G1 E-3.50000 F3600.000
;WIPE_START
G1 F7200.000
G1 X167.426 Y150.754 E-0.23826
G1 X167.780 Y150.994 E-0.20301
G1 X168.069 Y151.299 E-0.20009
G1 X168.196 Y151.487 E-0.10742
G1 X168.373 Y151.869 E-0.20009
G1 X168.464 Y152.280 E-0.20009
G1 X168.476 Y152.506 E-0.10742
G1 X168.437 Y152.859 E-0.16862
;WIPE_END
G1 E-0.07500 F3600.000
G1 X55.872 Y152.242 F9000.000
G1 E5.00000 F2400.000
;TYPE:Perimeter
G1 F2100.000
G1 X55.872 Y152.758 E0.01746
G1 X55.761 Y153.262 E0.01746
G1 X55.544 Y153.730 E0.01746
G1 X55.232 Y154.141 E0.01746
G1 X54.839 Y154.475 E0.01746
G1 X54.398 Y154.708 E0.01688
G1 X54.121 Y154.802 E0.00990
G1 X53.646 Y154.880 E0.01629
G1 X53.354 Y154.880 E0.00990
G1 X52.862 Y154.799 E0.01688
G1 X52.382 Y154.608 E0.01746
G1 X51.955 Y154.318 E0.01746
G1 X51.612 Y153.956 E0.01688
G1 X51.448 Y153.714 E0.00990
G1 X51.239 Y153.262 E0.01688
G1 X51.132 Y152.775 E0.01688
G1 X51.116 Y152.483 E0.00990
G1 X51.170 Y151.987 E0.01688
G1 X51.335 Y151.498 E0.01746
G1 X51.601 Y151.056 E0.01746
G1 X51.955 Y150.682 E0.01746
G1 X52.382 Y150.392 E0.01746
G1 X52.862 Y150.201 E0.01746
G1 X53.354 Y150.120 E0.01688
G1 X53.646 Y150.120 E0.00990
G1 X54.138 Y150.201 E0.01688
G1 X54.618 Y150.392 E0.01746
G1 X55.030 Y150.672 E0.01688
G1 X55.243 Y150.873 E0.00990
G1 X55.544 Y151.270 E0.01688
G1 X55.761 Y151.738 E0.01746
G1 X55.859 Y152.183 E0.01543
G1 X55.462 Y152.271 F9000.000
;TYPE:External perimeter
G1 F2100.000
G1 X55.465 Y152.714 E0.01499
G1 X55.373 Y153.131 E0.01447
G1 X55.194 Y153.519 E0.01447
G1 X54.935 Y153.859 E0.01447
G1 X54.609 Y154.136 E0.01447
G1 X54.237 Y154.333 E0.01426
G1 X54.023 Y154.405 E0.00766
G1 X53.613 Y154.473 E0.01405
G1 X53.387 Y154.473 E0.00765
G1 X52.971 Y154.404 E0.01426
G1 X52.574 Y154.246 E0.01447
G1 X52.220 Y154.006 E0.01447
G1 X51.931 Y153.701 E0.01426
G1 X51.804 Y153.513 E0.00765
G1 X51.627 Y153.131 E0.01426
G1 X51.536 Y152.720 E0.01426
G1 X51.524 Y152.494 E0.00765
G1 X51.570 Y152.075 E0.01426
G1 X51.706 Y151.670 E0.01447
G1 X51.927 Y151.304 E0.01447
G1 X52.220 Y150.994 E0.01447
G1 X52.574 Y150.754 E0.01447
G1 X52.971 Y150.596 E0.01447
G1 X53.387 Y150.527 E0.01426
G1 X53.613 Y150.527 E0.00765
G1 X54.029 Y150.596 E0.01426
G1 X54.426 Y150.754 E0.01447
G1 X54.774 Y150.990 E0.01426
G1 X54.939 Y151.146 E0.00765
G1 X55.194 Y151.481 E0.01426
G1 X55.373 Y151.869 E0.01447
G1 X55.449 Y152.212 E0.01190
G1 X55.828 Y152.430 F9000.000
G1 E-3.50000 F3600.000
;WIPE_START
G1 F7200.000
G1 X55.465 Y152.714 E-0.23827
G1 X55.373 Y153.131 E-0.20301
G1 X55.194 Y153.519 E-0.20301
G1 X54.935 Y153.859 E-0.20301
G1 X54.609 Y154.136 E-0.20301
G1 X54.237 Y154.333 E-0.20009
G1 X54.023 Y154.405 E-0.10742
G1 X53.883 Y154.428 E-0.06719
;WIPE_END
G1 E-0.07500 F3600.000
G1 X54.732 Y124.232 F9000.000
G1 E5.00000 F2400.000
;TYPE:Perimeter
G1 F2100.000
G1 X51.668 Y124.232 E0.10372
G1 X51.668 Y112.768 E0.38805
G1 X54.732 Y112.768 E0.10372
G1 X54.732 Y124.172 E0.38602
G1 X54.325 Y123.825 F9000.000
;TYPE:External perimeter
G1 F2100.000
G1 X52.075 Y123.825 E0.07616
G1 X52.075 Y113.175 E0.36049
G1 X54.325 Y113.175 E0.07616
G1 X54.325 Y123.765 E0.35846
G1 X54.353 Y124.224 F9000.000
G1 E-3.50000 F3600.000
;WIPE_START
G1 F7200.000
G1 X52.075 Y123.825 E-1.06913
G1 X52.075 Y123.076 E-0.35587
;WIPE_END
G1 E-0.07500 F3600.000
G1 X54.138 Y86.799 F9000.000
G1 E5.00000 F2400.000
;TYPE:Perimeter
G1 F2100.000
G1 X53.646 Y86.880 E0.01688
G1 X53.354 Y86.880 E0.00990
G1 X52.862 Y86.799 E0.01688
G1 X52.382 Y86.608 E0.01746
G1 X51.955 Y86.318 E0.01746
G1 X51.612 Y85.956 E0.01688
G1 X51.448 Y85.714 E0.00990
G1 X51.239 Y85.262 E0.01688
G1 X51.132 Y84.775 E0.01688
G1 X51.116 Y84.483 E0.00990
G1 X51.170 Y83.987 E0.01688
G1 X51.335 Y83.498 E0.01746
G1 X51.601 Y83.056 E0.01746
G1 X51.955 Y82.682 E0.01746
G1 X52.382 Y82.392 E0.01746
G1 X52.862 Y82.201 E0.01746
G1 X53.370 Y82.118 E0.01743
G1 X53.847 Y82.142 E0.01616
G1 X54.152 Y82.206 E0.01054
G1 X54.618 Y82.392 E0.01698
G1 X55.030 Y82.672 E0.01688
G1 X55.243 Y82.873 E0.00990
G1 X55.544 Y83.270 E0.01688
G1 X55.761 Y83.738 E0.01746
G1 X55.872 Y84.242 E0.01746
G1 X55.872 Y84.758 E0.01746
G1 X55.761 Y85.262 E0.01746
G1 X55.544 Y85.730 E0.01746
G1 X55.243 Y86.127 E0.01688
G1 X55.030 Y86.328 E0.00990
G1 X54.618 Y86.608 E0.01688
G1 X54.194 Y86.777 E0.01543
G1 X54.043 Y86.399 F9000.000
;TYPE:External perimeter
G1 F2100.000
G1 X53.613 Y86.473 E0.01478
G1 X53.387 Y86.473 E0.00765
G1 X52.971 Y86.404 E0.01426
G1 X52.574 Y86.246 E0.01447
G1 X52.220 Y86.006 E0.01447
G1 X51.931 Y85.701 E0.01426
G1 X51.804 Y85.513 E0.00765
G1 X51.627 Y85.131 E0.01426
G1 X51.536 Y84.720 E0.01426
G1 X51.524 Y84.494 E0.00765
G1 X51.570 Y84.075 E0.01426
G1 X51.706 Y83.670 E0.01447
G1 X51.927 Y83.304 E0.01447
G1 X52.220 Y82.994 E0.01447
G1 X52.574 Y82.754 E0.01447
G1 X52.971 Y82.596 E0.01447
G1 X53.393 Y82.526 E0.01446
G1 X53.794 Y82.547 E0.01361
G1 X54.033 Y82.597 E0.00828
G1 X54.426 Y82.754 E0.01429
G1 X54.774 Y82.990 E0.01426
G1 X54.939 Y83.146 E0.00765
G1 X55.194 Y83.481 E0.01426
G1 X55.373 Y83.869 E0.01447
G1 X55.465 Y84.286 E0.01447
G1 X55.465 Y84.714 E0.01447
G1 X55.373 Y85.131 E0.01447
G1 X55.194 Y85.519 E0.01447
G1 X54.939 Y85.854 E0.01426
G1 X54.774 Y86.010 E0.00765
G1 X54.426 Y86.246 E0.01426
G1 X54.099 Y86.376 E0.01190
G1 X53.946 Y86.786 F9000.000
G1 E-3.50000 F3600.000
;WIPE_START
G1 F7200.000
G1 X53.613 Y86.473 E-0.23535
G1 X53.387 Y86.473 E-0.10742
G1 X52.971 Y86.404 E-0.20009
G1 X52.574 Y86.246 E-0.20301
G1 X52.220 Y86.006 E-0.20301
G1 X51.931 Y85.701 E-0.20009
G1 X51.804 Y85.513 E-0.10742
G1 X51.655 Y85.191 E-0.16862
;WIPE_END
G1 E-0.07500 F3600.000
G1 X56.368 Y86.868 F9000.000
G1 E5.00000 F2400.000
;TYPE:Perimeter
G1 F2100.000
G1 X56.368 Y150.132 E2.14142
G1 X122.768 Y150.132 E2.24756
G1 X122.768 Y156.868 E0.22800
G1 X49.132 Y156.868 E2.49249
G1 X49.132 Y80.132 E2.59742
G1 X80.018 Y80.132 E1.04546
G1 X81.317 Y80.067 E0.04401
G1 X82.621 Y79.869 E0.04464
G1 X83.898 Y79.541 E0.04464
G1 X85.136 Y79.087 E0.04464
G1 X86.322 Y78.511 E0.04464
G1 X87.445 Y77.819 E0.04464
G1 X88.492 Y77.018 E0.04464
G1 X89.454 Y76.116 E0.04464
G1 X90.321 Y75.121 E0.04464
G1 X91.083 Y74.045 E0.04464
G1 X91.725 Y72.914 E0.04401
G1 X94.621 Y67.152 E0.21830
G1 X94.991 Y66.501 E0.02532
G1 X95.412 Y65.906 E0.02470
G1 X95.892 Y65.356 E0.02470
G1 X96.424 Y64.857 E0.02470
G1 X97.004 Y64.414 E0.02470
G1 X97.625 Y64.031 E0.02470
G1 X98.281 Y63.712 E0.02470
G1 X98.966 Y63.461 E0.02470
G1 X99.673 Y63.279 E0.02470
G1 X100.395 Y63.170 E0.02470
G1 X101.142 Y63.132 E0.02532
G1 X119.105 Y63.132 E0.60803
G1 X119.812 Y63.168 E0.02396
G1 X120.494 Y63.271 E0.02334
G1 X121.162 Y63.442 E0.02334
G1 X121.809 Y63.680 E0.02334
G1 X122.429 Y63.981 E0.02334
G1 X123.016 Y64.343 E0.02334
G1 X123.564 Y64.762 E0.02334
G1 X124.067 Y65.234 E0.02334
G1 X124.520 Y65.753 E0.02334
G1 X124.919 Y66.316 E0.02334
G1 X125.268 Y66.932 E0.02396
G1 X128.275 Y72.914 E0.22665
G1 X128.917 Y74.045 E0.04401
G1 X129.679 Y75.121 E0.04464
G1 X130.546 Y76.116 E0.04464
G1 X131.508 Y77.018 E0.04464
G1 X132.555 Y77.819 E0.04464
G1 X133.678 Y78.511 E0.04464
G1 X134.864 Y79.087 E0.04464
G1 X136.102 Y79.541 E0.04464
G1 X137.379 Y79.869 E0.04464
G1 X138.683 Y80.067 E0.04464
G1 X139.982 Y80.132 E0.04401
G1 X170.868 Y80.132 E1.04546
G1 X170.868 Y156.868 E2.59742
G1 X142.532 Y156.868 E0.95913
G1 X142.532 Y150.132 E0.22800
G1 X163.632 Y150.132 E0.71421
G1 X163.632 Y86.868 E2.14142
G1 X56.428 Y86.868 E3.62873
G1 X56.775 Y87.275 F9000.000
;TYPE:External perimeter
G1 F2100.000
G1 X56.775 Y149.725 E2.11386
G1 X123.175 Y149.725 E2.24756
G1 X123.175 Y157.275 E0.25556
G1 X48.725 Y157.275 E2.52004
G1 X48.725 Y79.725 E2.62498
G1 X80.008 Y79.725 E1.05890
G1 X81.276 Y79.661 E0.04298
G1 X82.539 Y79.469 E0.04325
G1 X83.777 Y79.152 E0.04325
G1 X84.977 Y78.712 E0.04325
G1 X86.126 Y78.154 E0.04325
G1 X87.214 Y77.483 E0.04325
G1 X88.229 Y76.707 E0.04325
G1 X89.161 Y75.833 E0.04325
G1 X90.000 Y74.869 E0.04325
G1 X90.739 Y73.827 E0.04325
G1 X91.366 Y72.722 E0.04298
G1 X94.262 Y66.960 E0.21830
G1 X94.647 Y66.283 E0.02636
G1 X95.092 Y65.654 E0.02608
G1 X95.598 Y65.073 E0.02608
G1 X96.161 Y64.546 E0.02608
G1 X96.773 Y64.078 E0.02608
G1 X97.429 Y63.673 E0.02608
G1 X98.122 Y63.337 E0.02608
G1 X98.845 Y63.071 E0.02608
G1 X99.592 Y62.880 E0.02608
G1 X100.354 Y62.764 E0.02608
G1 X101.131 Y62.725 E0.02636
G1 X119.115 Y62.725 E0.60873
G1 X119.853 Y62.762 E0.02500
G1 X120.575 Y62.872 E0.02473
G1 X121.283 Y63.053 E0.02473
G1 X121.968 Y63.305 E0.02473
G1 X122.625 Y63.624 E0.02473
G1 X123.247 Y64.007 E0.02473
G1 X123.827 Y64.451 E0.02473
G1 X124.360 Y64.951 E0.02473
G1 X124.840 Y65.501 E0.02473
G1 X125.262 Y66.097 E0.02473
G1 X125.627 Y66.740 E0.02500
G1 X128.634 Y72.722 E0.22665
