; generated by PrusaSlicer 2.3.3+linux-x64-GTK3 on 2023-03-20 at 13:58:53 UTC

; 

; external perimeters extrusion width = 0.45mm
; perimeters extrusion width = 0.45mm
; infill extrusion width = 0.45mm
; solid infill extrusion width = 0.45mm
; top infill extrusion width = 0.40mm
; first layer extrusion width = 0.45mm

M201 X500 Y500 Z100 E5000 ; sets maximum accelerations, mm/sec^2
M203 X500 Y500 Z10 E60 ; sets maximum feedrates, mm/sec
M204 P500 R1000 T500 ; sets acceleration (P, T) and retract acceleration (R), mm/sec^2
M205 X8.00 Y8.00 Z0.40 E5.00 ; sets the jerk limits, mm/sec
M205 S0 T0 ; sets the minimum extruding and travel feed rate, mm/sec
M107
;TYPE:Custom
G90 ; use absolute coordinates
M83 ; extruder relative mode
M104 S195 ; set extruder temp
M140 S60 ; set bed temp
M190 S60 ; wait for bed temp
M109 S195 ; wait for extruder temp
G28 ; home all
G1 Z2 F240
G1 X2 Y10 F3000
G1 Z0.28 F240
G92 E0
G1 Y190 E15 F1500 ; intro line
G1 X2.3 F5000
G92 E0
G1 Y10 E15 F1200 ; intro line
G92 E0
G21 ; set units to millimeters
G90 ; use absolute coordinates
M83 ; use relative distances for extrusion
; Filament gcode
;LAYER_CHANGE
;Z:0.2
;HEIGHT:0.2
;BEFORE_LAYER_CHANGE
G92 E0
;0.2


G1 E-5.00000 F3600.000
G1 Z0.200 F9000.000
;AFTER_LAYER_CHANGE
;0.2
G1 X105.969 Y89.643
G1 E5.00000 F2400.000
;TYPE:Skirt
;WIDTH:0.45
G1 F2100.000
G1 X107.332 Y88.948 E0.05177
G1 X108.823 Y88.545 E0.05229
G1 X110.266 Y88.458 E0.04892
G1 X111.261 Y88.560 E0.03388
G1 X112.644 Y88.939 E0.04854
G1 X113.933 Y89.584 E0.04879
G1 X114.709 Y90.141 E0.03232
G1 X129.401 Y104.784 E0.70214
G1 X130.357 Y105.969 E0.05153
G1 X131.053 Y107.335 E0.05190
G1 X131.456 Y108.827 E0.05229
G1 X131.542 Y110.292 E0.04970
G1 X131.439 Y111.265 E0.03310
G1 X131.060 Y112.648 E0.04854
G1 X130.416 Y113.933 E0.04867
G1 X129.859 Y114.709 E0.03232
G1 X115.216 Y129.401 E0.70214
G1 X114.031 Y130.357 E0.05153
G1 X112.665 Y131.053 E0.05190
G1 X111.173 Y131.456 E0.05229
G1 X109.708 Y131.542 E0.04970
G1 X108.735 Y131.439 E0.03310
G1 X107.352 Y131.060 E0.04854
G1 X106.067 Y130.416 E0.04867
G1 X105.291 Y129.859 E0.03232
G1 X90.599 Y115.216 E0.70214
G1 X89.643 Y114.031 E0.05153
G1 X88.947 Y112.665 E0.05190
G1 X88.544 Y111.173 E0.05229
G1 X88.458 Y109.708 E0.04970
G1 X88.561 Y108.735 E0.03310
G1 X88.940 Y107.352 E0.04854
G1 X89.584 Y106.067 E0.04867
G1 X90.141 Y105.291 E0.03232
G1 X104.784 Y90.599 E0.70214
G1 X105.923 Y89.681 E0.04950
G1 E-3.50000 F3600.000
;WIPE_START
G1 F7200.000
G1 X107.332 Y88.948 E-0.75440
G1 X108.695 Y88.580 E-0.67060
;WIPE_END
G1 E-0.07500 F3600.000
G1 X103.487 Y114.949 F9000.000
G1 E5.00000 F2400.000
;TYPE:Perimeter
G1 F2100.000
G1 X117.943 Y114.949 E0.48932
G1 X118.289 Y115.923 E0.03497
G1 X107.081 Y125.053 E0.48932
G1 X106.200 Y124.526 E0.03473
G1 X107.204 Y119.318 E0.17954
G1 X103.137 Y115.914 E0.17954
G1 X103.467 Y115.006 E0.03270
G1 X103.772 Y115.357 F9000.000
;TYPE:External perimeter
G1 F2100.000
G1 X117.656 Y115.357 E0.46994
G1 X117.810 Y115.789 E0.01553
G1 X107.045 Y124.557 E0.46994
G1 X106.654 Y124.323 E0.01542
G1 X107.650 Y119.160 E0.17800
G1 X103.617 Y115.785 E0.17800
G1 X103.752 Y115.413 E0.01339
G1 X103.668 Y114.970 F9000.000
G1 E-3.50000 F3600.000
;WIPE_START
G1 F7200.000
G1 X106.752 Y115.401 E-1.42500
;WIPE_END
G1 E-0.07500 F3600.000
G1 X105.389 Y114.161 F9000.000
G1 E5.00000 F2400.000
;TYPE:Perimeter
G1 F2100.000
G1 X105.389 Y110.201 E0.13405
G1 X102.077 Y110.201 E0.11211
G1 X102.077 Y110.868 E0.02260
G1 X98.261 Y110.868 E0.12914
G1 X98.261 Y108.685 E0.07390
G1 X99.807 Y108.685 E0.05232
G1 X99.807 Y107.905 E0.02639
G1 X99.659 Y107.881 E0.00509
G1 X99.136 Y107.855 E0.01771
G1 X98.695 Y107.882 E0.01496
G1 X98.479 Y107.919 E0.00742
G1 X98.099 Y108.042 E0.01352
G1 X97.992 Y108.095 E0.00404
G1 X97.748 Y108.266 E0.01010
G1 X97.596 Y108.421 E0.00733
G1 X97.520 Y108.524 E0.00433
G1 X97.359 Y108.832 E0.01176
G1 X97.239 Y109.245 E0.01456
G1 X97.195 Y109.553 E0.01052
G1 X97.175 Y109.974 E0.01427
G1 X97.185 Y110.245 E0.00917
G1 X97.219 Y110.540 E0.01005
G1 X97.329 Y110.963 E0.01480
G1 X97.499 Y111.312 E0.01315
G1 X97.576 Y111.422 E0.00453
G1 X97.803 Y111.662 E0.01117
G1 X98.063 Y111.841 E0.01071
G1 X98.403 Y111.982 E0.01243
G1 X98.823 Y112.061 E0.01448
G1 X99.124 Y112.075 E0.01019
G1 X99.443 Y112.059 E0.01083
G1 X99.783 Y112.008 E0.01162
G1 X100.163 Y111.911 E0.01327
G1 X101.322 Y111.489 E0.04178
G1 X102.223 Y113.538 E0.07578
G1 X101.021 Y113.983 E0.04336
G1 X100.426 Y114.138 E0.02082
G1 X99.839 Y114.227 E0.02011
G1 X99.180 Y114.260 E0.02233
G1 X98.680 Y114.240 E0.01694
G1 X98.189 Y114.175 E0.01677
G1 X97.743 Y114.072 E0.01549
G1 X97.332 Y113.933 E0.01467
G1 X96.935 Y113.751 E0.01479
G1 X96.656 Y113.589 E0.01092
G1 X96.351 Y113.375 E0.01261
G1 X96.070 Y113.129 E0.01264
G1 X95.811 Y112.850 E0.01289
G1 X95.574 Y112.533 E0.01341
G1 X95.378 Y112.205 E0.01292
G1 X95.204 Y111.836 E0.01381
G1 X95.064 Y111.440 E0.01420
G1 X94.956 Y111.007 E0.01513
G1 X94.885 Y110.522 E0.01657
G1 X94.859 Y109.976 E0.01850
G1 X94.872 Y109.558 E0.01416
G1 X94.927 Y109.030 E0.01796
G1 X95.020 Y108.568 E0.01596
G1 X95.144 Y108.160 E0.01445
G1 X95.295 Y107.792 E0.01344
G1 X95.474 Y107.458 E0.01284
G1 X95.684 Y107.145 E0.01274
G1 X95.981 Y106.799 E0.01546
G1 X96.237 Y106.561 E0.01183
G1 X96.526 Y106.343 E0.01224
G1 X96.845 Y106.151 E0.01260
G1 X97.169 Y106.000 E0.01210
G1 X97.525 Y105.874 E0.01278
G1 X97.930 Y105.773 E0.01415
G1 X98.507 Y105.703 E0.01965
G1 X98.906 Y105.684 E0.01354
G1 X99.662 Y105.708 E0.02560
G1 X100.336 Y105.782 E0.02296
G1 X100.860 Y105.882 E0.01806
G1 X102.077 Y106.213 E0.04266
G1 X102.077 Y108.017 E0.06109
G1 X105.389 Y108.017 E0.11211
G1 X105.389 Y105.780 E0.07574
G1 X107.598 Y105.780 E0.07480
G1 X107.584 Y109.824 E0.13688
G1 X110.222 Y105.766 E0.16384
G1 X112.001 Y105.854 E0.06030
G1 X113.779 Y105.760 E0.06026
G1 X114.641 Y107.980 E0.08061
G1 X116.412 Y107.980 E0.05995
G1 X117.273 Y105.780 E0.07996
G1 X119.678 Y105.780 E0.08141
G1 X116.385 Y114.190 E0.30571
G1 X114.710 Y114.190 E0.05670
G1 X112.253 Y107.941 E0.22727
G1 X112.256 Y114.161 E0.21054
G1 X110.039 Y114.161 E0.07505
G1 X110.042 Y110.436 E0.12608
G1 X110.057 Y110.115 E0.01090
G1 X107.426 Y114.161 E0.16338
G1 X105.449 Y114.161 E0.06694
G1 X105.796 Y113.754 F9000.000
;TYPE:External perimeter
G1 F2100.000
G1 X105.796 Y106.187 E0.25613
G1 X107.190 Y106.187 E0.04719
G1 X107.176 Y109.960 E0.12771
G1 X107.142 Y110.468 E0.01721
G1 X107.079 Y110.911 E0.01515
G1 X107.053 Y111.556 E0.02186
G1 X107.440 Y110.962 E0.02399
G1 X107.653 Y110.518 E0.01667
G1 X107.906 Y110.075 E0.01727
G1 X110.436 Y106.184 E0.15710
G1 X111.785 Y106.251 E0.04575
G1 X111.846 Y107.495 E0.04216
G1 X111.849 Y113.754 E0.21187
G1 X110.446 Y113.754 E0.04748
G1 X110.449 Y110.446 E0.11196
G1 X110.498 Y109.440 E0.03411
G1 X110.548 Y109.043 E0.01352
G1 X110.576 Y108.402 E0.02172
G1 X110.189 Y108.997 E0.02403
G1 X109.977 Y109.440 E0.01661
G1 X109.724 Y109.881 E0.01721
G1 X107.205 Y113.754 E0.15638
G1 X105.856 Y113.754 E0.04568
G1 X105.409 Y113.856 F9000.000
G1 E-3.50000 F3600.000
;WIPE_START
G1 F7200.000
G1 X105.832 Y110.754 E-1.42500
;WIPE_END
G1 E-0.07500 F3600.000
G1 X112.097 Y106.256 F9000.000
G1 E5.00000 F2400.000
G1 F2100.000
G1 X113.506 Y106.182 E0.04777
G1 X114.362 Y108.387 E0.08006
G1 X116.690 Y108.387 E0.07878
G1 X117.551 Y106.187 E0.07996
G1 X119.082 Y106.187 E0.05181
G1 X116.107 Y113.783 E0.27612
G1 X114.987 Y113.783 E0.03791
G1 X112.537 Y107.551 E0.22664
G1 X112.116 Y106.313 E0.04426
G1 X112.034 Y105.861 F9000.000
G1 E-3.50000 F3600.000
;WIPE_START
G1 F7200.000
G1 X113.506 Y106.182 E-0.66316
G1 X114.087 Y107.677 E-0.76184
;WIPE_END
G1 E-0.07500 F3600.000
G1 X105.098 Y108.425 F9000.000
G1 E5.00000 F2400.000
G1 F2100.000
G1 X105.098 Y109.794 E0.04634
G1 X102.126 Y109.794 E0.10061
G1 X102.126 Y108.425 E0.04634
G1 X105.038 Y108.425 E0.09858
G1 X105.494 Y108.367 F9000.000
G1 E-3.50000 F3600.000
;WIPE_START
G1 F7200.000
G1 X105.098 Y109.794 E-0.65094
G1 X103.469 Y109.794 E-0.77406
;WIPE_END
G1 E-0.07500 F3600.000
G1 X101.670 Y106.524 F9000.000
G1 E5.00000 F2400.000
G1 F2100.000
G1 X101.670 Y110.461 E0.13327
G1 X98.669 Y110.461 E0.10158
G1 X98.669 Y109.092 E0.04634
G1 X100.214 Y109.092 E0.05232
G1 X100.214 Y107.560 E0.05187
G1 X99.702 Y107.476 E0.01757
G1 X99.134 Y107.448 E0.01925
G1 X98.648 Y107.477 E0.01649
G1 X98.381 Y107.523 E0.00916
G1 X97.945 Y107.664 E0.01551
G1 X97.783 Y107.744 E0.00611
G1 X97.483 Y107.955 E0.01243
G1 X97.286 Y108.157 E0.00955
G1 X97.174 Y108.307 E0.00633
G1 X96.985 Y108.669 E0.01383
G1 X96.907 Y108.891 E0.00795
G1 X96.839 Y109.167 E0.00964
G1 X96.789 Y109.514 E0.01186
G1 X96.768 Y109.972 E0.01550
G1 X96.779 Y110.275 E0.01029
G1 X96.817 Y110.606 E0.01126
G1 X96.876 Y110.882 E0.00956
G1 X96.950 Y111.114 E0.00824
G1 X97.147 Y111.519 E0.01523
G1 X97.259 Y111.680 E0.00664
G1 X97.537 Y111.973 E0.01366
G1 X97.868 Y112.201 E0.01361
G1 X98.275 Y112.370 E0.01493
G1 X98.505 Y112.426 E0.00801
G1 X98.784 Y112.467 E0.00955
G1 X99.125 Y112.483 E0.01154
G1 X99.484 Y112.465 E0.01219
G1 X99.863 Y112.407 E0.01298
G1 X100.283 Y112.301 E0.01464
G1 X101.103 Y112.002 E0.02956
G1 X101.676 Y113.307 E0.04824
G1 X100.899 Y113.594 E0.02804
G1 X100.344 Y113.738 E0.01941
G1 X99.798 Y113.821 E0.01870
G1 X99.178 Y113.853 E0.02100
G1 X98.715 Y113.834 E0.01569
G1 X98.262 Y113.774 E0.01549
G1 X97.855 Y113.680 E0.01414
G1 X97.483 Y113.554 E0.01328
G1 X97.122 Y113.389 E0.01343
G1 X96.875 Y113.246 E0.00965
G1 X96.603 Y113.054 E0.01128
G1 X96.354 Y112.836 E0.01121
G1 X96.124 Y112.589 E0.01143
G1 X95.912 Y112.306 E0.01196
G1 X95.738 Y112.013 E0.01153
G1 X95.581 Y111.681 E0.01245
G1 X95.454 Y111.323 E0.01284
G1 X95.356 Y110.928 E0.01378
G1 X95.291 Y110.483 E0.01522
G1 X95.267 Y109.973 E0.01729
G1 X95.278 Y109.586 E0.01311
G1 X95.330 Y109.092 E0.01680
G1 X95.415 Y108.667 E0.01466
G1 X95.528 Y108.296 E0.01312
G1 X95.664 Y107.966 E0.01209
G1 X95.823 Y107.668 E0.01146
G1 X96.008 Y107.392 E0.01123
G1 X96.275 Y107.081 E0.01387
G1 X96.499 Y106.873 E0.01035
G1 X96.754 Y106.681 E0.01081
G1 X97.037 Y106.511 E0.01116
G1 X97.323 Y106.377 E0.01072
G1 X97.642 Y106.264 E0.01143
G1 X98.004 Y106.174 E0.01264
G1 X98.541 Y106.109 E0.01830
G1 X98.909 Y106.091 E0.01248
G1 X99.633 Y106.115 E0.02452
G1 X100.276 Y106.185 E0.02188
G1 X100.769 Y106.279 E0.01699
G1 X101.612 Y106.508 E0.02957
G1 X102.068 Y106.556 F9000.000
G1 E-3.50000 F3600.000
;WIPE_START
G1 F7200.000
G1 X101.656 Y109.508 E-1.42500
;WIPE_END
G1 E-0.07500 F3600.000
G1 X120.570 Y105.780 F9000.000
G1 E5.00000 F2400.000
;TYPE:Perimeter
G1 F2100.000
G1 X122.394 Y105.780 E0.06175
G1 X125.414 Y114.161 E0.30153
G1 X122.990 Y114.161 E0.08204
G1 X121.552 Y110.096 E0.14595
G1 X121.483 Y109.859 E0.00835
G1 X119.975 Y114.161 E0.15430
G1 X117.565 Y114.161 E0.08157
G1 X120.550 Y105.836 E0.29933
G1 X120.856 Y106.187 F9000.000
;TYPE:External perimeter
G1 F2100.000
G1 X122.108 Y106.187 E0.04237
G1 X124.834 Y113.754 E0.27224
G1 X123.278 Y113.754 E0.05269
G1 X121.940 Y109.971 E0.13581
G1 X121.803 Y109.502 E0.01654
G1 X121.709 Y109.037 E0.01606
G1 X121.482 Y108.313 E0.02570
G1 X121.266 Y109.010 E0.02472
G1 X121.170 Y109.478 E0.01616
G1 X121.033 Y109.950 E0.01663
G1 X119.687 Y113.754 E0.13659
G1 X118.144 Y113.754 E0.05225
G1 X120.836 Y106.244 E0.27006
G1 X120.877 Y105.788 F9000.000
G1 E-3.50000 F3600.000
;WIPE_START
G1 F7200.000
G1 X122.108 Y106.187 E-0.60486
G1 X122.694 Y107.812 E-0.82014
;WIPE_END
G1 E-0.07500 F3600.000
G1 X123.629 Y103.451 F9000.000
G1 E5.00000 F2400.000
;TYPE:Perimeter
G1 F2100.000
G1 X127.146 Y106.969 E0.16839
G1 X127.458 Y107.315 E0.01577
G1 X127.721 Y107.676 E0.01512
G1 X127.944 Y108.063 E0.01512
G1 X128.126 Y108.471 E0.01512
G1 X128.264 Y108.896 E0.01512
G1 X128.357 Y109.333 E0.01512
G1 X128.403 Y109.777 E0.01512
G1 X128.403 Y110.223 E0.01512
G1 X128.357 Y110.667 E0.01512
G1 X128.264 Y111.104 E0.01512
G1 X128.126 Y111.529 E0.01512
G1 X127.944 Y111.937 E0.01512
G1 X127.721 Y112.324 E0.01512
G1 X127.458 Y112.685 E0.01512
G1 X127.146 Y113.031 E0.01577
G1 X113.031 Y127.146 E0.67568
G1 X112.685 Y127.458 E0.01577
G1 X112.324 Y127.721 E0.01512
G1 X111.937 Y127.944 E0.01512
G1 X111.529 Y128.126 E0.01512
G1 X111.104 Y128.264 E0.01512
G1 X110.667 Y128.357 E0.01512
G1 X110.223 Y128.403 E0.01512
G1 X109.777 Y128.403 E0.01512
G1 X109.333 Y128.357 E0.01512
G1 X108.896 Y128.264 E0.01512
G1 X108.471 Y128.126 E0.01512
G1 X108.063 Y127.944 E0.01512
G1 X107.869 Y127.832 E0.00756
G1 X107.676 Y127.721 E0.00756
G1 X107.315 Y127.458 E0.01512
G1 X106.969 Y127.146 E0.01577
G1 X92.854 Y113.031 E0.67568
G1 X92.542 Y112.685 E0.01577
G1 X92.279 Y112.324 E0.01512
G1 X92.056 Y111.937 E0.01512
G1 X91.874 Y111.529 E0.01512
G1 X91.736 Y111.104 E0.01512
G1 X91.643 Y110.667 E0.01512
G1 X91.597 Y110.223 E0.01512
G1 X91.597 Y109.777 E0.01512
G1 X91.643 Y109.333 E0.01512
G1 X91.736 Y108.896 E0.01512
G1 X91.874 Y108.471 E0.01512
G1 X92.056 Y108.063 E0.01512
G1 X92.168 Y107.869 E0.00756
G1 X92.279 Y107.676 E0.00756
G1 X92.542 Y107.315 E0.01512
G1 X92.854 Y106.969 E0.01577
G1 X106.969 Y92.854 E0.67568
G1 X107.315 Y92.542 E0.01577
G1 X107.676 Y92.279 E0.01512
G1 X108.063 Y92.056 E0.01512
G1 X108.471 Y91.874 E0.01512
G1 X108.896 Y91.736 E0.01512
G1 X109.333 Y91.643 E0.01512
G1 X109.777 Y91.597 E0.01512
G1 X110.223 Y91.597 E0.01512
G1 X110.667 Y91.643 E0.01512
G1 X111.104 Y91.736 E0.01512
G1 X111.529 Y91.874 E0.01512
G1 X111.937 Y92.056 E0.01512
G1 X112.324 Y92.279 E0.01512
G1 X112.685 Y92.542 E0.01512
G1 X113.031 Y92.854 E0.01577
G1 X123.586 Y103.409 E0.50526
G1 X123.874 Y103.121 F9000.000
;TYPE:External perimeter
G1 F2100.000
G1 X127.442 Y106.688 E0.17078
G1 X127.775 Y107.058 E0.01685
G1 X128.063 Y107.454 E0.01656
G1 X128.307 Y107.878 E0.01656
G1 X128.506 Y108.325 E0.01656
G1 X128.657 Y108.790 E0.01656
G1 X128.759 Y109.269 E0.01656
G1 X128.810 Y109.755 E0.01656
G1 X128.810 Y110.245 E0.01656
G1 X128.759 Y110.731 E0.01656
G1 X128.657 Y111.210 E0.01656
G1 X128.506 Y111.675 E0.01656
G1 X128.307 Y112.122 E0.01656
G1 X128.063 Y112.546 E0.01656
G1 X127.775 Y112.942 E0.01656
G1 X127.442 Y113.312 E0.01685
G1 X113.312 Y127.442 E0.67640
G1 X112.942 Y127.775 E0.01685
G1 X112.546 Y128.063 E0.01656
G1 X112.122 Y128.307 E0.01656
G1 X111.675 Y128.506 E0.01656
G1 X111.210 Y128.657 E0.01656
G1 X110.731 Y128.759 E0.01656
G1 X110.245 Y128.810 E0.01656
G1 X109.755 Y128.810 E0.01656
G1 X109.269 Y128.759 E0.01656
G1 X108.790 Y128.657 E0.01656
G1 X108.325 Y128.506 E0.01656
G1 X107.878 Y128.307 E0.01656
G1 X107.454 Y128.063 E0.01656
G1 X107.058 Y127.775 E0.01656
G1 X106.688 Y127.442 E0.01685
G1 X92.558 Y113.312 E0.67640
G1 X92.225 Y112.942 E0.01685
G1 X91.937 Y112.546 E0.01656
G1 X91.693 Y112.122 E0.01656
G1 X91.494 Y111.675 E0.01656
G1 X91.343 Y111.210 E0.01656
G1 X91.241 Y110.731 E0.01656
G1 X91.190 Y110.245 E0.01656
G1 X91.190 Y109.755 E0.01656
G1 X91.241 Y109.269 E0.01656
G1 X91.343 Y108.790 E0.01656
G1 X91.494 Y108.325 E0.01656
G1 X91.693 Y107.878 E0.01656
G1 X91.937 Y107.454 E0.01656
G1 X92.225 Y107.058 E0.01656
G1 X92.558 Y106.688 E0.01685
G1 X106.688 Y92.558 E0.67640
G1 X107.058 Y92.225 E0.01685
G1 X107.454 Y91.937 E0.01656
G1 X107.878 Y91.693 E0.01656
G1 X108.325 Y91.494 E0.01656
G1 X108.790 Y91.343 E0.01656
G1 X109.269 Y91.241 E0.01656
G1 X109.755 Y91.190 E0.01656
G1 X110.245 Y91.190 E0.01656
G1 X110.731 Y91.241 E0.01656
G1 X111.210 Y91.343 E0.01656
G1 X111.675 Y91.494 E0.01656
G1 X112.122 Y91.693 E0.01656
G1 X112.546 Y91.937 E0.01656
G1 X112.942 Y92.225 E0.01656
G1 X113.312 Y92.558 E0.01685
G1 X123.832 Y103.078 E0.50359
G1 X123.771 Y103.507 F9000.000
G1 E-3.50000 F3600.000
;WIPE_START
G1 F7200.000
G1 X125.953 Y105.200 E-1.42500
;WIPE_END
G1 E-0.07500 F3600.000
G1 X121.483 Y109.065 F9000.000
G1 E5.00000 F2400.000
;TYPE:Gap fill
;WIDTH:0.0986096
G1 F2100.000
G1 X121.513 Y109.656 E0.00274
G1 E-3.50000 F3600.000
;WIPE_START
G1 F7200.000
G1 X121.483 Y109.065 E-0.28100
;WIPE_END
G1 E-1.21900 F3600.000
G1 X118.019 Y114.555 F9000.000
G1 E5.00000 F2400.000
;WIDTH:0.424342
G1 F2100.000
G1 X117.208 Y114.555 E0.02572
G1 X116.454 Y114.570 F9000.000
;WIDTH:0.39558
G1 F2100.000
G1 X114.640 Y114.570 E0.05320
G1 E-3.50000 F3600.000
;WIPE_START
G1 F7200.000
