; generated by PrusaSlicer 2.3.3+linux-x64-GTK3 on 2023-01-14 at 12:52:10 UTC

; 

; external perimeters extrusion width = 0.45mm
; perimeters extrusion width = 0.45mm
; infill extrusion width = 0.45mm
; solid infill extrusion width = 0.45mm
; top infill extrusion width = 0.40mm
; first layer extrusion width = 0.45mm

M201 X500 Y500 Z100 E5000 ; sets maximum accelerations, mm/sec^2
M203 X500 Y500 Z10 E60 ; sets maximum feedrates, mm/sec
M204 P500 R1000 T500 ; sets acceleration (P, T) and retract acceleration (R), mm/sec^2
M205 X8.00 Y8.00 Z0.40 E5.00 ; sets the jerk limits, mm/sec
M205 S0 T0 ; sets the minimum extruding and travel feed rate, mm/sec
M107
;TYPE:Custom
G90 ; use absolute coordinates
M83 ; extruder relative mode
M104 S195 ; set extruder temp
M140 S60 ; set bed temp
M190 S60 ; wait for bed temp
M109 S195 ; wait for extruder temp
G28 ; home all
G1 Z2 F240
G1 X2 Y10 F3000
G1 Z0.28 F240
G92 E0
G1 Y190 E15 F1500 ; intro line
G1 X2.3 F5000
G92 E0
G1 Y10 E15 F1200 ; intro line
G92 E0
G21 ; set units to millimeters
G90 ; use absolute coordinates
M83 ; use relative distances for extrusion
; Filament gcode
;LAYER_CHANGE
;Z:0.2
;HEIGHT:0.2
;BEFORE_LAYER_CHANGE
G92 E0
;0.2


G1 E-5.00000 F3600.000
G1 Z0.200 F9000.000
;AFTER_LAYER_CHANGE
;0.2
G1 X97.445 Y79.207
G1 E5.00000 F2400.000
;TYPE:Skirt
;WIDTH:0.45
G1 F2100.000
G1 X98.031 Y78.724 E0.02571
G1 X98.735 Y78.449 E0.02558
G1 X108.093 Y76.807 E0.32159
G1 X114.154 Y76.793 E0.20517
G1 X114.842 Y76.894 E0.02353
G1 X120.322 Y78.645 E0.19475
G1 X120.819 Y78.975 E0.02019
G1 X121.218 Y79.413 E0.02006
G1 X121.498 Y79.940 E0.02019
G1 X121.640 Y80.515 E0.02006
G1 X123.157 Y105.000 E0.83038
G1 X123.155 Y115.107 E0.34212
G1 X121.647 Y139.418 E0.82446
G1 X121.523 Y139.993 E0.01993
G1 X121.260 Y140.524 E0.02006
G1 X120.875 Y140.975 E0.02006
G1 X120.396 Y141.317 E0.01993
G1 X114.797 Y143.118 E0.19908
G1 X114.176 Y143.207 E0.02122
G1 X108.132 Y143.197 E0.20461
G1 X98.521 Y141.494 E0.33039
G1 X97.934 Y141.215 E0.02199
G1 X97.440 Y140.787 E0.02212
G1 X97.082 Y140.245 E0.02199
G1 X96.881 Y139.628 E0.02199
G1 X96.853 Y80.582 E1.99863
G1 X97.040 Y79.846 E0.02571
G1 X97.413 Y79.258 E0.02355
G1 E-3.50000 F3600.000
;WIPE_START
G1 F7200.000
G1 X98.031 Y78.724 E-0.38799
G1 X98.735 Y78.449 E-0.35900
G1 X100.141 Y78.202 E-0.67801
;WIPE_END
G1 E-0.07500 F3600.000
G1 X103.518 Y100.568 F9000.000
G1 E5.00000 F2400.000
;TYPE:Perimeter
G1 F2100.000
G1 X110.982 Y100.568 E0.25265
G1 X110.982 Y117.032 E0.55729
G1 X103.518 Y117.032 E0.25265
G1 X103.518 Y100.628 E0.55526
G1 X103.925 Y100.975 F9000.000
;TYPE:External perimeter
G1 F2100.000
G1 X110.575 Y100.975 E0.22509
G1 X110.575 Y116.625 E0.52973
G1 X103.925 Y116.625 E0.22509
G1 X103.925 Y101.035 E0.52770
G1 X103.872 Y100.579 F9000.000
G1 E-3.50000 F3600.000
;WIPE_START
G1 F7200.000
G1 X106.925 Y101.008 E-1.42500
;WIPE_END
G1 E-0.07500 F3600.000
G1 X103.518 Y82.568 F9000.000
G1 E5.00000 F2400.000
;TYPE:Perimeter
G1 F2100.000
G1 X110.982 Y82.568 E0.25265
G1 X110.982 Y99.032 E0.55729
G1 X103.518 Y99.032 E0.25265
G1 X103.518 Y82.628 E0.55526
G1 X103.925 Y82.975 F9000.000
;TYPE:External perimeter
G1 F2100.000
G1 X110.575 Y82.975 E0.22509
G1 X110.575 Y98.625 E0.52973
G1 X103.925 Y98.625 E0.22509
G1 X103.925 Y83.035 E0.52770
G1 X103.872 Y82.579 F9000.000
G1 E-3.50000 F3600.000
;WIPE_START
G1 F7200.000
G1 X106.925 Y83.008 E-1.42500
;WIPE_END
G1 E-0.07500 F3600.000
G1 X113.418 Y81.532 F9000.000
G1 E5.00000 F2400.000
;TYPE:Perimeter
G1 F2100.000
G1 X118.518 Y81.532 E0.17263
G1 X118.518 Y105.732 E0.81914
G1 X120.018 Y105.732 E0.05077
G1 X120.018 Y114.268 E0.28893
G1 X118.518 Y114.268 E0.05077
G1 X118.518 Y138.468 E0.81914
G1 X113.418 Y138.468 E0.17263
G1 X113.418 Y140.068 E0.05416
G1 X109.082 Y140.068 E0.14676
G1 X109.082 Y138.468 E0.05416
G1 X99.982 Y138.468 E0.30802
G1 X99.982 Y81.532 E1.92721
G1 X109.082 Y81.532 E0.30802
G1 X109.082 Y79.932 E0.05416
G1 X113.418 Y79.932 E0.14676
G1 X113.418 Y81.472 E0.05213
G1 X113.825 Y81.125 F9000.000
;TYPE:External perimeter
G1 F2100.000
G1 X118.925 Y81.125 E0.17263
G1 X118.925 Y105.325 E0.81914
G1 X120.425 Y105.325 E0.05077
G1 X120.425 Y114.675 E0.31649
G1 X118.925 Y114.675 E0.05077
G1 X118.925 Y138.875 E0.81914
G1 X113.825 Y138.875 E0.17263
G1 X113.825 Y140.475 E0.05416
G1 X108.675 Y140.475 E0.17432
G1 X108.675 Y138.875 E0.05416
G1 X99.575 Y138.875 E0.30802
G1 X99.575 Y81.125 E1.95477
G1 X108.675 Y81.125 E0.30802
G1 X108.675 Y79.525 E0.05416
G1 X113.825 Y79.525 E0.17432
G1 X113.825 Y81.065 E0.05213
G1 X113.989 Y81.490 F9000.000
G1 E-3.50000 F3600.000
;WIPE_START
G1 F7200.000
G1 X116.825 Y81.100 E-1.42500
;WIPE_END
G1 E-0.07500 F3600.000
G1 X117.570 Y81.654 F9000.000
G1 E5.00000 F2400.000
;TYPE:Solid infill
;WIDTH:0.451217
G1 F2100.000
G1 X118.213 Y82.296 E0.03084
G1 X118.213 Y82.874 E0.01960
G1 X117.176 Y81.837 E0.04977
G1 X116.599 Y81.837 E0.01960
G1 X118.213 Y83.451 E0.07749
G1 X118.213 Y84.029 E0.01960
G1 X116.021 Y81.837 E0.10521
G1 X115.444 Y81.837 E0.01960
G1 X118.213 Y84.606 E0.13294
G1 X118.213 Y85.184 E0.01960
G1 X114.866 Y81.837 E0.16066
G1 X114.289 Y81.837 E0.01960
G1 X118.213 Y85.761 E0.18838
G1 X118.213 Y86.338 E0.01960
G1 X113.528 Y81.654 E0.22490
G1 X113.296 Y80.844 F9000.000
G1 F2100.000
G1 X112.689 Y80.237 E0.02914
G1 X112.112 Y80.237 E0.01960
G1 X113.296 Y81.422 E0.05686
G1 E-3.50000 F3600.000
;WIPE_START
G1 F7200.000
G1 X112.112 Y80.237 E-0.79552
G1 X112.689 Y80.237 E-0.27427
G1 X113.218 Y80.766 E-0.35521
;WIPE_END
G1 E-0.07500 F3600.000
G1 X111.351 Y80.054 F9000.000
G1 E5.00000 F2400.000
G1 F2100.000
G1 X118.213 Y86.916 E0.32945
G1 X118.213 Y87.493 E0.01960
G1 X110.957 Y80.237 E0.34837
G1 X110.379 Y80.237 E0.01960
G1 X118.213 Y88.071 E0.37610
G1 X118.213 Y88.648 E0.01960
G1 X109.802 Y80.237 E0.40382
G1 X109.387 Y80.237 E0.01407
G1 X109.387 Y80.400 E0.00553
G1 X118.213 Y89.226 E0.42372
G1 X118.213 Y89.803 E0.01960
G1 X111.287 Y82.878 E0.33250
G1 X111.287 Y83.455 E0.01960
G1 X118.213 Y90.380 E0.33250
G1 X118.213 Y90.958 E0.01960
G1 X111.287 Y84.033 E0.33250
G1 X111.287 Y84.610 E0.01960
G1 X118.213 Y91.535 E0.33250
G1 X118.213 Y92.113 E0.01960
G1 X111.287 Y85.187 E0.33250
G1 X111.287 Y85.765 E0.01960
G1 X118.213 Y92.690 E0.33250
G1 X118.213 Y93.267 E0.01960
G1 X111.287 Y86.342 E0.33250
G1 X111.287 Y86.920 E0.01960
G1 X118.213 Y93.845 E0.33250
G1 X118.213 Y94.422 E0.01960
G1 X111.287 Y87.497 E0.33250
G1 X111.287 Y88.074 E0.01960
G1 X118.213 Y95.000 E0.33250
G1 X118.213 Y95.577 E0.01960
G1 X111.287 Y88.652 E0.33250
G1 X111.287 Y89.229 E0.01960
G1 X118.213 Y96.155 E0.33250
G1 X118.213 Y96.732 E0.01960
G1 X111.287 Y89.807 E0.33250
G1 X111.287 Y90.384 E0.01960
G1 X118.213 Y97.309 E0.33250
G1 X118.213 Y97.887 E0.01960
G1 X111.287 Y90.962 E0.33250
G1 X111.287 Y91.539 E0.01960
G1 X118.213 Y98.464 E0.33250
G1 X118.213 Y99.042 E0.01960
G1 X111.287 Y92.116 E0.33250
G1 X111.287 Y92.694 E0.01960
G1 X118.213 Y99.619 E0.33250
G1 X118.213 Y100.196 E0.01960
G1 X111.287 Y93.271 E0.33250
G1 X111.287 Y93.849 E0.01960
G1 X118.213 Y100.774 E0.33250
G1 X118.213 Y101.351 E0.01960
G1 X111.287 Y94.426 E0.33250
G1 X111.287 Y95.004 E0.01960
G1 X118.213 Y101.929 E0.33250
G1 X118.213 Y102.506 E0.01960
G1 X111.287 Y95.581 E0.33250
G1 X111.287 Y96.158 E0.01960
G1 X118.213 Y103.084 E0.33250
G1 X118.213 Y103.661 E0.01960
G1 X111.287 Y96.736 E0.33250
G1 X111.287 Y97.313 E0.01960
G1 X118.213 Y104.238 E0.33250
G1 X118.213 Y104.816 E0.01960
G1 X111.287 Y97.891 E0.33250
G1 X111.287 Y98.468 E0.01960
G1 X118.396 Y105.576 E0.34129
G1 X119.251 Y105.854 F9000.000
G1 F2100.000
G1 X119.713 Y106.316 E0.02217
G1 X119.713 Y106.893 E0.01960
G1 X118.674 Y105.854 E0.04989
G1 E-3.50000 F3600.000
;WIPE_START
G1 F7200.000
G1 X119.713 Y106.893 E-0.69800
G1 X119.713 Y106.316 E-0.27427
G1 X119.251 Y105.854 E-0.31012
;WIPE_END
G1 E-0.21761 F3600.000
G1 X119.896 Y107.654 F9000.000
G1 E5.00000 F2400.000
G1 F2100.000
G1 X111.287 Y99.045 E0.41331
G1 X111.287 Y99.337 E0.00991
G1 X111.002 Y99.337 E0.00969
G1 X119.713 Y108.048 E0.41822
G1 X119.713 Y108.626 E0.01960
G1 X110.424 Y99.337 E0.44595
G1 X109.847 Y99.337 E0.01960
G1 X110.772 Y100.263 E0.04442
G1 X111.287 Y100.263 E0.01749
G1 X111.287 Y100.778 E0.01749
G1 X119.713 Y109.203 E0.40452
G1 X119.713 Y109.780 E0.01960
G1 X111.287 Y101.355 E0.40452
G1 X111.287 Y101.933 E0.01960
G1 X119.713 Y110.358 E0.40452
G1 X119.713 Y110.935 E0.01960
G1 X111.287 Y102.510 E0.40452
G1 X111.287 Y103.087 E0.01960
G1 X119.713 Y111.513 E0.40452
G1 X119.713 Y112.090 E0.01960
G1 X111.287 Y103.665 E0.40452
G1 X111.287 Y104.242 E0.01960
G1 X119.713 Y112.667 E0.40452
G1 X119.713 Y113.245 E0.01960
G1 X111.287 Y104.820 E0.40452
G1 X111.287 Y105.397 E0.01960
G1 X119.713 Y113.822 E0.40452
G1 X119.713 Y113.963 E0.00476
G1 X119.276 Y113.963 E0.01484
G1 X111.287 Y105.974 E0.38353
G1 X111.287 Y106.552 E0.01960
G1 X118.698 Y113.963 E0.35581
G1 X118.213 Y113.963 E0.01648
G1 X118.213 Y114.055 E0.00312
G1 X111.287 Y107.129 E0.33250
G1 X111.287 Y107.707 E0.01960
G1 X118.213 Y114.632 E0.33250
G1 X118.213 Y115.209 E0.01960
G1 X111.287 Y108.284 E0.33250
G1 X111.287 Y108.862 E0.01960
G1 X118.213 Y115.787 E0.33250
G1 X118.213 Y116.364 E0.01960
G1 X111.287 Y109.439 E0.33250
G1 X111.287 Y110.016 E0.01960
G1 X118.213 Y116.942 E0.33250
G1 X118.213 Y117.519 E0.01960
G1 X111.287 Y110.594 E0.33250
G1 X111.287 Y111.171 E0.01960
G1 X118.213 Y118.096 E0.33250
G1 X118.213 Y118.674 E0.01960
G1 X111.287 Y111.749 E0.33250
G1 X111.287 Y112.326 E0.01960
G1 X118.213 Y119.251 E0.33250
G1 X118.213 Y119.829 E0.01960
G1 X111.287 Y112.903 E0.33250
G1 X111.287 Y113.481 E0.01960
G1 X118.213 Y120.406 E0.33250
G1 X118.213 Y120.984 E0.01960
G1 X111.287 Y114.058 E0.33250
G1 X111.287 Y114.636 E0.01960
G1 X118.213 Y121.561 E0.33250
G1 X118.213 Y122.138 E0.01960
G1 X111.287 Y115.213 E0.33250
G1 X111.287 Y115.791 E0.01960
G1 X118.213 Y122.716 E0.33250
G1 X118.213 Y123.293 E0.01960
G1 X111.287 Y116.368 E0.33250
G1 X111.287 Y116.945 E0.01960
G1 X118.213 Y123.871 E0.33250
G1 X118.213 Y124.448 E0.01960
G1 X111.102 Y117.337 E0.34140
G1 X110.524 Y117.337 E0.01960
G1 X118.213 Y125.026 E0.36913
G1 X118.213 Y125.603 E0.01960
G1 X109.947 Y117.337 E0.39685
G1 X109.370 Y117.337 E0.01960
G1 X118.213 Y126.180 E0.42457
G1 X118.213 Y126.758 E0.01960
G1 X108.792 Y117.337 E0.45230
G1 X108.215 Y117.337 E0.01960
G1 X118.213 Y127.335 E0.48002
G1 X118.213 Y127.913 E0.01960
G1 X107.637 Y117.337 E0.50774
G1 X107.060 Y117.337 E0.01960
G1 X118.213 Y128.490 E0.53547
G1 X118.213 Y129.067 E0.01960
G1 X106.483 Y117.337 E0.56319
G1 X105.905 Y117.337 E0.01960
G1 X118.213 Y129.645 E0.59091
G1 X118.213 Y130.222 E0.01960
G1 X105.328 Y117.337 E0.61864
G1 X104.750 Y117.337 E0.01960
G1 X118.213 Y130.800 E0.64636
G1 X118.213 Y131.377 E0.01960
G1 X103.990 Y117.154 E0.68288
G1 E-3.50000 F3600.000
;WIPE_START
G1 F7200.000
G1 X106.111 Y119.276 E-1.42500
;WIPE_END
G1 E-0.07500 F3600.000
G1 X110.378 Y100.446 F9000.000
G1 E5.00000 F2400.000
G1 F2100.000
G1 X109.270 Y99.337 E0.05322
G1 X108.692 Y99.337 E0.01960
G1 X109.617 Y100.263 E0.04442
G1 X109.040 Y100.263 E0.01960
G1 X108.115 Y99.337 E0.04442
G1 X107.537 Y99.337 E0.01960
G1 X108.463 Y100.263 E0.04442
G1 X107.885 Y100.263 E0.01960
G1 X106.960 Y99.337 E0.04442
G1 X106.383 Y99.337 E0.01960
G1 X107.308 Y100.263 E0.04442
G1 X106.730 Y100.263 E0.01960
G1 X105.805 Y99.337 E0.04442
G1 X105.228 Y99.337 E0.01960
G1 X106.153 Y100.263 E0.04442
G1 X105.576 Y100.263 E0.01960
G1 X104.650 Y99.337 E0.04442
G1 X104.073 Y99.337 E0.01960
G1 X105.181 Y100.446 E0.05322
G1 E-3.50000 F3600.000
;WIPE_START
G1 F7200.000
G1 X104.073 Y99.337 E-0.74459
G1 X104.650 Y99.337 E-0.27427
G1 X105.255 Y99.942 E-0.40614
;WIPE_END
G1 E-0.07500 F3600.000
G1 X110.855 Y82.446 F9000.000
G1 E5.00000 F2400.000
G1 F2100.000
G1 X109.387 Y80.978 E0.07049
G1 X109.387 Y81.555 E0.01960
G1 X110.095 Y82.263 E0.03397
G1 X109.517 Y82.263 E0.01960
G1 X109.092 Y81.837 E0.02042
G1 X108.515 Y81.837 E0.01960
G1 X108.940 Y82.263 E0.02042
G1 X108.363 Y82.263 E0.01960
G1 X107.937 Y81.837 E0.02042
G1 X107.360 Y81.837 E0.01960
G1 X107.785 Y82.263 E0.02042
G1 X107.208 Y82.263 E0.01960
G1 X106.783 Y81.837 E0.02042
G1 X106.205 Y81.837 E0.01960
G1 X106.630 Y82.263 E0.02042
G1 X106.053 Y82.263 E0.01960
G1 X105.628 Y81.837 E0.02042
G1 X105.050 Y81.837 E0.01960
G1 X105.476 Y82.263 E0.02042
G1 X104.898 Y82.263 E0.01960
G1 X104.473 Y81.837 E0.02042
G1 X103.895 Y81.837 E0.01960
G1 X104.321 Y82.263 E0.02042
G1 X103.743 Y82.263 E0.01960
G1 X103.318 Y81.837 E0.02042
G1 X102.741 Y81.837 E0.01960
G1 X103.213 Y82.309 E0.02266
G1 X103.213 Y82.887 E0.01960
G1 X102.163 Y81.837 E0.05039
G1 X101.586 Y81.837 E0.01960
G1 X103.213 Y83.464 E0.07811
G1 X103.213 Y84.042 E0.01960
G1 X101.008 Y81.837 E0.10583
G1 X100.431 Y81.837 E0.01960
G1 X103.213 Y84.619 E0.13356
G1 X103.213 Y85.196 E0.01960
G1 X100.287 Y82.271 E0.14045
G1 X100.287 Y82.849 E0.01960
G1 X103.213 Y85.774 E0.14045
G1 X103.213 Y86.351 E0.01960
G1 X100.287 Y83.426 E0.14045
G1 X100.287 Y84.004 E0.01960
G1 X103.213 Y86.929 E0.14045
G1 X103.213 Y87.506 E0.01960
G1 X100.287 Y84.581 E0.14045
G1 X100.287 Y85.158 E0.01960
G1 X103.213 Y88.084 E0.14045
G1 X103.213 Y88.661 E0.01960
G1 X100.287 Y85.736 E0.14045
G1 X100.287 Y86.313 E0.01960
G1 X103.213 Y89.238 E0.14045
G1 X103.213 Y89.816 E0.01960
G1 X100.287 Y86.891 E0.14045
G1 X100.287 Y87.468 E0.01960
G1 X103.213 Y90.393 E0.14045
G1 X103.213 Y90.971 E0.01960
G1 X100.287 Y88.045 E0.14045
G1 X100.287 Y88.623 E0.01960
G1 X103.213 Y91.548 E0.14045
G1 X103.213 Y92.126 E0.01960
G1 X100.287 Y89.200 E0.14045
G1 X100.287 Y89.778 E0.01960
G1 X103.213 Y92.703 E0.14045
G1 X103.213 Y93.280 E0.01960
G1 X100.287 Y90.355 E0.14045
G1 X100.287 Y90.933 E0.01960
G1 X103.213 Y93.858 E0.14045
G1 X103.213 Y94.435 E0.01960
G1 X100.287 Y91.510 E0.14045
G1 X100.287 Y92.087 E0.01960
G1 X103.213 Y95.013 E0.14045
G1 X103.213 Y95.590 E0.01960
G1 X100.287 Y92.665 E0.14045
G1 X100.287 Y93.242 E0.01960
G1 X103.213 Y96.167 E0.14045
G1 X103.213 Y96.745 E0.01960
G1 X100.287 Y93.820 E0.14045
G1 X100.287 Y94.397 E0.01960
G1 X103.213 Y97.322 E0.14045
G1 X103.213 Y97.900 E0.01960
G1 X100.287 Y94.974 E0.14045
G1 X100.287 Y95.552 E0.01960
G1 X103.396 Y98.660 E0.14924
G1 E-3.50000 F3600.000
;WIPE_START
G1 F7200.000
G1 X101.274 Y96.539 E-1.42500
;WIPE_END
G1 E-0.07500 F3600.000
G1 X104.604 Y100.446 F9000.000
G1 E5.00000 F2400.000
G1 F2100.000
G1 X100.287 Y96.129 E0.20725
G1 X100.287 Y96.707 E0.01960
G1 X103.843 Y100.263 E0.17073
G1 X103.266 Y100.263 E0.01960
G1 X100.287 Y97.284 E0.14300
G1 X100.287 Y97.862 E0.01960
G1 X103.213 Y100.787 E0.14045
G1 X103.213 Y101.364 E0.01960
G1 X100.287 Y98.439 E0.14045
G1 X100.287 Y99.016 E0.01960
G1 X103.213 Y101.942 E0.14045
G1 X103.213 Y102.519 E0.01960
G1 X100.287 Y99.594 E0.14045
G1 X100.287 Y100.171 E0.01960
G1 X103.213 Y103.096 E0.14045
G1 X103.213 Y103.674 E0.01960
G1 X100.287 Y100.749 E0.14045
G1 X100.287 Y101.326 E0.01960
G1 X103.213 Y104.251 E0.14045
G1 X103.213 Y104.829 E0.01960
G1 X100.287 Y101.903 E0.14045
G1 X100.287 Y102.481 E0.01960
G1 X103.213 Y105.406 E0.14045
G1 X103.213 Y105.984 E0.01960
G1 X100.287 Y103.058 E0.14045
G1 X100.287 Y103.636 E0.01960
G1 X103.213 Y106.561 E0.14045
G1 X103.213 Y107.138 E0.01960
G1 X100.287 Y104.213 E0.14045
G1 X100.287 Y104.791 E0.01960
G1 X103.213 Y107.716 E0.14045
G1 X103.213 Y108.293 E0.01960
G1 X100.287 Y105.368 E0.14045
G1 X100.287 Y105.945 E0.01960
G1 X103.213 Y108.871 E0.14045
G1 X103.213 Y109.448 E0.01960
G1 X100.287 Y106.523 E0.14045
G1 X100.287 Y107.100 E0.01960
G1 X103.213 Y110.026 E0.14045
G1 X103.213 Y110.603 E0.01960
G1 X100.287 Y107.678 E0.14045
G1 X100.287 Y108.255 E0.01960
G1 X103.213 Y111.180 E0.14045
G1 X103.213 Y111.758 E0.01960
G1 X100.287 Y108.833 E0.14045
G1 X100.287 Y109.410 E0.01960
G1 X103.213 Y112.335 E0.14045
G1 X103.213 Y112.913 E0.01960
G1 X100.287 Y109.987 E0.14045
G1 X100.287 Y110.565 E0.01960
G1 X103.213 Y113.490 E0.14045
G1 X103.213 Y114.067 E0.01960
G1 X100.287 Y111.142 E0.14045
G1 X100.287 Y111.720 E0.01960
G1 X103.213 Y114.645 E0.14045
G1 X103.213 Y115.222 E0.01960
G1 X100.287 Y112.297 E0.14045
G1 X100.287 Y112.874 E0.01960
G1 X103.213 Y115.800 E0.14045
