; generated by PrusaSlicer 2.3.3+linux-x64-GTK3 on 2023-03-20 at 14:04:42 UTC

; 

; external perimeters extrusion width = 0.45mm
; perimeters extrusion width = 0.45mm
; infill extrusion width = 0.45mm
; solid infill extrusion width = 0.45mm
; top infill extrusion width = 0.40mm
; first layer extrusion width = 0.45mm

M201 X500 Y500 Z100 E5000 ; sets maximum accelerations, mm/sec^2
M203 X500 Y500 Z10 E60 ; sets maximum feedrates, mm/sec
M204 P500 R1000 T500 ; sets acceleration (P, T) and retract acceleration (R), mm/sec^2
M205 X8.00 Y8.00 Z0.40 E5.00 ; sets the jerk limits, mm/sec
M205 S0 T0 ; sets the minimum extruding and travel feed rate, mm/sec
M107
;TYPE:Custom
G90 ; use absolute coordinates
M83 ; extruder relative mode
M104 S195 ; set extruder temp
M140 S60 ; set bed temp
M190 S60 ; wait for bed temp
M109 S195 ; wait for extruder temp
G28 ; home all
G1 Z2 F240
G1 X2 Y10 F3000
G1 Z0.28 F240
G92 E0
G1 Y190 E15 F1500 ; intro line
G1 X2.3 F5000
G92 E0
G1 Y10 E15 F1200 ; intro line
G92 E0
G21 ; set units to millimeters
G90 ; use absolute coordinates
M83 ; use relative distances for extrusion
; Filament gcode
;LAYER_CHANGE
;Z:0.2
;HEIGHT:0.2
;BEFORE_LAYER_CHANGE
G92 E0
;0.2


G1 E-5.00000 F3600.000
G1 Z0.200 F9000.000
;AFTER_LAYER_CHANGE
;0.2
G1 X105.969 Y89.643
G1 E5.00000 F2400.000
;TYPE:Skirt
;WIDTH:0.45
G1 F2100.000
G1 X107.332 Y88.948 E0.05177
G1 X108.823 Y88.545 E0.05229
G1 X110.266 Y88.458 E0.04892
G1 X111.261 Y88.560 E0.03388
G1 X112.644 Y88.939 E0.04854
G1 X113.933 Y89.584 E0.04879
G1 X114.709 Y90.141 E0.03232
G1 X129.401 Y104.784 E0.70214
G1 X130.357 Y105.969 E0.05153
G1 X131.053 Y107.335 E0.05190
G1 X131.456 Y108.827 E0.05229
G1 X131.542 Y110.292 E0.04970
G1 X131.439 Y111.265 E0.03310
G1 X131.060 Y112.648 E0.04854
G1 X130.416 Y113.933 E0.04867
G1 X129.859 Y114.709 E0.03232
G1 X115.216 Y129.401 E0.70214
G1 X114.031 Y130.357 E0.05153
G1 X112.665 Y131.053 E0.05190
G1 X111.173 Y131.456 E0.05229
G1 X109.708 Y131.542 E0.04970
G1 X108.735 Y131.439 E0.03310
G1 X107.352 Y131.060 E0.04854
G1 X106.067 Y130.416 E0.04867
G1 X105.291 Y129.859 E0.03232
G1 X90.599 Y115.216 E0.70214
G1 X89.643 Y114.031 E0.05153
G1 X88.947 Y112.665 E0.05190
G1 X88.544 Y111.173 E0.05229
G1 X88.458 Y109.708 E0.04970
G1 X88.561 Y108.735 E0.03310
G1 X88.940 Y107.352 E0.04854
G1 X89.584 Y106.067 E0.04867
G1 X90.141 Y105.291 E0.03232
G1 X104.784 Y90.599 E0.70214
G1 X105.923 Y89.681 E0.04950
G1 E-3.50000 F3600.000
;WIPE_START
G1 F7200.000
G1 X107.332 Y88.948 E-0.75440
G1 X108.695 Y88.580 E-0.67060
;WIPE_END
G1 E-0.07500 F3600.000
G1 X107.676 Y92.279 F9000.000
G1 E5.00000 F2400.000
;TYPE:Perimeter
G1 F2100.000
G1 X108.063 Y92.056 E0.01512
G1 X108.471 Y91.874 E0.01512
G1 X108.896 Y91.736 E0.01512
G1 X109.333 Y91.643 E0.01512
G1 X109.777 Y91.597 E0.01512
G1 X110.223 Y91.597 E0.01512
G1 X110.667 Y91.643 E0.01512
G1 X111.104 Y91.736 E0.01512
G1 X111.529 Y91.874 E0.01512
G1 X111.937 Y92.056 E0.01512
G1 X112.324 Y92.279 E0.01512
G1 X112.685 Y92.542 E0.01512
G1 X113.031 Y92.854 E0.01577
G1 X127.146 Y106.969 E0.67568
G1 X127.458 Y107.315 E0.01577
G1 X127.721 Y107.676 E0.01512
G1 X127.944 Y108.063 E0.01512
G1 X128.126 Y108.471 E0.01512
G1 X128.264 Y108.896 E0.01512
G1 X128.357 Y109.333 E0.01512
G1 X128.403 Y109.777 E0.01512
G1 X128.403 Y110.223 E0.01512
G1 X128.357 Y110.667 E0.01512
G1 X128.264 Y111.104 E0.01512
G1 X128.126 Y111.529 E0.01512
G1 X127.944 Y111.937 E0.01512
G1 X127.721 Y112.324 E0.01512
G1 X127.458 Y112.685 E0.01512
G1 X127.146 Y113.031 E0.01577
G1 X113.031 Y127.146 E0.67568
G1 X112.685 Y127.458 E0.01577
G1 X112.324 Y127.721 E0.01512
G1 X111.937 Y127.944 E0.01512
G1 X111.529 Y128.126 E0.01512
G1 X111.104 Y128.264 E0.01512
G1 X110.667 Y128.357 E0.01512
G1 X110.223 Y128.403 E0.01512
G1 X109.777 Y128.403 E0.01512
G1 X109.333 Y128.357 E0.01512
G1 X108.896 Y128.264 E0.01512
G1 X108.471 Y128.126 E0.01512
G1 X108.063 Y127.944 E0.01512
G1 X107.676 Y127.721 E0.01512
G1 X107.315 Y127.458 E0.01512
G1 X106.969 Y127.146 E0.01577
G1 X92.854 Y113.031 E0.67568
G1 X92.542 Y112.685 E0.01577
G1 X92.279 Y112.324 E0.01512
G1 X92.056 Y111.937 E0.01512
G1 X91.874 Y111.529 E0.01512
G1 X91.736 Y111.104 E0.01512
G1 X91.643 Y110.667 E0.01512
G1 X91.597 Y110.223 E0.01512
G1 X91.597 Y109.777 E0.01512
G1 X91.643 Y109.333 E0.01512
G1 X91.736 Y108.896 E0.01512
G1 X91.874 Y108.471 E0.01512
G1 X92.056 Y108.063 E0.01512
G1 X92.279 Y107.676 E0.01512
G1 X92.542 Y107.315 E0.01512
G1 X92.854 Y106.969 E0.01577
G1 X106.969 Y92.854 E0.67568
G1 X107.315 Y92.542 E0.01577
G1 X107.628 Y92.315 E0.01309
G1 X107.388 Y91.985 F9000.000
;TYPE:External perimeter
G1 F2100.000
G1 X107.878 Y91.693 E0.01930
G1 X108.325 Y91.494 E0.01656
G1 X108.790 Y91.343 E0.01656
G1 X109.269 Y91.241 E0.01656
G1 X109.755 Y91.190 E0.01656
G1 X110.245 Y91.190 E0.01656
G1 X110.731 Y91.241 E0.01656
G1 X111.210 Y91.343 E0.01656
G1 X111.675 Y91.494 E0.01656
G1 X112.122 Y91.693 E0.01656
G1 X112.546 Y91.937 E0.01656
G1 X112.942 Y92.225 E0.01656
G1 X113.312 Y92.558 E0.01685
G1 X127.442 Y106.688 E0.67640
G1 X127.775 Y107.058 E0.01685
G1 X128.063 Y107.454 E0.01656
G1 X128.307 Y107.878 E0.01656
G1 X128.506 Y108.325 E0.01656
G1 X128.657 Y108.790 E0.01656
G1 X128.759 Y109.269 E0.01656
G1 X128.810 Y109.755 E0.01656
G1 X128.810 Y110.245 E0.01656
G1 X128.759 Y110.731 E0.01656
G1 X128.657 Y111.210 E0.01656
G1 X128.506 Y111.675 E0.01656
G1 X128.307 Y112.122 E0.01656
G1 X128.063 Y112.546 E0.01656
G1 X127.775 Y112.942 E0.01656
G1 X127.442 Y113.312 E0.01685
G1 X113.312 Y127.442 E0.67640
G1 X112.942 Y127.775 E0.01685
G1 X112.546 Y128.063 E0.01656
G1 X112.122 Y128.307 E0.01656
G1 X111.675 Y128.506 E0.01656
G1 X111.210 Y128.657 E0.01656
G1 X110.731 Y128.759 E0.01656
G1 X110.245 Y128.810 E0.01656
G1 X109.755 Y128.810 E0.01656
G1 X109.269 Y128.759 E0.01656
G1 X108.790 Y128.657 E0.01656
G1 X108.325 Y128.506 E0.01656
G1 X107.878 Y128.307 E0.01656
G1 X107.454 Y128.063 E0.01656
G1 X107.058 Y127.775 E0.01656
G1 X106.688 Y127.442 E0.01685
G1 X92.558 Y113.312 E0.67640
G1 X92.225 Y112.942 E0.01685
G1 X91.937 Y112.546 E0.01656
G1 X91.693 Y112.122 E0.01656
G1 X91.494 Y111.675 E0.01656
G1 X91.343 Y111.210 E0.01656
G1 X91.241 Y110.731 E0.01656
G1 X91.190 Y110.245 E0.01656
G1 X91.190 Y109.755 E0.01656
G1 X91.241 Y109.269 E0.01656
G1 X91.343 Y108.790 E0.01656
G1 X91.494 Y108.325 E0.01656
G1 X91.693 Y107.878 E0.01656
G1 X91.937 Y107.454 E0.01656
G1 X92.225 Y107.058 E0.01656
G1 X92.558 Y106.688 E0.01685
G1 X106.688 Y92.558 E0.67640
G1 X107.058 Y92.225 E0.01685
G1 X107.340 Y92.021 E0.01178
G1 X107.747 Y92.163 F9000.000
G1 E-3.50000 F3600.000
;WIPE_START
G1 F7200.000
G1 X107.878 Y91.693 E-0.29926
G1 X108.325 Y91.494 E-0.23242
G1 X108.790 Y91.343 E-0.23241
G1 X109.269 Y91.241 E-0.23241
G1 X109.755 Y91.190 E-0.23241
G1 X110.168 Y91.190 E-0.19608
;WIPE_END
G1 E-0.07500 F3600.000
G1 X127.798 Y108.055 F9000.000
G1 E5.00000 F2400.000
;TYPE:Solid infill
;WIDTH:0.453533
G1 F2100.000
G1 X112.795 Y93.052 E0.72441
G1 X112.493 Y92.779 E0.01390
G1 X112.157 Y92.536 E0.01416
G1 X111.798 Y92.328 E0.01416
G1 X111.276 Y92.113 E0.01929
G1 X127.887 Y108.724 E0.80206
G1 X127.968 Y108.975 E0.00900
G1 X128.065 Y109.483 E0.01767
G1 X110.517 Y91.935 E0.84733
G1 X110.207 Y91.902 E0.01062
G1 X109.904 Y91.902 E0.01037
G1 X128.098 Y110.096 E0.87851
G1 X128.052 Y110.631 E0.01833
G1 X109.369 Y91.948 E0.90213
G1 X108.897 Y92.057 E0.01653
G1 X127.943 Y111.103 E0.91964
G1 X127.791 Y111.531 E0.01552
G1 X108.469 Y92.209 E0.93295
G1 X108.078 Y92.400 E0.01483
G1 X127.600 Y111.922 E0.94262
G1 X127.376 Y112.278 E0.01438
G1 X107.722 Y92.624 E0.94903
G1 X107.396 Y92.879 E0.01412
G1 X127.121 Y112.604 E0.95239
G1 X126.841 Y112.905 E0.01403
G1 X107.095 Y93.159 E0.95344
G1 X106.805 Y93.449 E0.01402
G1 X126.551 Y113.195 E0.95344
G1 X126.261 Y113.485 E0.01402
G1 X106.515 Y93.739 E0.95344
G1 X106.224 Y94.030 E0.01402
G1 X125.970 Y113.776 E0.95344
G1 X125.680 Y114.066 E0.01402
G1 X105.934 Y94.320 E0.95344
G1 X105.644 Y94.610 E0.01402
G1 X125.390 Y114.356 E0.95344
G1 X125.099 Y114.647 E0.01402
G1 X105.353 Y94.901 E0.95344
G1 X105.063 Y95.191 E0.01402
G1 X124.809 Y114.937 E0.95344
G1 X124.519 Y115.228 E0.01402
G1 X104.772 Y95.481 E0.95344
G1 X104.482 Y95.772 E0.01402
G1 X124.228 Y115.518 E0.95344
G1 X123.938 Y115.808 E0.01402
G1 X104.192 Y96.062 E0.95344
G1 X103.901 Y96.352 E0.01402
G1 X123.648 Y116.099 E0.95344
G1 X123.357 Y116.389 E0.01402
G1 X103.611 Y96.643 E0.95344
G1 X103.321 Y96.933 E0.01402
G1 X123.067 Y116.679 E0.95344
G1 X122.777 Y116.970 E0.01402
G1 X103.030 Y97.223 E0.95344
G1 X102.740 Y97.514 E0.01402
G1 X122.486 Y117.260 E0.95344
G1 X122.196 Y117.550 E0.01402
G1 X102.450 Y97.804 E0.95344
G1 X102.159 Y98.095 E0.01402
G1 X121.905 Y117.841 E0.95344
G1 X121.615 Y118.131 E0.01402
G1 X101.869 Y98.385 E0.95344
G1 X101.579 Y98.675 E0.01402
G1 X121.325 Y118.421 E0.95344
G1 X121.034 Y118.712 E0.01402
G1 X101.288 Y98.966 E0.95344
G1 X100.998 Y99.256 E0.01402
G1 X120.744 Y119.002 E0.95344
G1 X120.454 Y119.292 E0.01402
G1 X100.708 Y99.546 E0.95344
G1 X100.417 Y99.837 E0.01402
G1 X120.163 Y119.583 E0.95344
G1 X119.873 Y119.873 E0.01402
G1 X100.127 Y100.127 E0.95344
G1 X99.837 Y100.417 E0.01402
G1 X119.583 Y120.163 E0.95344
G1 X119.292 Y120.454 E0.01402
G1 X99.546 Y100.708 E0.95344
G1 X99.256 Y100.998 E0.01402
G1 X119.002 Y120.744 E0.95344
G1 X118.712 Y121.034 E0.01402
G1 X98.966 Y101.288 E0.95344
G1 X98.675 Y101.579 E0.01402
G1 X118.421 Y121.325 E0.95344
G1 X118.131 Y121.615 E0.01402
G1 X98.385 Y101.869 E0.95344
G1 X98.094 Y102.159 E0.01402
G1 X117.841 Y121.906 E0.95344
G1 X117.550 Y122.196 E0.01402
G1 X97.804 Y102.450 E0.95344
G1 X97.514 Y102.740 E0.01402
G1 X117.260 Y122.486 E0.95344
G1 X116.970 Y122.777 E0.01402
G1 X97.223 Y103.030 E0.95344
G1 X96.933 Y103.321 E0.01402
G1 X116.679 Y123.067 E0.95344
G1 X116.389 Y123.357 E0.01402
G1 X96.643 Y103.611 E0.95344
G1 X96.352 Y103.901 E0.01402
G1 X116.099 Y123.648 E0.95344
G1 X115.808 Y123.938 E0.01402
G1 X96.062 Y104.192 E0.95344
G1 X95.772 Y104.482 E0.01402
G1 X115.518 Y124.228 E0.95344
G1 X115.227 Y124.519 E0.01402
G1 X95.481 Y104.773 E0.95344
G1 X95.191 Y105.063 E0.01402
G1 X114.937 Y124.809 E0.95344
G1 X114.647 Y125.099 E0.01402
G1 X94.901 Y105.353 E0.95344
G1 X94.610 Y105.644 E0.01402
G1 X114.356 Y125.390 E0.95344
G1 X114.066 Y125.680 E0.01402
G1 X94.320 Y105.934 E0.95344
G1 X94.030 Y106.224 E0.01402
G1 X113.776 Y125.970 E0.95344
G1 X113.485 Y126.261 E0.01402
G1 X93.739 Y106.515 E0.95344
G1 X93.449 Y106.805 E0.01402
G1 X113.195 Y126.551 E0.95344
G1 X112.905 Y126.841 E0.01402
G1 X93.159 Y107.095 E0.95344
G1 X92.879 Y107.396 E0.01403
G1 X112.604 Y127.121 E0.95239
G1 X112.278 Y127.376 E0.01412
G1 X92.624 Y107.722 E0.94903
G1 X92.400 Y108.078 E0.01438
G1 X111.922 Y127.600 E0.94262
G1 X111.531 Y127.791 E0.01483
G1 X92.209 Y108.469 E0.93295
G1 X92.057 Y108.897 E0.01552
G1 X111.103 Y127.943 E0.91964
G1 X110.631 Y128.052 E0.01653
G1 X91.948 Y109.369 E0.90212
G1 X91.902 Y109.904 E0.01833
G1 X110.096 Y128.098 E0.87851
G1 X109.793 Y128.098 E0.01037
G1 X109.483 Y128.065 E0.01063
G1 X91.935 Y110.517 E0.84733
G1 X92.032 Y111.025 E0.01767
G1 X92.113 Y111.276 E0.00901
G1 X108.724 Y127.887 E0.80205
G1 X108.202 Y127.672 E0.01929
G1 X107.843 Y127.464 E0.01416
G1 X107.507 Y127.221 E0.01416
G1 X107.204 Y126.947 E0.01395
G1 X92.202 Y111.946 E0.72436
M106 S255
;LAYER_CHANGE
;Z:0.4
;HEIGHT:0.2
;BEFORE_LAYER_CHANGE
G92 E0
;0.4


G1 E-3.50000 F3600.000
;WIPE_START
G1 F7200.000
G1 X94.323 Y114.067 E-1.42500
;WIPE_END
G1 E-0.07500 F3600.000
G1 Z0.400 F9000.000
;AFTER_LAYER_CHANGE
;0.4
M104 S193 ; set temperature
G1 X89.643 Y114.031
G1 E5.00000 F2400.000
;TYPE:Skirt
;WIDTH:0.45
G1 X88.947 Y112.665 E0.05190
G1 X88.544 Y111.173 E0.05229
G1 X88.458 Y109.708 E0.04970
G1 X88.561 Y108.735 E0.03310
G1 X88.940 Y107.352 E0.04854
G1 X89.584 Y106.067 E0.04867
G1 X90.141 Y105.291 E0.03232
G1 X104.784 Y90.599 E0.70214
G1 X105.969 Y89.643 E0.05153
G1 X107.332 Y88.948 E0.05177
G1 X108.823 Y88.545 E0.05229
G1 X110.266 Y88.458 E0.04892
G1 X111.261 Y88.560 E0.03388
G1 X112.644 Y88.939 E0.04854
G1 X113.933 Y89.584 E0.04879
G1 X114.709 Y90.141 E0.03232
G1 X129.401 Y104.784 E0.70214
G1 X130.357 Y105.969 E0.05153
G1 X131.053 Y107.335 E0.05190
G1 X131.456 Y108.827 E0.05229
G1 X131.542 Y110.292 E0.04970
G1 X131.439 Y111.265 E0.03310
G1 X131.060 Y112.648 E0.04854
G1 X130.416 Y113.933 E0.04867
G1 X129.859 Y114.709 E0.03232
G1 X115.216 Y129.401 E0.70214
G1 X114.031 Y130.357 E0.05153
G1 X112.665 Y131.053 E0.05190
G1 X111.173 Y131.456 E0.05229
G1 X109.708 Y131.542 E0.04970
G1 X108.735 Y131.439 E0.03310
G1 X107.352 Y131.060 E0.04854
G1 X106.067 Y130.416 E0.04867
G1 X105.291 Y129.859 E0.03232
G1 X90.599 Y115.216 E0.70214
G1 X89.681 Y114.077 E0.04950
G1 E-3.50000 F3600.000
;WIPE_START
G1 F7200.000
G1 X88.947 Y112.665 E-0.75621
G1 X88.580 Y111.305 E-0.66879
;WIPE_END
G1 E-0.07500 F3600.000
G1 X92.195 Y112.378 F9000.000
G1 E5.00000 F2400.000
;TYPE:Perimeter
G1 X91.967 Y111.983 E0.01547
G1 X91.781 Y111.565 E0.01547
G1 X91.640 Y111.130 E0.01547
G1 X91.545 Y110.683 E0.01547
G1 X91.497 Y110.229 E0.01547
G1 X91.497 Y109.771 E0.01547
G1 X91.545 Y109.317 E0.01547
G1 X91.640 Y108.870 E0.01547
G1 X91.779 Y108.441 E0.01525
G1 X92.029 Y107.910 E0.01988
G1 X92.195 Y107.622 E0.01127
G1 X92.464 Y107.252 E0.01547
G1 X92.781 Y106.900 E0.01603
G1 X106.900 Y92.781 E0.67586
G1 X107.252 Y92.464 E0.01603
G1 X107.622 Y92.195 E0.01547
G1 X108.017 Y91.967 E0.01547
G1 X108.435 Y91.781 E0.01547
G1 X108.870 Y91.640 E0.01547
G1 X109.317 Y91.545 E0.01547
G1 X109.771 Y91.497 E0.01547
G1 X110.229 Y91.497 E0.01547
G1 X110.683 Y91.545 E0.01547
G1 X111.130 Y91.640 E0.01547
G1 X111.565 Y91.781 E0.01547
G1 X111.983 Y91.967 E0.01547
G1 X112.378 Y92.195 E0.01547
G1 X112.748 Y92.464 E0.01547
G1 X113.100 Y92.781 E0.01603
G1 X127.219 Y106.900 E0.67586
G1 X127.536 Y107.252 E0.01603
G1 X127.805 Y107.622 E0.01547
G1 X128.033 Y108.017 E0.01547
G1 X128.219 Y108.435 E0.01547
G1 X128.360 Y108.870 E0.01547
G1 X128.455 Y109.317 E0.01547
G1 X128.503 Y109.771 E0.01547
G1 X128.503 Y110.229 E0.01547
G1 X128.455 Y110.683 E0.01547
G1 X128.360 Y111.130 E0.01547
G1 X128.219 Y111.565 E0.01547
G1 X128.033 Y111.983 E0.01547
G1 X127.805 Y112.378 E0.01547
G1 X127.536 Y112.748 E0.01547
G1 X127.219 Y113.100 E0.01603
G1 X113.100 Y127.219 E0.67586
G1 X112.748 Y127.536 E0.01603
G1 X112.378 Y127.805 E0.01547
G1 X111.983 Y128.033 E0.01547
G1 X111.565 Y128.219 E0.01547
G1 X111.130 Y128.360 E0.01547
G1 X110.683 Y128.455 E0.01547
G1 X110.229 Y128.503 E0.01547
G1 X109.771 Y128.503 E0.01547
G1 X109.317 Y128.455 E0.01547
G1 X108.870 Y128.360 E0.01547
G1 X108.441 Y128.221 E0.01525
G1 X107.910 Y127.971 E0.01988
G1 X107.622 Y127.805 E0.01127
G1 X107.252 Y127.536 E0.01547
G1 X106.900 Y127.219 E0.01603
G1 X92.781 Y113.100 E0.67586
G1 X92.464 Y112.748 E0.01603
G1 X92.231 Y112.427 E0.01344
G1 X91.901 Y112.666 F9000.000
;TYPE:External perimeter
G1 F1500.000
G1 X91.604 Y112.168 E0.01966
G1 X91.400 Y111.711 E0.01692
G1 X91.246 Y111.236 E0.01692
G1 X91.142 Y110.747 E0.01692
G1 X91.090 Y110.250 E0.01692
G1 X91.090 Y109.750 E0.01692
G1 X91.142 Y109.253 E0.01692
G1 X91.246 Y108.764 E0.01692
G1 X91.400 Y108.291 E0.01684
G1 X91.668 Y107.721 E0.02133
G1 X91.853 Y107.400 E0.01257
G1 X92.147 Y106.995 E0.01692
G1 X92.486 Y106.619 E0.01712
G1 X106.619 Y92.486 E0.67658
G1 X106.995 Y92.147 E0.01712
G1 X107.400 Y91.853 E0.01692
G1 X107.832 Y91.604 E0.01692
G1 X108.289 Y91.400 E0.01692
G1 X108.764 Y91.246 E0.01692
G1 X109.253 Y91.142 E0.01692
G1 X109.750 Y91.090 E0.01692
G1 X110.250 Y91.090 E0.01692
G1 X110.747 Y91.142 E0.01692
G1 X111.236 Y91.246 E0.01692
G1 X111.711 Y91.400 E0.01692
G1 X112.168 Y91.604 E0.01692
G1 X112.600 Y91.853 E0.01692
G1 X113.005 Y92.147 E0.01692
G1 X113.381 Y92.486 E0.01712
G1 X127.514 Y106.619 E0.67658
G1 X127.853 Y106.995 E0.01712
G1 X128.147 Y107.400 E0.01692
G1 X128.396 Y107.832 E0.01692
G1 X128.600 Y108.289 E0.01692
G1 X128.754 Y108.764 E0.01692
G1 X128.858 Y109.253 E0.01692
G1 X128.910 Y109.750 E0.01692
G1 X128.910 Y110.250 E0.01692
G1 X128.858 Y110.747 E0.01692
G1 X128.754 Y111.236 E0.01692
G1 X128.600 Y111.711 E0.01692
G1 X128.396 Y112.168 E0.01692
