; generated by PrusaSlicer 2.3.3+linux-x64-GTK3 on 2023-01-16 at 11:41:42 UTC

; 

; external perimeters extrusion width = 0.45mm
; perimeters extrusion width = 0.45mm
; infill extrusion width = 0.45mm
; solid infill extrusion width = 0.45mm
; top infill extrusion width = 0.40mm
; first layer extrusion width = 0.45mm

M201 X500 Y500 Z100 E5000 ; sets maximum accelerations, mm/sec^2
M203 X500 Y500 Z10 E60 ; sets maximum feedrates, mm/sec
M204 P500 R1000 T500 ; sets acceleration (P, T) and retract acceleration (R), mm/sec^2
M205 X8.00 Y8.00 Z0.40 E5.00 ; sets the jerk limits, mm/sec
M205 S0 T0 ; sets the minimum extruding and travel feed rate, mm/sec
M107
;TYPE:Custom
G90 ; use absolute coordinates
M83 ; extruder relative mode
M104 S195 ; set extruder temp
M140 S60 ; set bed temp
M190 S60 ; wait for bed temp
M109 S195 ; wait for extruder temp
G28 ; home all
G1 Z2 F240
G1 X2 Y10 F3000
G1 Z0.28 F240
G92 E0
G1 Y190 E15 F1500 ; intro line
G1 X2.3 F5000
G92 E0
G1 Y10 E15 F1200 ; intro line
G92 E0
G21 ; set units to millimeters
G90 ; use absolute coordinates
M83 ; use relative distances for extrusion
; Filament gcode
;LAYER_CHANGE
;Z:0.2
;HEIGHT:0.2
;BEFORE_LAYER_CHANGE
G92 E0
;0.2


G1 E-5.00000 F3600.000
G1 Z0.200 F9000.000
;AFTER_LAYER_CHANGE
;0.2
G1 X85.884 Y78.880
G1 E5.00000 F2400.000
;TYPE:Skirt
;WIDTH:0.45
G1 F2100.000
G1 X86.742 Y78.467 E0.03222
G1 X96.258 Y76.799 E0.32702
G1 X123.464 Y76.793 E0.92088
G1 X133.278 Y78.503 E0.33721
G1 X133.873 Y78.783 E0.02225
G1 X134.369 Y79.213 E0.02225
G1 X134.731 Y79.761 E0.02225
G1 X134.931 Y80.384 E0.02212
G1 X134.967 Y139.211 E1.99125
G1 X134.883 Y139.829 E0.02109
G1 X134.642 Y140.407 E0.02122
G1 X134.008 Y141.123 E0.03235
G1 X133.146 Y141.535 E0.03235
G1 X123.503 Y143.207 E0.33127
G1 X96.313 Y143.204 E0.92036
G1 X86.888 Y141.565 E0.32379
G1 X86.130 Y141.284 E0.02737
G1 X85.638 Y140.907 E0.02096
G1 X85.259 Y140.418 E0.02096
G1 X85.017 Y139.848 E0.02096
G1 X84.928 Y139.235 E0.02096
G1 X84.928 Y80.789 E1.97835
G1 X85.012 Y80.171 E0.02109
G1 X85.253 Y79.593 E0.02122
G1 X85.844 Y78.925 E0.03019
G1 E-3.50000 F3600.000
;WIPE_START
G1 F7200.000
G1 X86.742 Y78.467 E-0.47856
G1 X88.704 Y78.123 E-0.94644
;WIPE_END
G1 E-0.07500 F3600.000
G1 X91.603 Y100.568 F9000.000
G1 E5.00000 F2400.000
;TYPE:Perimeter
G1 F2100.000
G1 X99.067 Y100.568 E0.25265
G1 X99.067 Y117.032 E0.55729
G1 X91.603 Y117.032 E0.25265
G1 X91.603 Y100.628 E0.55526
G1 X92.010 Y100.975 F9000.000
;TYPE:External perimeter
G1 F2100.000
G1 X98.660 Y100.975 E0.22509
G1 X98.660 Y116.625 E0.52973
G1 X92.010 Y116.625 E0.22509
G1 X92.010 Y101.035 E0.52770
G1 X91.957 Y100.579 F9000.000
G1 E-3.50000 F3600.000
;WIPE_START
G1 F7200.000
G1 X95.010 Y101.008 E-1.42500
;WIPE_END
G1 E-0.07500 F3600.000
G1 X91.603 Y82.568 F9000.000
G1 E5.00000 F2400.000
;TYPE:Perimeter
G1 F2100.000
G1 X99.067 Y82.568 E0.25265
G1 X99.067 Y99.032 E0.55729
G1 X91.603 Y99.032 E0.25265
G1 X91.603 Y82.628 E0.55526
G1 X92.010 Y82.975 F9000.000
;TYPE:External perimeter
G1 F2100.000
G1 X98.660 Y82.975 E0.22509
G1 X98.660 Y98.625 E0.52973
G1 X92.010 Y98.625 E0.22509
G1 X92.010 Y83.035 E0.52770
G1 X91.957 Y82.579 F9000.000
G1 E-3.50000 F3600.000
;WIPE_START
G1 F7200.000
G1 X95.010 Y83.008 E-1.42500
;WIPE_END
G1 E-0.07500 F3600.000
G1 X101.503 Y81.532 F9000.000
G1 E5.00000 F2400.000
;TYPE:Perimeter
G1 F2100.000
G1 X106.603 Y81.532 E0.17263
G1 X106.603 Y105.732 E0.81914
G1 X108.103 Y105.732 E0.05077
G1 X108.103 Y114.268 E0.28893
G1 X106.603 Y114.268 E0.05077
G1 X106.603 Y138.468 E0.81914
G1 X101.503 Y138.468 E0.17263
G1 X101.503 Y140.068 E0.05416
G1 X97.167 Y140.068 E0.14676
G1 X97.167 Y138.468 E0.05416
G1 X88.067 Y138.468 E0.30802
G1 X88.067 Y81.532 E1.92721
G1 X97.167 Y81.532 E0.30802
G1 X97.167 Y79.932 E0.05416
G1 X101.503 Y79.932 E0.14676
G1 X101.503 Y81.472 E0.05213
G1 X101.910 Y81.125 F9000.000
;TYPE:External perimeter
G1 F2100.000
G1 X107.010 Y81.125 E0.17263
G1 X107.010 Y105.325 E0.81914
G1 X108.510 Y105.325 E0.05077
G1 X108.510 Y114.675 E0.31649
G1 X107.010 Y114.675 E0.05077
G1 X107.010 Y138.875 E0.81914
G1 X101.910 Y138.875 E0.17263
G1 X101.910 Y140.475 E0.05416
G1 X96.760 Y140.475 E0.17432
G1 X96.760 Y138.875 E0.05416
G1 X87.660 Y138.875 E0.30802
G1 X87.660 Y81.125 E1.95477
G1 X96.760 Y81.125 E0.30802
G1 X96.760 Y79.525 E0.05416
G1 X101.910 Y79.525 E0.17432
G1 X101.910 Y81.065 E0.05213
G1 X102.074 Y81.490 F9000.000
G1 E-3.50000 F3600.000
;WIPE_START
G1 F7200.000
G1 X104.910 Y81.100 E-1.42500
;WIPE_END
G1 E-0.07500 F3600.000
G1 X105.656 Y81.654 F9000.000
G1 E5.00000 F2400.000
;TYPE:Solid infill
;WIDTH:0.451217
G1 F2100.000
G1 X106.298 Y82.296 E0.03084
G1 X106.298 Y82.874 E0.01960
G1 X105.261 Y81.837 E0.04977
G1 X104.684 Y81.837 E0.01960
G1 X106.298 Y83.451 E0.07749
G1 X106.298 Y84.029 E0.01960
G1 X104.106 Y81.837 E0.10521
G1 X103.529 Y81.837 E0.01960
G1 X106.298 Y84.606 E0.13294
G1 X106.298 Y85.184 E0.01960
G1 X102.952 Y81.837 E0.16066
G1 X102.374 Y81.837 E0.01960
G1 X106.298 Y85.761 E0.18838
G1 X106.298 Y86.338 E0.01960
G1 X101.614 Y81.654 E0.22490
G1 X101.381 Y80.844 F9000.000
G1 F2100.000
G1 X100.774 Y80.237 E0.02914
G1 X100.197 Y80.237 E0.01960
G1 X101.381 Y81.422 E0.05686
G1 E-3.50000 F3600.000
;WIPE_START
G1 F7200.000
G1 X100.197 Y80.237 E-0.79552
G1 X100.774 Y80.237 E-0.27427
G1 X101.303 Y80.766 E-0.35521
;WIPE_END
G1 E-0.07500 F3600.000
G1 X99.436 Y80.054 F9000.000
G1 E5.00000 F2400.000
G1 F2100.000
G1 X106.298 Y86.916 E0.32945
G1 X106.298 Y87.493 E0.01960
G1 X99.042 Y80.237 E0.34837
G1 X98.465 Y80.237 E0.01960
G1 X106.298 Y88.071 E0.37610
G1 X106.298 Y88.648 E0.01960
G1 X97.887 Y80.237 E0.40382
G1 X97.473 Y80.237 E0.01407
G1 X97.473 Y80.400 E0.00553
G1 X106.298 Y89.226 E0.42372
G1 X106.298 Y89.803 E0.01960
G1 X99.373 Y82.878 E0.33250
G1 X99.373 Y83.455 E0.01960
G1 X106.298 Y90.380 E0.33250
G1 X106.298 Y90.958 E0.01960
G1 X99.373 Y84.033 E0.33250
G1 X99.373 Y84.610 E0.01960
G1 X106.298 Y91.535 E0.33250
G1 X106.298 Y92.113 E0.01960
G1 X99.373 Y85.187 E0.33250
G1 X99.373 Y85.765 E0.01960
G1 X106.298 Y92.690 E0.33250
G1 X106.298 Y93.267 E0.01960
G1 X99.373 Y86.342 E0.33250
G1 X99.373 Y86.920 E0.01960
G1 X106.298 Y93.845 E0.33250
G1 X106.298 Y94.422 E0.01960
G1 X99.373 Y87.497 E0.33250
G1 X99.373 Y88.074 E0.01960
G1 X106.298 Y95.000 E0.33250
G1 X106.298 Y95.577 E0.01960
G1 X99.373 Y88.652 E0.33250
G1 X99.373 Y89.229 E0.01960
G1 X106.298 Y96.155 E0.33250
G1 X106.298 Y96.732 E0.01960
G1 X99.373 Y89.807 E0.33250
G1 X99.373 Y90.384 E0.01960
G1 X106.298 Y97.309 E0.33250
G1 X106.298 Y97.887 E0.01960
G1 X99.373 Y90.962 E0.33250
G1 X99.373 Y91.539 E0.01960
G1 X106.298 Y98.464 E0.33250
G1 X106.298 Y99.042 E0.01960
G1 X99.373 Y92.116 E0.33250
G1 X99.373 Y92.694 E0.01960
G1 X106.298 Y99.619 E0.33250
G1 X106.298 Y100.196 E0.01960
G1 X99.373 Y93.271 E0.33250
G1 X99.373 Y93.849 E0.01960
G1 X106.298 Y100.774 E0.33250
G1 X106.298 Y101.351 E0.01960
G1 X99.373 Y94.426 E0.33250
G1 X99.373 Y95.004 E0.01960
G1 X106.298 Y101.929 E0.33250
G1 X106.298 Y102.506 E0.01960
G1 X99.373 Y95.581 E0.33250
G1 X99.373 Y96.158 E0.01960
G1 X106.298 Y103.084 E0.33250
G1 X106.298 Y103.661 E0.01960
G1 X99.373 Y96.736 E0.33250
G1 X99.373 Y97.313 E0.01960
G1 X106.298 Y104.238 E0.33250
G1 X106.298 Y104.816 E0.01960
G1 X99.373 Y97.891 E0.33250
G1 X99.373 Y98.468 E0.01960
G1 X106.481 Y105.576 E0.34129
G1 X107.336 Y105.854 F9000.000
G1 F2100.000
G1 X107.798 Y106.316 E0.02217
G1 X107.798 Y106.893 E0.01960
G1 X106.759 Y105.854 E0.04989
G1 E-3.50000 F3600.000
;WIPE_START
G1 F7200.000
G1 X107.798 Y106.893 E-0.69800
G1 X107.798 Y106.316 E-0.27427
G1 X107.336 Y105.854 E-0.31012
;WIPE_END
G1 E-0.21761 F3600.000
G1 X107.981 Y107.654 F9000.000
G1 E5.00000 F2400.000
G1 F2100.000
G1 X99.373 Y99.045 E0.41331
G1 X99.373 Y99.337 E0.00991
G1 X99.087 Y99.337 E0.00969
G1 X107.798 Y108.048 E0.41822
G1 X107.798 Y108.626 E0.01960
G1 X98.510 Y99.337 E0.44595
G1 X97.932 Y99.337 E0.01960
G1 X98.858 Y100.263 E0.04442
G1 X99.373 Y100.263 E0.01749
G1 X99.373 Y100.778 E0.01749
G1 X107.798 Y109.203 E0.40452
G1 X107.798 Y109.780 E0.01960
G1 X99.373 Y101.355 E0.40452
G1 X99.373 Y101.933 E0.01960
G1 X107.798 Y110.358 E0.40452
G1 X107.798 Y110.935 E0.01960
G1 X99.373 Y102.510 E0.40452
G1 X99.373 Y103.087 E0.01960
G1 X107.798 Y111.513 E0.40452
G1 X107.798 Y112.090 E0.01960
G1 X99.373 Y103.665 E0.40452
G1 X99.373 Y104.242 E0.01960
G1 X107.798 Y112.667 E0.40452
G1 X107.798 Y113.245 E0.01960
G1 X99.373 Y104.820 E0.40452
G1 X99.373 Y105.397 E0.01960
G1 X107.798 Y113.822 E0.40452
G1 X107.798 Y113.963 E0.00476
G1 X107.361 Y113.963 E0.01484
G1 X99.373 Y105.974 E0.38353
G1 X99.373 Y106.552 E0.01960
G1 X106.783 Y113.963 E0.35581
G1 X106.298 Y113.963 E0.01648
G1 X106.298 Y114.055 E0.00312
G1 X99.373 Y107.129 E0.33250
G1 X99.373 Y107.707 E0.01960
G1 X106.298 Y114.632 E0.33250
G1 X106.298 Y115.209 E0.01960
G1 X99.373 Y108.284 E0.33250
G1 X99.373 Y108.862 E0.01960
G1 X106.298 Y115.787 E0.33250
G1 X106.298 Y116.364 E0.01960
G1 X99.373 Y109.439 E0.33250
G1 X99.373 Y110.016 E0.01960
G1 X106.298 Y116.942 E0.33250
G1 X106.298 Y117.519 E0.01960
G1 X99.373 Y110.594 E0.33250
G1 X99.373 Y111.171 E0.01960
G1 X106.298 Y118.096 E0.33250
G1 X106.298 Y118.674 E0.01960
G1 X99.373 Y111.749 E0.33250
G1 X99.373 Y112.326 E0.01960
G1 X106.298 Y119.251 E0.33250
G1 X106.298 Y119.829 E0.01960
G1 X99.373 Y112.903 E0.33250
G1 X99.373 Y113.481 E0.01960
G1 X106.298 Y120.406 E0.33250
G1 X106.298 Y120.984 E0.01960
G1 X99.373 Y114.058 E0.33250
G1 X99.373 Y114.636 E0.01960
G1 X106.298 Y121.561 E0.33250
G1 X106.298 Y122.138 E0.01960
G1 X99.373 Y115.213 E0.33250
G1 X99.373 Y115.791 E0.01960
G1 X106.298 Y122.716 E0.33250
G1 X106.298 Y123.293 E0.01960
G1 X99.373 Y116.368 E0.33250
G1 X99.373 Y116.945 E0.01960
G1 X106.298 Y123.871 E0.33250
G1 X106.298 Y124.448 E0.01960
G1 X99.187 Y117.337 E0.34140
G1 X98.610 Y117.337 E0.01960
G1 X106.298 Y125.026 E0.36913
G1 X106.298 Y125.603 E0.01960
G1 X98.032 Y117.337 E0.39685
G1 X97.455 Y117.337 E0.01960
G1 X106.298 Y126.180 E0.42457
G1 X106.298 Y126.758 E0.01960
G1 X96.877 Y117.337 E0.45230
G1 X96.300 Y117.337 E0.01960
G1 X106.298 Y127.335 E0.48002
G1 X106.298 Y127.913 E0.01960
G1 X95.723 Y117.337 E0.50774
G1 X95.145 Y117.337 E0.01960
G1 X106.298 Y128.490 E0.53547
G1 X106.298 Y129.067 E0.01960
G1 X94.568 Y117.337 E0.56319
G1 X93.990 Y117.337 E0.01960
G1 X106.298 Y129.645 E0.59091
G1 X106.298 Y130.222 E0.01960
G1 X93.413 Y117.337 E0.61864
G1 X92.836 Y117.337 E0.01960
G1 X106.298 Y130.800 E0.64636
G1 X106.298 Y131.377 E0.01960
G1 X92.075 Y117.154 E0.68288
G1 E-3.50000 F3600.000
;WIPE_START
G1 F7200.000
G1 X94.196 Y119.276 E-1.42500
;WIPE_END
G1 E-0.07500 F3600.000
G1 X98.463 Y100.446 F9000.000
G1 E5.00000 F2400.000
G1 F2100.000
G1 X97.355 Y99.337 E0.05322
G1 X96.777 Y99.337 E0.01960
G1 X97.703 Y100.263 E0.04442
G1 X97.125 Y100.263 E0.01960
G1 X96.200 Y99.337 E0.04442
G1 X95.623 Y99.337 E0.01960
G1 X96.548 Y100.263 E0.04442
G1 X95.970 Y100.263 E0.01960
G1 X95.045 Y99.337 E0.04442
G1 X94.468 Y99.337 E0.01960
G1 X95.393 Y100.263 E0.04442
G1 X94.816 Y100.263 E0.01960
G1 X93.890 Y99.337 E0.04442
G1 X93.313 Y99.337 E0.01960
G1 X94.238 Y100.263 E0.04442
G1 X93.661 Y100.263 E0.01960
G1 X92.736 Y99.337 E0.04442
G1 X92.158 Y99.337 E0.01960
G1 X93.267 Y100.446 E0.05322
G1 E-3.50000 F3600.000
;WIPE_START
G1 F7200.000
G1 X92.158 Y99.337 E-0.74459
G1 X92.736 Y99.337 E-0.27427
G1 X93.340 Y99.942 E-0.40614
;WIPE_END
G1 E-0.07500 F3600.000
G1 X98.941 Y82.446 F9000.000
G1 E5.00000 F2400.000
G1 F2100.000
G1 X97.473 Y80.978 E0.07049
G1 X97.473 Y81.555 E0.01960
G1 X98.180 Y82.263 E0.03397
G1 X97.603 Y82.263 E0.01960
G1 X97.177 Y81.837 E0.02042
G1 X96.600 Y81.837 E0.01960
G1 X97.025 Y82.263 E0.02042
G1 X96.448 Y82.263 E0.01960
G1 X96.023 Y81.837 E0.02042
G1 X95.445 Y81.837 E0.01960
G1 X95.870 Y82.263 E0.02042
G1 X95.293 Y82.263 E0.01960
G1 X94.868 Y81.837 E0.02042
G1 X94.290 Y81.837 E0.01960
G1 X94.716 Y82.263 E0.02042
G1 X94.138 Y82.263 E0.01960
G1 X93.713 Y81.837 E0.02042
G1 X93.136 Y81.837 E0.01960
G1 X93.561 Y82.263 E0.02042
G1 X92.983 Y82.263 E0.01960
G1 X92.558 Y81.837 E0.02042
G1 X91.981 Y81.837 E0.01960
G1 X92.406 Y82.263 E0.02042
G1 X91.828 Y82.263 E0.01960
G1 X91.403 Y81.837 E0.02042
G1 X90.826 Y81.837 E0.01960
G1 X91.298 Y82.309 E0.02266
G1 X91.298 Y82.887 E0.01960
G1 X90.248 Y81.837 E0.05039
G1 X89.671 Y81.837 E0.01960
G1 X91.298 Y83.464 E0.07811
G1 X91.298 Y84.042 E0.01960
G1 X89.094 Y81.837 E0.10583
G1 X88.516 Y81.837 E0.01960
G1 X91.298 Y84.619 E0.13356
G1 X91.298 Y85.196 E0.01960
G1 X88.373 Y82.271 E0.14045
G1 X88.373 Y82.849 E0.01960
G1 X91.298 Y85.774 E0.14045
G1 X91.298 Y86.351 E0.01960
G1 X88.373 Y83.426 E0.14045
G1 X88.373 Y84.004 E0.01960
G1 X91.298 Y86.929 E0.14045
G1 X91.298 Y87.506 E0.01960
G1 X88.373 Y84.581 E0.14045
G1 X88.373 Y85.158 E0.01960
G1 X91.298 Y88.084 E0.14045
G1 X91.298 Y88.661 E0.01960
G1 X88.373 Y85.736 E0.14045
G1 X88.373 Y86.313 E0.01960
G1 X91.298 Y89.238 E0.14045
G1 X91.298 Y89.816 E0.01960
G1 X88.373 Y86.891 E0.14045
G1 X88.373 Y87.468 E0.01960
G1 X91.298 Y90.393 E0.14045
G1 X91.298 Y90.971 E0.01960
G1 X88.373 Y88.045 E0.14045
G1 X88.373 Y88.623 E0.01960
G1 X91.298 Y91.548 E0.14045
G1 X91.298 Y92.126 E0.01960
G1 X88.373 Y89.200 E0.14045
G1 X88.373 Y89.778 E0.01960
G1 X91.298 Y92.703 E0.14045
G1 X91.298 Y93.280 E0.01960
G1 X88.373 Y90.355 E0.14045
G1 X88.373 Y90.933 E0.01960
G1 X91.298 Y93.858 E0.14045
G1 X91.298 Y94.435 E0.01960
G1 X88.373 Y91.510 E0.14045
G1 X88.373 Y92.087 E0.01960
G1 X91.298 Y95.013 E0.14045
G1 X91.298 Y95.590 E0.01960
G1 X88.373 Y92.665 E0.14045
G1 X88.373 Y93.242 E0.01960
G1 X91.298 Y96.167 E0.14045
G1 X91.298 Y96.745 E0.01960
G1 X88.373 Y93.820 E0.14045
G1 X88.373 Y94.397 E0.01960
G1 X91.298 Y97.322 E0.14045
G1 X91.298 Y97.900 E0.01960
G1 X88.373 Y94.974 E0.14045
G1 X88.373 Y95.552 E0.01960
G1 X91.481 Y98.660 E0.14924
G1 E-3.50000 F3600.000
;WIPE_START
G1 F7200.000
G1 X89.360 Y96.539 E-1.42500
;WIPE_END
G1 E-0.07500 F3600.000
G1 X92.689 Y100.446 F9000.000
G1 E5.00000 F2400.000
G1 F2100.000
G1 X88.373 Y96.129 E0.20725
G1 X88.373 Y96.707 E0.01960
G1 X91.929 Y100.263 E0.17073
G1 X91.351 Y100.263 E0.01960
G1 X88.373 Y97.284 E0.14300
G1 X88.373 Y97.862 E0.01960
G1 X91.298 Y100.787 E0.14045
G1 X91.298 Y101.364 E0.01960
G1 X88.373 Y98.439 E0.14045
G1 X88.373 Y99.016 E0.01960
G1 X91.298 Y101.942 E0.14045
G1 X91.298 Y102.519 E0.01960
G1 X88.373 Y99.594 E0.14045
G1 X88.373 Y100.171 E0.01960
G1 X91.298 Y103.096 E0.14045
G1 X91.298 Y103.674 E0.01960
G1 X88.373 Y100.749 E0.14045
G1 X88.373 Y101.326 E0.01960
G1 X91.298 Y104.251 E0.14045
G1 X91.298 Y104.829 E0.01960
G1 X88.373 Y101.903 E0.14045
G1 X88.373 Y102.481 E0.01960
G1 X91.298 Y105.406 E0.14045
G1 X91.298 Y105.984 E0.01960
G1 X88.373 Y103.058 E0.14045
G1 X88.373 Y103.636 E0.01960
G1 X91.298 Y106.561 E0.14045
G1 X91.298 Y107.138 E0.01960
G1 X88.373 Y104.213 E0.14045
G1 X88.373 Y104.791 E0.01960
G1 X91.298 Y107.716 E0.14045
G1 X91.298 Y108.293 E0.01960
G1 X88.373 Y105.368 E0.14045
G1 X88.373 Y105.945 E0.01960
G1 X91.298 Y108.871 E0.14045
G1 X91.298 Y109.448 E0.01960
G1 X88.373 Y106.523 E0.14045
G1 X88.373 Y107.100 E0.01960
G1 X91.298 Y110.026 E0.14045
G1 X91.298 Y110.603 E0.01960
G1 X88.373 Y107.678 E0.14045
G1 X88.373 Y108.255 E0.01960
G1 X91.298 Y111.180 E0.14045
G1 X91.298 Y111.758 E0.01960
G1 X88.373 Y108.833 E0.14045
G1 X88.373 Y109.410 E0.01960
G1 X91.298 Y112.335 E0.14045
G1 X91.298 Y112.913 E0.01960
G1 X88.373 Y109.987 E0.14045
G1 X88.373 Y110.565 E0.01960
G1 X91.298 Y113.490 E0.14045
G1 X91.298 Y114.067 E0.01960
G1 X88.373 Y111.142 E0.14045
G1 X88.373 Y111.720 E0.01960
G1 X91.298 Y114.645 E0.14045
G1 X91.298 Y115.222 E0.01960
G1 X88.373 Y112.297 E0.14045
G1 X88.373 Y112.874 E0.01960
G1 X91.298 Y115.800 E0.14045
G1 X91.298 Y116.377 E0.01960
G1 X88.373 Y113.452 E0.14045
G1 X88.373 Y114.029 E0.01960
G1 X91.298 Y116.955 E0.14045
G1 X91.298 Y117.337 E0.01300
G1 X91.681 Y117.337 E0.01300
G1 X106.298 Y131.955 E0.70181
G1 X106.298 Y132.532 E0.01960
G1 X88.373 Y114.607 E0.86064
G1 X88.373 Y115.184 E0.01960
G1 X106.298 Y133.109 E0.86064
G1 X106.298 Y133.687 E0.01960
G1 X88.373 Y115.762 E0.86064
G1 X88.373 Y116.339 E0.01960
