; generated by PrusaSlicer 2.3.3+linux-x64-GTK3 on 2023-01-14 at 12:51:33 UTC

; 

; external perimeters extrusion width = 0.45mm
; perimeters extrusion width = 0.45mm
; infill extrusion width = 0.45mm
; solid infill extrusion width = 0.45mm
; top infill extrusion width = 0.40mm
; first layer extrusion width = 0.45mm

M201 X500 Y500 Z100 E5000 ; sets maximum accelerations, mm/sec^2
M203 X500 Y500 Z10 E60 ; sets maximum feedrates, mm/sec
M204 P500 R1000 T500 ; sets acceleration (P, T) and retract acceleration (R), mm/sec^2
M205 X8.00 Y8.00 Z0.40 E5.00 ; sets the jerk limits, mm/sec
M205 S0 T0 ; sets the minimum extruding and travel feed rate, mm/sec
M107
;TYPE:Custom
G90 ; use absolute coordinates
M83 ; extruder relative mode
M104 S195 ; set extruder temp
M140 S60 ; set bed temp
M190 S60 ; wait for bed temp
M109 S195 ; wait for extruder temp
G28 ; home all
G1 Z2 F240
G1 X2 Y10 F3000
G1 Z0.28 F240
G92 E0
G1 Y190 E15 F1500 ; intro line
G1 X2.3 F5000
G92 E0
G1 Y10 E15 F1200 ; intro line
G92 E0
G21 ; set units to millimeters
G90 ; use absolute coordinates
M83 ; use relative distances for extrusion
; Filament gcode
;LAYER_CHANGE
;Z:0.2
;HEIGHT:0.2
;BEFORE_LAYER_CHANGE
G92 E0
;0.2


G1 E-5.00000 F3600.000
G1 Z0.200 F9000.000
;AFTER_LAYER_CHANGE
;0.2
G1 X99.604 Y78.683
G1 E5.00000 F2400.000
;TYPE:Skirt
;WIDTH:0.45
G1 F2100.000
G1 X105.192 Y76.885 E0.19869
G1 X105.816 Y76.793 E0.02135
G1 X111.654 Y76.793 E0.19761
G1 X121.468 Y78.503 E0.33721
G1 X122.056 Y78.778 E0.02199
G1 X122.552 Y79.204 E0.02212
G1 X122.915 Y79.748 E0.02212
G1 X123.117 Y80.365 E0.02199
G1 X123.147 Y139.418 E1.99888
G1 X122.960 Y140.154 E0.02571
G1 X122.552 Y140.795 E0.02571
G1 X121.966 Y141.278 E0.02571
G1 X121.258 Y141.553 E0.02571
G1 X111.904 Y143.194 E0.32146
G1 X105.632 Y143.197 E0.21229
G1 X105.136 Y143.099 E0.01709
G1 X99.654 Y141.343 E0.19486
G1 X99.164 Y141.010 E0.02006
G1 X98.771 Y140.571 E0.01993
G1 X98.498 Y140.050 E0.01993
G1 X98.359 Y139.477 E0.01993
G1 X96.843 Y115.000 E0.83012
G1 X96.845 Y104.893 E0.34212
G1 X98.353 Y80.582 E0.82446
G1 X98.477 Y80.007 E0.01993
G1 X98.740 Y79.476 E0.02006
G1 X99.125 Y79.025 E0.02006
G1 X99.555 Y78.718 E0.01790
G1 E-3.50000 F3600.000
;WIPE_START
G1 F7200.000
G1 X102.408 Y77.790 E-1.42500
;WIPE_END
G1 E-0.07500 F3600.000
G1 X101.482 Y81.532 F9000.000
G1 E5.00000 F2400.000
;TYPE:Perimeter
G1 F2100.000
G1 X106.582 Y81.532 E0.17263
G1 X106.582 Y79.932 E0.05416
G1 X110.918 Y79.932 E0.14676
G1 X110.918 Y81.532 E0.05416
G1 X120.018 Y81.532 E0.30802
G1 X120.018 Y138.468 E1.92721
G1 X110.918 Y138.468 E0.30802
G1 X110.918 Y140.068 E0.05416
G1 X106.582 Y140.068 E0.14676
G1 X106.582 Y138.468 E0.05416
G1 X101.482 Y138.468 E0.17263
G1 X101.482 Y114.268 E0.81914
G1 X99.982 Y114.268 E0.05077
G1 X99.982 Y105.732 E0.28893
G1 X101.482 Y105.732 E0.05077
G1 X101.482 Y81.592 E0.81711
G1 E-3.50000 F3600.000
;WIPE_START
G1 F7200.000
G1 X104.482 Y81.557 E-1.42500
;WIPE_END
G1 E-0.07500 F3600.000
G1 X111.325 Y81.125 F9000.000
G1 E5.00000 F2400.000
;TYPE:External perimeter
G1 F2100.000
G1 X120.425 Y81.125 E0.30802
G1 X120.425 Y138.875 E1.95477
G1 X111.325 Y138.875 E0.30802
G1 X111.325 Y140.475 E0.05416
G1 X106.175 Y140.475 E0.17432
G1 X106.175 Y138.875 E0.05416
G1 X101.075 Y138.875 E0.17263
G1 X101.075 Y114.675 E0.81914
G1 X99.575 Y114.675 E0.05077
G1 X99.575 Y105.325 E0.31649
G1 X101.075 Y105.325 E0.05077
G1 X101.075 Y81.125 E0.81914
G1 X106.175 Y81.125 E0.17263
G1 X106.175 Y79.525 E0.05416
G1 X111.325 Y79.525 E0.17432
G1 X111.325 Y81.065 E0.05213
G1 X111.489 Y81.490 F9000.000
G1 X110.796 Y80.886
;TYPE:Solid infill
;WIDTH:0.451217
G1 F2100.000
G1 X109.964 Y80.054 E0.03994
G1 E-3.50000 F3600.000
;WIPE_START
G1 F7200.000
G1 X110.796 Y80.886 E-0.55886
;WIPE_END
G1 E-0.94114 F3600.000
G1 X119.070 Y81.654 F9000.000
G1 E5.00000 F2400.000
G1 F2100.000
G1 X119.713 Y82.296 E0.03084
G1 X119.713 Y82.874 E0.01960
G1 X118.676 Y81.837 E0.04977
G1 X118.099 Y81.837 E0.01960
G1 X119.713 Y83.451 E0.07749
G1 X119.713 Y84.029 E0.01960
G1 X117.521 Y81.837 E0.10521
G1 X116.944 Y81.837 E0.01960
G1 X119.713 Y84.606 E0.13294
G1 X119.713 Y85.184 E0.01960
G1 X116.366 Y81.837 E0.16066
G1 X115.789 Y81.837 E0.01960
G1 X119.713 Y85.761 E0.18838
G1 X119.713 Y86.338 E0.01960
G1 X115.212 Y81.837 E0.21611
G1 X114.634 Y81.837 E0.01960
G1 X119.713 Y86.916 E0.24383
G1 X119.713 Y87.493 E0.01960
G1 X114.057 Y81.837 E0.27155
G1 X113.479 Y81.837 E0.01960
G1 X119.713 Y88.071 E0.29928
G1 X119.713 Y88.648 E0.01960
G1 X112.902 Y81.837 E0.32700
G1 X112.324 Y81.837 E0.01960
G1 X119.713 Y89.226 E0.35472
G1 X119.713 Y89.803 E0.01960
G1 X111.564 Y81.654 E0.39124
G1 E-3.50000 F3600.000
;WIPE_START
G1 F7200.000
G1 X113.685 Y83.776 E-1.42500
;WIPE_END
G1 E-0.07500 F3600.000
G1 X119.896 Y90.564 F9000.000
G1 E5.00000 F2400.000
G1 F2100.000
G1 X111.170 Y81.837 E0.41897
G1 X110.613 Y81.837 E0.01891
G1 X110.613 Y81.280 E0.01891
G1 X109.570 Y80.237 E0.05008
G1 X108.992 Y80.237 E0.01960
G1 X119.713 Y90.958 E0.51471
G1 X119.713 Y91.535 E0.01960
G1 X108.415 Y80.237 E0.54244
G1 X107.837 Y80.237 E0.01960
G1 X119.713 Y92.113 E0.57016
G1 X119.713 Y92.690 E0.01960
G1 X107.260 Y80.237 E0.59788
G1 X106.887 Y80.237 E0.01265
G1 X106.887 Y80.442 E0.00695
G1 X119.713 Y93.267 E0.61577
G1 X119.713 Y93.845 E0.01960
G1 X106.887 Y81.020 E0.61577
G1 X106.887 Y81.597 E0.01960
G1 X119.713 Y94.422 E0.61577
G1 X119.713 Y95.000 E0.01960
G1 X106.550 Y81.837 E0.63196
G1 X105.973 Y81.837 E0.01960
G1 X119.713 Y95.577 E0.65968
G1 X119.713 Y96.155 E0.01960
G1 X105.395 Y81.837 E0.68741
G1 X104.818 Y81.837 E0.01960
G1 X119.713 Y96.732 E0.71513
G1 X119.713 Y97.309 E0.01960
G1 X104.241 Y81.837 E0.74285
G1 X103.663 Y81.837 E0.01960
G1 X119.713 Y97.887 E0.77058
G1 X119.713 Y98.464 E0.01960
G1 X103.086 Y81.837 E0.79830
G1 X102.508 Y81.837 E0.01960
G1 X119.713 Y99.042 E0.82602
G1 X119.713 Y99.619 E0.01960
G1 X101.931 Y81.837 E0.85375
G1 X101.787 Y81.837 E0.00487
G1 X101.787 Y82.271 E0.01473
G1 X119.713 Y100.196 E0.86064
G1 X119.713 Y100.774 E0.01960
G1 X101.787 Y82.849 E0.86064
G1 X101.787 Y83.426 E0.01960
G1 X119.713 Y101.351 E0.86064
G1 X119.713 Y101.929 E0.01960
G1 X101.787 Y84.004 E0.86064
G1 X101.787 Y84.581 E0.01960
G1 X119.713 Y102.506 E0.86064
G1 X119.713 Y103.084 E0.01960
G1 X101.787 Y85.158 E0.86064
G1 X101.787 Y85.736 E0.01960
G1 X119.713 Y103.661 E0.86064
G1 X119.713 Y104.238 E0.01960
G1 X101.787 Y86.313 E0.86064
G1 X101.787 Y86.891 E0.01960
G1 X119.713 Y104.816 E0.86064
G1 X119.713 Y105.393 E0.01960
G1 X101.787 Y87.468 E0.86064
G1 X101.787 Y88.045 E0.01960
G1 X119.713 Y105.971 E0.86064
G1 X119.713 Y106.548 E0.01960
G1 X101.787 Y88.623 E0.86064
G1 X101.787 Y89.200 E0.01960
G1 X119.713 Y107.126 E0.86064
G1 X119.713 Y107.703 E0.01960
G1 X101.787 Y89.778 E0.86064
G1 X101.787 Y90.355 E0.01960
G1 X119.713 Y108.280 E0.86064
G1 X119.713 Y108.858 E0.01960
G1 X101.787 Y90.933 E0.86064
G1 X101.787 Y91.510 E0.01960
G1 X119.713 Y109.435 E0.86064
G1 X119.713 Y110.013 E0.01960
G1 X101.787 Y92.087 E0.86064
G1 X101.787 Y92.665 E0.01960
G1 X119.713 Y110.590 E0.86064
G1 X119.713 Y111.167 E0.01960
G1 X101.787 Y93.242 E0.86064
G1 X101.787 Y93.820 E0.01960
G1 X119.713 Y111.745 E0.86064
G1 X119.713 Y112.322 E0.01960
G1 X101.787 Y94.397 E0.86064
G1 X101.787 Y94.974 E0.01960
G1 X119.713 Y112.900 E0.86064
G1 X119.713 Y113.477 E0.01960
G1 X101.787 Y95.552 E0.86064
G1 X101.787 Y96.129 E0.01960
G1 X119.713 Y114.055 E0.86064
G1 X119.713 Y114.632 E0.01960
G1 X101.787 Y96.707 E0.86064
G1 X101.787 Y97.284 E0.01960
G1 X119.713 Y115.209 E0.86064
G1 X119.713 Y115.787 E0.01960
G1 X101.787 Y97.862 E0.86064
G1 X101.787 Y98.439 E0.01960
G1 X119.713 Y116.364 E0.86064
G1 X119.713 Y116.942 E0.01960
G1 X101.787 Y99.016 E0.86064
G1 X101.787 Y99.594 E0.01960
G1 X119.713 Y117.519 E0.86064
G1 X119.713 Y118.096 E0.01960
G1 X101.787 Y100.171 E0.86064
G1 X101.787 Y100.749 E0.01960
G1 X119.713 Y118.674 E0.86064
G1 X119.713 Y119.251 E0.01960
G1 X101.787 Y101.326 E0.86064
G1 X101.787 Y101.903 E0.01960
G1 X119.713 Y119.829 E0.86064
G1 X119.713 Y120.406 E0.01960
G1 X101.787 Y102.481 E0.86064
G1 X101.787 Y103.058 E0.01960
G1 X119.713 Y120.984 E0.86064
G1 X119.713 Y121.561 E0.01960
G1 X101.787 Y103.636 E0.86064
G1 X101.787 Y104.213 E0.01960
G1 X119.713 Y122.138 E0.86064
G1 X119.713 Y122.716 E0.01960
G1 X101.787 Y104.791 E0.86064
G1 X101.787 Y105.368 E0.01960
G1 X119.713 Y123.293 E0.86064
G1 X119.713 Y123.871 E0.01960
G1 X101.787 Y105.945 E0.86064
G1 X101.787 Y106.037 E0.00312
G1 X101.302 Y106.037 E0.01648
G1 X119.713 Y124.448 E0.88395
G1 X119.713 Y125.026 E0.01960
G1 X100.724 Y106.037 E0.91167
G1 X100.287 Y106.037 E0.01484
G1 X100.287 Y106.178 E0.00476
G1 X119.713 Y125.603 E0.93266
G1 X119.713 Y126.180 E0.01960
G1 X100.287 Y106.755 E0.93266
G1 X100.287 Y107.333 E0.01960
G1 X119.713 Y126.758 E0.93266
G1 X119.713 Y127.335 E0.01960
G1 X100.287 Y107.910 E0.93266
G1 X100.287 Y108.487 E0.01960
G1 X119.713 Y127.913 E0.93266
G1 X119.713 Y128.490 E0.01960
G1 X100.287 Y109.065 E0.93266
G1 X100.287 Y109.642 E0.01960
G1 X119.713 Y129.067 E0.93266
G1 X119.713 Y129.645 E0.01960
G1 X100.287 Y110.220 E0.93266
G1 X100.287 Y110.797 E0.01960
G1 X119.713 Y130.222 E0.93266
G1 X119.713 Y130.800 E0.01960
G1 X100.287 Y111.374 E0.93266
G1 X100.287 Y111.952 E0.01960
G1 X119.713 Y131.377 E0.93266
G1 X119.713 Y131.955 E0.01960
G1 X100.287 Y112.529 E0.93266
G1 X100.287 Y113.107 E0.01960
G1 X101.143 Y113.963 E0.04109
G1 X100.566 Y113.963 E0.01960
G1 X100.104 Y113.501 E0.02217
G1 X101.604 Y114.424 F9000.000
G1 F2100.000
G1 X119.713 Y132.532 E0.86943
G1 X119.713 Y133.109 E0.01960
G1 X101.787 Y115.184 E0.86064
G1 X101.787 Y115.762 E0.01960
G1 X119.713 Y133.687 E0.86064
G1 X119.713 Y134.264 E0.01960
G1 X101.787 Y116.339 E0.86064
G1 X101.787 Y116.916 E0.01960
G1 X119.713 Y134.842 E0.86064
G1 X119.713 Y135.419 E0.01960
G1 X101.787 Y117.494 E0.86064
G1 X101.787 Y118.071 E0.01960
G1 X119.713 Y135.996 E0.86064
G1 X119.713 Y136.574 E0.01960
G1 X101.787 Y118.649 E0.86064
G1 X101.787 Y119.226 E0.01960
G1 X119.713 Y137.151 E0.86064
G1 X119.713 Y137.729 E0.01960
G1 X101.787 Y119.803 E0.86064
G1 X101.787 Y120.381 E0.01960
G1 X119.569 Y138.163 E0.85375
G1 X118.992 Y138.163 E0.01960
G1 X101.787 Y120.958 E0.82602
G1 X101.787 Y121.536 E0.01960
G1 X118.414 Y138.163 E0.79830
G1 X117.837 Y138.163 E0.01960
G1 X101.787 Y122.113 E0.77058
G1 X101.787 Y122.691 E0.01960
G1 X117.259 Y138.163 E0.74285
G1 X116.682 Y138.163 E0.01960
G1 X101.787 Y123.268 E0.71513
G1 X101.787 Y123.845 E0.01960
G1 X116.105 Y138.163 E0.68741
G1 X115.527 Y138.163 E0.01960
G1 X101.787 Y124.423 E0.65968
G1 X101.787 Y125.000 E0.01960
G1 X114.950 Y138.163 E0.63196
G1 X114.372 Y138.163 E0.01960
G1 X101.787 Y125.578 E0.60424
G1 X101.787 Y126.155 E0.01960
G1 X113.795 Y138.163 E0.57651
G1 X113.217 Y138.163 E0.01960
G1 X101.787 Y126.733 E0.54879
G1 X101.787 Y127.310 E0.01960
G1 X112.640 Y138.163 E0.52107
G1 X112.063 Y138.163 E0.01960
G1 X101.787 Y127.887 E0.49334
G1 X101.787 Y128.465 E0.01960
G1 X111.485 Y138.163 E0.46562
G1 X110.908 Y138.163 E0.01960
G1 X101.787 Y129.042 E0.43790
G1 X101.787 Y129.620 E0.01960
G1 X110.613 Y138.445 E0.42372
G1 X110.613 Y139.022 E0.01960
G1 X101.787 Y130.197 E0.42372
G1 X101.787 Y130.774 E0.01960
G1 X110.613 Y139.600 E0.42372
G1 X110.613 Y139.763 E0.00553
G1 X110.198 Y139.763 E0.01407
G1 X101.787 Y131.352 E0.40382
G1 X101.787 Y131.929 E0.01960
G1 X109.621 Y139.763 E0.37610
G1 X109.043 Y139.763 E0.01960
G1 X101.787 Y132.507 E0.34838
G1 X101.787 Y133.084 E0.01960
G1 X108.466 Y139.763 E0.32065
G1 X107.888 Y139.763 E0.01960
G1 X106.887 Y138.762 E0.04806
G1 X106.887 Y139.339 E0.01960
G1 X107.494 Y139.946 E0.02914
G1 X106.472 Y138.346 F9000.000
G1 F2100.000
G1 X101.787 Y133.662 E0.22490
G1 X101.787 Y134.239 E0.01960
G1 X105.711 Y138.163 E0.18838
G1 X105.134 Y138.163 E0.01960
G1 X101.787 Y134.816 E0.16066
G1 X101.787 Y135.394 E0.01960
G1 X104.556 Y138.163 E0.13294
G1 X103.979 Y138.163 E0.01960
G1 X101.787 Y135.971 E0.10521
G1 X101.787 Y136.549 E0.01960
G1 X103.401 Y138.163 E0.07749
G1 X102.824 Y138.163 E0.01960
G1 X101.787 Y137.126 E0.04977
G1 X101.787 Y137.703 E0.01960
G1 X102.430 Y138.346 E0.03084
M106 S255
;LAYER_CHANGE
;Z:0.4
;HEIGHT:0.2
;BEFORE_LAYER_CHANGE
G92 E0
;0.4


G1 E-3.50000 F3600.000
;WIPE_START
G1 F7200.000
G1 X101.787 Y137.703 E-0.43148
G1 X101.787 Y137.126 E-0.27427
G1 X102.824 Y138.163 E-0.69631
G1 X102.872 Y138.163 E-0.02294
;WIPE_END
G1 E-0.07500 F3600.000
G1 Z0.400 F9000.000
;AFTER_LAYER_CHANGE
;0.4
M104 S193 ; set temperature
G1 X99.654 Y141.343
G1 E5.00000 F2400.000
;TYPE:Skirt
;WIDTH:0.45
G1 X99.164 Y141.010 E0.02006
G1 X98.771 Y140.571 E0.01993
G1 X98.498 Y140.050 E0.01993
G1 X98.359 Y139.477 E0.01993
G1 X96.843 Y115.000 E0.83012
G1 X96.845 Y104.893 E0.34212
G1 X98.353 Y80.582 E0.82446
G1 X98.477 Y80.007 E0.01993
G1 X98.740 Y79.476 E0.02006
G1 X99.125 Y79.025 E0.02006
G1 X99.604 Y78.683 E0.01993
G1 X105.192 Y76.885 E0.19869
G1 X105.816 Y76.793 E0.02135
G1 X111.654 Y76.793 E0.19761
G1 X121.468 Y78.503 E0.33721
G1 X122.056 Y78.778 E0.02199
G1 X122.552 Y79.204 E0.02212
G1 X122.915 Y79.748 E0.02212
G1 X123.117 Y80.365 E0.02199
G1 X123.147 Y139.418 E1.99888
G1 X122.960 Y140.154 E0.02571
G1 X122.552 Y140.795 E0.02571
G1 X121.966 Y141.278 E0.02571
G1 X121.258 Y141.553 E0.02571
G1 X111.904 Y143.194 E0.32146
G1 X105.632 Y143.197 E0.21229
G1 X105.136 Y143.099 E0.01709
G1 X99.711 Y141.361 E0.19283
G1 E-3.50000 F3600.000
;WIPE_START
G1 F7200.000
G1 X99.164 Y141.010 E-0.30893
G1 X98.771 Y140.571 E-0.27968
G1 X98.498 Y140.050 E-0.27968
G1 X98.359 Y139.477 E-0.27968
G1 X98.323 Y138.895 E-0.27703
;WIPE_END
G1 E-0.07500 F3600.000
G1 X101.382 Y138.568 F9000.000
G1 E5.00000 F2400.000
;TYPE:Perimeter
G1 X101.382 Y114.368 E0.81914
G1 X99.882 Y114.368 E0.05077
G1 X99.882 Y105.632 E0.29570
G1 X101.382 Y105.632 E0.05077
G1 X101.382 Y81.432 E0.81914
G1 X106.482 Y81.432 E0.17263
G1 X106.482 Y79.832 E0.05416
G1 X111.018 Y79.832 E0.15353
G1 X111.018 Y81.432 E0.05416
G1 X120.118 Y81.432 E0.30802
G1 X120.118 Y138.568 E1.93398
G1 X111.018 Y138.568 E0.30802
G1 X111.018 Y140.168 E0.05416
G1 X106.482 Y140.168 E0.15353
G1 X106.482 Y138.568 E0.05416
G1 X101.442 Y138.568 E0.17060
G1 E-3.50000 F3600.000
;WIPE_START
G1 F7200.000
G1 X101.435 Y135.568 E-1.42500
;WIPE_END
G1 E-0.07500 F3600.000
G1 X111.425 Y81.025 F9000.000
G1 E5.00000 F2400.000
;TYPE:External perimeter
G1 F1500.000
G1 X120.525 Y81.025 E0.30802
G1 X120.525 Y138.975 E1.96154
G1 X111.425 Y138.975 E0.30802
G1 X111.425 Y140.575 E0.05416
G1 X106.075 Y140.575 E0.18109
G1 X106.075 Y138.975 E0.05416
G1 X100.975 Y138.975 E0.17263
G1 X100.975 Y114.775 E0.81914
G1 X99.475 Y114.775 E0.05077
G1 X99.475 Y105.225 E0.32326
G1 X100.975 Y105.225 E0.05077
G1 X100.975 Y81.025 E0.81914
G1 X106.075 Y81.025 E0.17263
G1 X106.075 Y79.425 E0.05416
G1 X111.425 Y79.425 E0.18109
G1 X111.425 Y80.965 E0.05213
G1 X111.591 Y81.389 F9000.000
G1 E-3.50000 F3600.000
;WIPE_START
G1 F7200.000
G1 X114.425 Y80.985 E-1.42500
;WIPE_END
G1 E-0.07500 F3600.000
G1 X110.896 Y139.233 F9000.000
G1 E5.00000 F2400.000
;TYPE:Solid infill
;WIDTH:0.450259
G1 X110.267 Y139.863 E0.03013
G1 X109.691 Y139.863 E0.01951
G1 X110.896 Y138.657 E0.05773
G1 E-3.50000 F3600.000
;WIPE_START
G1 F7200.000
G1 X109.691 Y139.863 E-0.80958
G1 X110.267 Y139.863 E-0.27363
G1 X110.775 Y139.354 E-0.34179
;WIPE_END
G1 E-0.07500 F3600.000
G1 X119.172 Y138.446 F9000.000
G1 E5.00000 F2400.000
G1 X119.813 Y137.806 E0.03067
G1 X119.813 Y137.229 E0.01951
G1 X118.779 Y138.263 E0.04949
G1 X118.203 Y138.263 E0.01951
G1 X119.813 Y136.653 E0.07708
G1 X119.813 Y136.077 E0.01951
G1 X117.627 Y138.263 E0.10467
G1 X117.051 Y138.263 E0.01951
G1 X119.813 Y135.501 E0.13227
G1 X119.813 Y134.925 E0.01951
G1 X116.475 Y138.263 E0.15986
G1 X115.899 Y138.263 E0.01951
G1 X119.813 Y134.349 E0.18746
G1 X119.813 Y133.773 E0.01951
G1 X115.323 Y138.263 E0.21505
G1 X114.747 Y138.263 E0.01951
G1 X119.813 Y133.197 E0.24264
G1 X119.813 Y132.621 E0.01951
G1 X114.171 Y138.263 E0.27024
G1 X113.595 Y138.263 E0.01951
G1 X119.813 Y132.045 E0.29783
G1 X119.813 Y131.469 E0.01951
G1 X113.019 Y138.263 E0.32542
G1 X112.443 Y138.263 E0.01951
G1 X119.813 Y130.893 E0.35302
