; generated by PrusaSlicer 2.3.3+linux-x64-GTK3 on 2023-01-16 at 07:58:25 UTC

; 

; external perimeters extrusion width = 0.45mm
; perimeters extrusion width = 0.45mm
; infill extrusion width = 0.45mm
; solid infill extrusion width = 0.45mm
; top infill extrusion width = 0.40mm
; first layer extrusion width = 0.45mm

M201 X500 Y500 Z100 E5000 ; sets maximum accelerations, mm/sec^2
M203 X500 Y500 Z10 E60 ; sets maximum feedrates, mm/sec
M204 P500 R1000 T500 ; sets acceleration (P, T) and retract acceleration (R), mm/sec^2
M205 X8.00 Y8.00 Z0.40 E5.00 ; sets the jerk limits, mm/sec
M205 S0 T0 ; sets the minimum extruding and travel feed rate, mm/sec
M107
;TYPE:Custom
G90 ; use absolute coordinates
M83 ; extruder relative mode
M104 S195 ; set extruder temp
M140 S60 ; set bed temp
M190 S60 ; wait for bed temp
M109 S195 ; wait for extruder temp
G28 ; home all
G1 Z2 F240
G1 X2 Y10 F3000
G1 Z0.28 F240
G92 E0
G1 Y190 E15 F1500 ; intro line
G1 X2.3 F5000
G92 E0
G1 Y10 E15 F1200 ; intro line
G92 E0
G21 ; set units to millimeters
G90 ; use absolute coordinates
M83 ; use relative distances for extrusion
; Filament gcode
;LAYER_CHANGE
;Z:0.2
;HEIGHT:0.2
;BEFORE_LAYER_CHANGE
G92 E0
;0.2


G1 E-5.00000 F3600.000
G1 Z0.200 F9000.000
;AFTER_LAYER_CHANGE
;0.2
G1 X45.618 Y58.145
G1 E5.00000 F2400.000
;TYPE:Skirt
;WIDTH:0.45
G1 F2100.000
G1 X46.250 Y57.847 E0.02366
G1 X46.941 Y57.743 E0.02366
G1 X173.054 Y57.743 E4.26875
G1 X173.969 Y57.925 E0.03159
G1 X174.743 Y58.439 E0.03146
G1 X175.904 Y59.696 E0.05791
G1 X176.163 Y60.283 E0.02173
G1 X176.257 Y60.915 E0.02160
G1 X176.256 Y142.104 E2.74815
G1 X176.142 Y142.785 E0.02340
G1 X175.838 Y143.407 E0.02340
G1 X174.382 Y144.855 E0.06953
G1 X173.792 Y145.140 E0.02218
G1 X122.948 Y161.612 E1.80908
G1 X121.715 Y161.956 E0.04330
G1 X120.363 Y162.182 E0.04640
G1 X119.039 Y162.257 E0.04488
G1 X100.973 Y162.257 E0.61152
G1 X99.527 Y162.167 E0.04905
G1 X98.316 Y161.963 E0.04156
G1 X97.080 Y161.620 E0.04342
G1 X46.190 Y145.134 E1.81070
G1 X45.384 Y144.678 E0.03133
G1 X44.145 Y143.382 E0.06070
G1 X43.848 Y142.753 E0.02353
G1 X43.743 Y142.062 E0.02366
G1 X43.743 Y60.908 E2.74698
G1 X43.855 Y60.225 E0.02340
G1 X44.157 Y59.600 E0.02353
G1 X45.576 Y58.187 E0.06775
G1 E-3.50000 F3600.000
;WIPE_START
G1 F7200.000
G1 X46.250 Y57.847 E-0.35897
G1 X46.941 Y57.743 E-0.33200
G1 X48.487 Y57.743 E-0.73402
;WIPE_END
G1 E-0.07500 F3600.000
G1 X107.624 Y146.346 F9000.000
G1 E5.00000 F2400.000
;TYPE:Perimeter
G1 F2100.000
G1 X108.017 Y146.110 E0.01552
G1 X108.433 Y145.917 E0.01552
G1 X108.868 Y145.771 E0.01551
G1 X109.315 Y145.673 E0.01551
G1 X109.771 Y145.623 E0.01551
G1 X110.229 Y145.623 E0.01551
G1 X110.685 Y145.673 E0.01551
G1 X111.132 Y145.771 E0.01551
G1 X111.567 Y145.917 E0.01551
G1 X111.983 Y146.110 E0.01552
G1 X112.376 Y146.346 E0.01552
G1 X112.740 Y146.624 E0.01551
G1 X113.073 Y146.939 E0.01551
G1 X113.370 Y147.288 E0.01552
G1 X113.627 Y147.668 E0.01551
G1 X113.842 Y148.073 E0.01551
G1 X114.012 Y148.498 E0.01551
G1 X114.134 Y148.940 E0.01551
G1 X114.208 Y149.392 E0.01551
G1 X114.233 Y149.850 E0.01551
G1 X114.208 Y150.308 E0.01551
G1 X114.134 Y150.760 E0.01551
G1 X114.012 Y151.202 E0.01551
G1 X113.842 Y151.627 E0.01551
G1 X113.627 Y152.032 E0.01551
G1 X113.370 Y152.412 E0.01551
G1 X113.073 Y152.761 E0.01552
G1 X112.740 Y153.076 E0.01551
G1 X112.376 Y153.354 E0.01551
G1 X111.983 Y153.590 E0.01551
G1 X111.567 Y153.782 E0.01551
G1 X111.132 Y153.929 E0.01551
G1 X110.685 Y154.027 E0.01552
G1 X110.229 Y154.077 E0.01551
G1 X109.771 Y154.077 E0.01551
G1 X109.315 Y154.027 E0.01551
G1 X108.868 Y153.929 E0.01552
G1 X108.433 Y153.782 E0.01551
G1 X108.017 Y153.590 E0.01551
G1 X107.624 Y153.354 E0.01551
G1 X107.260 Y153.076 E0.01551
G1 X106.927 Y152.761 E0.01551
G1 X106.630 Y152.412 E0.01552
G1 X106.373 Y152.032 E0.01551
G1 X106.158 Y151.627 E0.01551
G1 X105.988 Y151.202 E0.01551
G1 X105.866 Y150.760 E0.01551
G1 X105.792 Y150.308 E0.01551
G1 X105.767 Y149.850 E0.01551
G1 X105.792 Y149.392 E0.01551
G1 X105.866 Y148.940 E0.01551
G1 X105.988 Y148.498 E0.01551
G1 X106.158 Y148.073 E0.01551
G1 X106.373 Y147.668 E0.01551
G1 X106.630 Y147.288 E0.01551
G1 X106.927 Y146.939 E0.01552
G1 X107.260 Y146.624 E0.01551
G1 X107.577 Y146.383 E0.01348
G1 X107.823 Y146.707 F9000.000
;TYPE:External perimeter
G1 F2100.000
G1 X108.208 Y146.470 E0.01530
G1 X108.584 Y146.296 E0.01402
G1 X108.977 Y146.164 E0.01402
G1 X109.381 Y146.075 E0.01402
G1 X109.793 Y146.030 E0.01402
G1 X110.207 Y146.030 E0.01402
G1 X110.619 Y146.075 E0.01402
G1 X111.023 Y146.164 E0.01402
G1 X111.416 Y146.296 E0.01402
G1 X111.792 Y146.470 E0.01402
G1 X112.147 Y146.684 E0.01402
G1 X112.477 Y146.934 E0.01402
G1 X112.777 Y147.219 E0.01402
G1 X113.045 Y147.535 E0.01402
G1 X113.278 Y147.878 E0.01402
G1 X113.472 Y148.244 E0.01402
G1 X113.625 Y148.629 E0.01402
G1 X113.736 Y149.028 E0.01402
G1 X113.803 Y149.436 E0.01402
G1 X113.825 Y149.850 E0.01402
G1 X113.803 Y150.264 E0.01402
G1 X113.736 Y150.672 E0.01402
G1 X113.625 Y151.071 E0.01402
G1 X113.472 Y151.456 E0.01402
G1 X113.278 Y151.822 E0.01402
G1 X113.045 Y152.165 E0.01402
G1 X112.777 Y152.481 E0.01402
G1 X112.477 Y152.766 E0.01402
G1 X112.147 Y153.016 E0.01402
G1 X111.792 Y153.230 E0.01402
G1 X111.416 Y153.404 E0.01402
G1 X111.023 Y153.536 E0.01402
G1 X110.619 Y153.625 E0.01402
G1 X110.207 Y153.670 E0.01402
G1 X109.793 Y153.670 E0.01402
G1 X109.381 Y153.625 E0.01402
G1 X108.977 Y153.536 E0.01402
G1 X108.584 Y153.404 E0.01402
G1 X108.208 Y153.230 E0.01402
G1 X107.853 Y153.016 E0.01402
G1 X107.523 Y152.766 E0.01402
G1 X107.223 Y152.481 E0.01402
G1 X106.955 Y152.165 E0.01402
G1 X106.722 Y151.822 E0.01402
G1 X106.528 Y151.456 E0.01402
G1 X106.375 Y151.071 E0.01402
G1 X106.264 Y150.672 E0.01402
G1 X106.197 Y150.264 E0.01402
G1 X106.175 Y149.850 E0.01402
G1 X106.197 Y149.436 E0.01402
G1 X106.264 Y149.028 E0.01402
G1 X106.375 Y148.629 E0.01402
G1 X106.528 Y148.244 E0.01402
G1 X106.722 Y147.878 E0.01402
G1 X106.955 Y147.535 E0.01402
G1 X107.223 Y147.219 E0.01402
G1 X107.523 Y146.934 E0.01402
G1 X107.775 Y146.743 E0.01071
G1 X107.791 Y146.308 F9000.000
G1 E-3.50000 F3600.000
;WIPE_START
G1 F7200.000
G1 X108.208 Y146.470 E-0.24305
G1 X108.584 Y146.296 E-0.19675
G1 X108.977 Y146.164 E-0.19675
G1 X109.381 Y146.075 E-0.19675
G1 X109.793 Y146.030 E-0.19675
G1 X110.207 Y146.030 E-0.19675
G1 X110.619 Y146.075 E-0.19675
G1 X110.622 Y146.076 E-0.00144
;WIPE_END
G1 E-0.07500 F3600.000
G1 X53.818 Y64.318 F9000.000
G1 E5.00000 F2400.000
;TYPE:Perimeter
G1 F2100.000
G1 X166.182 Y64.318 E3.80339
G1 X166.182 Y133.182 E2.33097
G1 X53.818 Y133.182 E3.80339
G1 X53.818 Y64.378 E2.32894
G1 X54.225 Y64.725 F9000.000
;TYPE:External perimeter
G1 F2100.000
G1 X165.775 Y64.725 E3.77583
G1 X165.775 Y132.775 E2.30341
G1 X54.225 Y132.775 E3.77583
G1 X54.225 Y64.785 E2.30138
G1 X54.091 Y64.348 F9000.000
G1 E-3.50000 F3600.000
;WIPE_START
G1 F7200.000
G1 X57.225 Y64.783 E-1.42500
;WIPE_END
G1 E-0.07500 F3600.000
G1 X47.153 Y60.982 F9000.000
G1 E5.00000 F2400.000
;TYPE:Perimeter
G1 F2100.000
G1 X172.847 Y60.982 E4.25458
G1 X173.018 Y61.153 E0.00819
G1 X173.018 Y141.847 E2.73138
G1 X172.847 Y142.018 E0.00819
G1 X139.980 Y142.018 E1.11250
G1 X138.823 Y142.081 E0.03924
G1 X137.659 Y142.273 E0.03992
G1 X136.523 Y142.590 E0.03992
G1 X135.429 Y143.029 E0.03991
G1 X134.388 Y143.584 E0.03992
G1 X133.414 Y144.248 E0.03992
G1 X132.827 Y144.751 E0.02616
G1 X132.518 Y145.015 E0.01376
G1 X131.711 Y145.875 E0.03991
G1 X131.002 Y146.817 E0.03992
G1 X130.410 Y147.814 E0.03924
G1 X127.134 Y154.080 E0.23935
G1 X126.614 Y154.955 E0.03445
G1 X126.014 Y155.752 E0.03378
G1 X125.331 Y156.480 E0.03378
G1 X124.573 Y157.128 E0.03378
G1 X123.749 Y157.691 E0.03378
G1 X122.868 Y158.161 E0.03378
G1 X121.942 Y158.532 E0.03378
G1 X120.981 Y158.800 E0.03378
G1 X119.996 Y158.963 E0.03378
G1 X118.980 Y159.018 E0.03445
G1 X101.020 Y159.018 E0.60793
G1 X100.004 Y158.963 E0.03445
G1 X99.019 Y158.800 E0.03378
G1 X98.058 Y158.532 E0.03378
G1 X97.132 Y158.161 E0.03378
G1 X96.251 Y157.691 E0.03378
G1 X95.427 Y157.128 E0.03378
G1 X94.669 Y156.480 E0.03378
G1 X93.986 Y155.752 E0.03378
G1 X93.386 Y154.955 E0.03378
G1 X92.866 Y154.080 E0.03445
G1 X89.590 Y147.814 E0.23935
G1 X88.998 Y146.817 E0.03924
G1 X88.289 Y145.875 E0.03992
G1 X87.482 Y145.015 E0.03992
G1 X86.586 Y144.248 E0.03991
G1 X85.612 Y143.584 E0.03992
G1 X84.571 Y143.029 E0.03992
G1 X83.477 Y142.590 E0.03991
G1 X82.341 Y142.273 E0.03992
G1 X81.177 Y142.081 E0.03992
G1 X80.020 Y142.018 E0.03924
G1 X47.153 Y142.018 E1.11250
G1 X46.982 Y141.847 E0.00819
G1 X46.982 Y61.153 E2.73138
G1 X47.111 Y61.025 E0.00616
G1 X46.985 Y60.575 F9000.000
;TYPE:External perimeter
G1 F2100.000
G1 X173.015 Y60.575 E4.26599
G1 X173.425 Y60.985 E0.01961
G1 X173.425 Y142.015 E2.74279
G1 X173.015 Y142.425 E0.01961
G1 X139.991 Y142.425 E1.11783
G1 X138.867 Y142.486 E0.03811
G1 X137.747 Y142.671 E0.03841
G1 X136.654 Y142.976 E0.03841
G1 X135.601 Y143.398 E0.03841
G1 X134.599 Y143.932 E0.03841
G1 X133.662 Y144.572 E0.03841
G1 X133.092 Y145.060 E0.02541
G1 X132.800 Y145.310 E0.01300
G1 X132.023 Y146.137 E0.03841
G1 X131.341 Y147.044 E0.03841
G1 X130.766 Y148.012 E0.03811
G1 X127.489 Y154.278 E0.23935
G1 X126.952 Y155.182 E0.03558
G1 X126.326 Y156.015 E0.03528
G1 X125.612 Y156.774 E0.03528
G1 X124.821 Y157.452 E0.03528
G1 X123.960 Y158.040 E0.03528
G1 X123.040 Y158.530 E0.03528
G1 X122.073 Y158.918 E0.03528
G1 X121.069 Y159.198 E0.03528
G1 X120.041 Y159.368 E0.03528
G1 X118.991 Y159.425 E0.03558
G1 X101.009 Y159.425 E0.60868
G1 X99.959 Y159.368 E0.03558
G1 X98.931 Y159.198 E0.03528
G1 X97.927 Y158.918 E0.03528
G1 X96.960 Y158.530 E0.03528
G1 X96.040 Y158.040 E0.03528
G1 X95.179 Y157.452 E0.03528
G1 X94.388 Y156.774 E0.03528
G1 X93.674 Y156.015 E0.03528
G1 X93.048 Y155.182 E0.03528
G1 X92.511 Y154.278 E0.03558
G1 X89.234 Y148.012 E0.23935
G1 X88.659 Y147.044 E0.03811
G1 X87.977 Y146.137 E0.03841
G1 X87.200 Y145.310 E0.03841
G1 X86.630 Y144.822 E0.02541
G1 X86.338 Y144.572 E0.01300
G1 X85.401 Y143.932 E0.03841
G1 X84.399 Y143.398 E0.03841
G1 X83.346 Y142.976 E0.03841
G1 X82.253 Y142.671 E0.03841
G1 X81.133 Y142.486 E0.03841
G1 X80.009 Y142.425 E0.03811
G1 X46.985 Y142.425 E1.11783
G1 X46.575 Y142.015 E0.01961
G1 X46.575 Y60.985 E2.74279
G1 X46.942 Y60.617 E0.01758
G1 X47.331 Y60.776 F9000.000
G1 E-3.50000 F3600.000
;WIPE_START
G1 F7200.000
G1 X49.942 Y60.616 E-1.42500
;WIPE_END
G1 E-0.07500 F3600.000
G1 X172.896 Y62.040 F9000.000
G1 E5.00000 F2400.000
;TYPE:Solid infill
;WIDTH:0.450674
G1 F2100.000
G1 X172.143 Y61.287 E0.03609
G1 X171.566 Y61.287 E0.01955
G1 X172.713 Y62.434 E0.05496
G1 X172.713 Y63.010 E0.01955
G1 X170.990 Y61.287 E0.08261
G1 X170.413 Y61.287 E0.01955
G1 X172.713 Y63.587 E0.11026
G1 X172.713 Y64.163 E0.01955
G1 X169.836 Y61.287 E0.13791
G1 X169.260 Y61.287 E0.01955
G1 X172.713 Y64.740 E0.16556
G1 X172.713 Y65.317 E0.01955
G1 X168.683 Y61.287 E0.19321
G1 X168.107 Y61.287 E0.01955
G1 X172.713 Y65.893 E0.22086
G1 X172.713 Y66.470 E0.01955
G1 X167.530 Y61.287 E0.24851
G1 X166.953 Y61.287 E0.01955
G1 X172.713 Y67.047 E0.27616
G1 X172.713 Y67.623 E0.01955
G1 X166.377 Y61.287 E0.30380
G1 X165.800 Y61.287 E0.01955
G1 X172.713 Y68.200 E0.33145
G1 X172.713 Y68.777 E0.01955
G1 X165.223 Y61.287 E0.35910
G1 X164.647 Y61.287 E0.01955
G1 X172.713 Y69.353 E0.38675
G1 X172.713 Y69.930 E0.01955
G1 X164.070 Y61.287 E0.41440
G1 X163.493 Y61.287 E0.01955
G1 X172.713 Y70.507 E0.44205
G1 X172.713 Y71.083 E0.01955
G1 X166.487 Y64.858 E0.29849
G1 X166.487 Y65.435 E0.01955
G1 X172.713 Y71.660 E0.29849
G1 X172.713 Y72.237 E0.01955
G1 X166.487 Y66.011 E0.29849
G1 X166.487 Y66.588 E0.01955
G1 X172.713 Y72.813 E0.29849
G1 X172.713 Y73.390 E0.01955
G1 X166.487 Y67.165 E0.29849
G1 X166.487 Y67.741 E0.01955
G1 X172.713 Y73.967 E0.29849
G1 X172.713 Y74.543 E0.01955
G1 X166.487 Y68.318 E0.29849
G1 X166.487 Y68.895 E0.01955
G1 X172.713 Y75.120 E0.29849
G1 X172.713 Y75.697 E0.01955
G1 X166.487 Y69.471 E0.29849
G1 X166.487 Y70.048 E0.01955
G1 X172.713 Y76.273 E0.29849
G1 X172.713 Y76.850 E0.01955
G1 X166.487 Y70.625 E0.29849
G1 X166.487 Y71.201 E0.01955
G1 X172.713 Y77.426 E0.29849
G1 X172.713 Y78.003 E0.01955
G1 X166.487 Y71.778 E0.29849
G1 X166.487 Y72.355 E0.01955
G1 X172.713 Y78.580 E0.29849
G1 X172.713 Y79.156 E0.01955
G1 X166.487 Y72.931 E0.29849
G1 X166.487 Y73.508 E0.01955
G1 X172.713 Y79.733 E0.29849
G1 X172.713 Y80.310 E0.01955
G1 X166.487 Y74.084 E0.29849
G1 X166.487 Y74.661 E0.01955
G1 X172.713 Y80.886 E0.29849
G1 X172.713 Y81.463 E0.01955
G1 X166.487 Y75.238 E0.29849
G1 X166.487 Y75.814 E0.01955
G1 X172.713 Y82.040 E0.29849
G1 X172.713 Y82.616 E0.01955
G1 X166.487 Y76.391 E0.29849
G1 X166.487 Y76.968 E0.01955
G1 X172.713 Y83.193 E0.29849
G1 X172.713 Y83.770 E0.01955
G1 X166.487 Y77.544 E0.29849
G1 X166.487 Y78.121 E0.01955
G1 X172.713 Y84.346 E0.29849
G1 X172.713 Y84.923 E0.01955
G1 X166.487 Y78.698 E0.29849
G1 X166.487 Y79.274 E0.01955
G1 X172.713 Y85.500 E0.29849
G1 X172.713 Y86.076 E0.01955
G1 X166.487 Y79.851 E0.29849
G1 X166.487 Y80.428 E0.01955
G1 X172.713 Y86.653 E0.29849
G1 X172.713 Y87.230 E0.01955
G1 X166.487 Y81.004 E0.29849
G1 X166.487 Y81.581 E0.01955
G1 X172.713 Y87.806 E0.29849
G1 X172.713 Y88.383 E0.01955
G1 X166.487 Y82.158 E0.29849
G1 X166.487 Y82.734 E0.01955
G1 X172.713 Y88.960 E0.29849
G1 X172.713 Y89.536 E0.01955
G1 X166.487 Y83.311 E0.29849
G1 X166.487 Y83.888 E0.01955
G1 X172.713 Y90.113 E0.29849
G1 X172.713 Y90.689 E0.01955
G1 X166.487 Y84.464 E0.29849
G1 X166.487 Y85.041 E0.01955
G1 X172.713 Y91.266 E0.29849
G1 X172.713 Y91.843 E0.01955
G1 X166.487 Y85.618 E0.29849
G1 X166.487 Y86.194 E0.01955
G1 X172.713 Y92.419 E0.29849
G1 X172.713 Y92.996 E0.01955
G1 X166.487 Y86.771 E0.29849
G1 X166.487 Y87.347 E0.01955
G1 X172.713 Y93.573 E0.29849
G1 X172.713 Y94.149 E0.01955
G1 X166.487 Y87.924 E0.29849
G1 X166.487 Y88.501 E0.01955
G1 X172.713 Y94.726 E0.29849
G1 X172.713 Y95.303 E0.01955
G1 X166.487 Y89.077 E0.29849
G1 X166.487 Y89.654 E0.01955
G1 X172.713 Y95.879 E0.29849
G1 X172.713 Y96.456 E0.01955
G1 X166.487 Y90.231 E0.29849
G1 X166.487 Y90.807 E0.01955
G1 X172.713 Y97.033 E0.29849
G1 X172.713 Y97.609 E0.01955
G1 X166.487 Y91.384 E0.29849
G1 X166.487 Y91.961 E0.01955
G1 X172.713 Y98.186 E0.29849
G1 X172.713 Y98.763 E0.01955
G1 X166.487 Y92.537 E0.29849
G1 X166.487 Y93.114 E0.01955
G1 X172.713 Y99.339 E0.29849
G1 X172.713 Y99.916 E0.01955
G1 X166.487 Y93.691 E0.29849
G1 X166.487 Y94.267 E0.01955
G1 X172.713 Y100.493 E0.29849
G1 X172.713 Y101.069 E0.01955
G1 X166.487 Y94.844 E0.29849
G1 X166.487 Y95.421 E0.01955
G1 X172.713 Y101.646 E0.29849
G1 X172.713 Y102.222 E0.01955
G1 X166.487 Y95.997 E0.29849
G1 X166.487 Y96.574 E0.01955
G1 X172.713 Y102.799 E0.29849
G1 X172.713 Y103.376 E0.01955
G1 X166.487 Y97.151 E0.29849
G1 X166.487 Y97.727 E0.01955
G1 X172.713 Y103.952 E0.29849
G1 X172.713 Y104.529 E0.01955
G1 X166.487 Y98.304 E0.29849
G1 X166.487 Y98.880 E0.01955
G1 X172.713 Y105.106 E0.29849
G1 X172.713 Y105.682 E0.01955
G1 X166.487 Y99.457 E0.29849
G1 X166.487 Y100.034 E0.01955
G1 X172.713 Y106.259 E0.29849
G1 X172.713 Y106.836 E0.01955
G1 X166.487 Y100.610 E0.29849
G1 X166.487 Y101.187 E0.01955
G1 X172.713 Y107.412 E0.29849
G1 X172.713 Y107.989 E0.01955
G1 X166.487 Y101.764 E0.29849
G1 X166.487 Y102.340 E0.01955
G1 X172.713 Y108.566 E0.29849
G1 X172.713 Y109.142 E0.01955
G1 X166.487 Y102.917 E0.29849
G1 X166.487 Y103.494 E0.01955
G1 X172.713 Y109.719 E0.29849
G1 X172.713 Y110.296 E0.01955
G1 X166.487 Y104.070 E0.29849
G1 X166.487 Y104.647 E0.01955
G1 X172.713 Y110.872 E0.29849
G1 X172.713 Y111.449 E0.01955
G1 X166.487 Y105.224 E0.29849
G1 X166.487 Y105.800 E0.01955
G1 X172.713 Y112.026 E0.29849
G1 X172.713 Y112.602 E0.01955
G1 X166.487 Y106.377 E0.29849
G1 X166.487 Y106.954 E0.01955
G1 X172.713 Y113.179 E0.29849
G1 X172.713 Y113.756 E0.01955
G1 X166.487 Y107.530 E0.29849
G1 X166.487 Y108.107 E0.01955
G1 X172.713 Y114.332 E0.29849
G1 X172.713 Y114.909 E0.01955
G1 X166.487 Y108.684 E0.29849
G1 X166.487 Y109.260 E0.01955
G1 X172.713 Y115.485 E0.29849
G1 X172.713 Y116.062 E0.01955
G1 X166.487 Y109.837 E0.29849
G1 X166.487 Y110.414 E0.01955
